srisadhan/powerball/bin/HRI_project/2021/Collision_admittance/Admittance_LowDaping_Gross_collision.csv
TimeStamp , Q1, Q2, Q3, Q4, Q5, Q6, dQ1, dQ2, dQ3, dQ4, dQ5, dQ6, Fx, Fy, Fz, Mx, My, Mz, Joint1_torque, Joint2_torque, Joint3_torque, Joint4_torque, Joint5_torque, Joint6_torque 
18:56:21:449969,-0.000139626,-0.581928,1.1875,0,1.35183,-0.000418879,0,-0.00561996,0,0,0,0.00333358,0,0,0,0,0,0,1.904,15.267,-14.791,-3.906,0.139491,0.538238
18:56:21:454969,-0.000139626,-0.581945,1.1875,0,1.35183,-0.000418879,0,-0.0039619,0,0,0,0,0,0,0,0,0,0,1.589,15.19,-14.504,-4.529,0.097221,0.381839
18:56:21:459972,-0.000139626,-0.581963,1.1875,0,1.35183,-0.000418879,0,-0.00218166,0,0,0,0,0,0,0,0,0,0,2.072,15.036,-14.091,-3.78,0.118356,0.294481
18:56:21:465086,-0.000139626,-0.581963,1.1875,0,1.35183,-0.000418879,0,-0.0018326,0,0,0,0,0,0,0,0,0,0,1.953,14.882,-14.693,-4.41,0.101448,0.546692
18:56:21:470036,-0.000139626,-0.581963,1.1875,0,1.35183,-0.000418879,0,0,0,0,0,0,0,0,0,0,0,0,2.023,15.575,-13.783,-4.326,0.185988,0.390293
18:56:21:475212,-0.000122173,-0.581963,1.1875,0,1.35183,-0.000418879,0,0,0,0,0,0,0,0,0,0,0,0,2.205,15.036,-15.008,-4.606,0.21135,0.349432
18:56:21:480230,-0.000122173,-0.581963,1.1875,0,1.35184,-0.000418879,0,0,0,0,0,0,0,0,0,0,0,0,1.855,14.616,-14.231,-4.725,0.07045,0.457925
18:56:21:485231,-0.000122173,-0.581963,1.1875,0,1.35184,-0.000418879,0,0,0,0,0,0,0,0,0,0,0,0,1.505,14.343,-14.819,-4.2,0.188806,0.442426
18:56:21:490353,-0.000122173,-0.581963,1.1875,0,1.35184,-0.000418879,0,0,0,0,0,0,0,0,0,0,0,0,1.659,15.071,-14.994,-4.41,0.202896,0.363522
18:56:21:495337,-0.000122173,-0.581963,1.1875,0,1.35184,-0.000418879,0,0,0,0,0,0,0,0,0,0,0,0,1.827,15.694,-14.189,-4.102,0.114129,0.45088
18:56:21:500476,-0.000122173,-0.581963,1.1875,0,1.35184,-0.000418879,0,0,0,0,0,0,0,0,0,0,0,0,2.114,15.197,-14.364,-3.892,0.121174,0.376203
18:56:21:505413,-0.000122173,-0.581963,1.1875,0,1.35184,-0.000418879,0,0,0,0,0,0,0,0,0,0,0,0,1.68,14.385,-14.791,-4.501,0.080313,0.410019
18:56:21:510588,-0.000122173,-0.581963,1.1875,0,1.35184,-0.000418879,0,0,0,0,0,0,0,0,0,0,0,0,2.632,15.071,-14.826,-4.823,0.125401,0.460743
18:56:21:515587,-0.000122173,-0.581963,1.1875,0,1.35184,-0.000418879,0,0,0,0,0,0,0,0,0,0,0,0,1.547,15.26,-14.546,-4.095,0.150763,0.448062
18:56:21:520722,-0.000122173,-0.581963,1.1875,0,1.35184,-0.000418879,0,0,0,0,0,0,0,0,0,0,0,0,1.932,14.735,-14.441,-3.99,0.077495,0.45088
18:56:21:525714,-0.000122173,-0.581963,1.1875,0,1.35184,-0.000418879,0,0,0,0,0,0,0,0,0,0,0,0,2.093,14.791,-14.861,-4.403,0.118356,0.373385
18:56:21:530836,-0.000122173,-0.581963,1.1875,0,1.35184,-0.000418879,0,0,0,0,0,0,0,0,0,0,0,0,2.275,15.918,-14.287,-4.088,0.200078,0.469197
18:56:21:535838,-0.000122173,-0.581963,1.1875,0,1.35184,-0.000418879,0,0,0,0,0,0,0,0,0,0,0,0,2.114,15.344,-14.602,-4.515,0.021135,0.431154
18:56:21:540977,-0.000122173,-0.581963,1.1875,0,1.35184,-0.000418879,0,0,0,0,0,0,0,0,0,0,0,0,2.282,15.12,-15.848,-4.116,0.095812,0.518512
18:56:21:545960,-0.000122173,-0.581963,1.1875,0,1.35184,-0.000418879,0,0,0,0,0,0,0,0,0,0,0,0,1.519,15.043,-14.602,-4.704,0.121174,0.477651
18:56:21:550908,-0.000122173,-0.581963,1.1875,0,1.35184,-0.000418879,0,0,0,0,0,0,0,0,0,0,0,0,1.428,14.728,-14.637,-4.298,0.07045,0.500195
18:56:21:556104,-0.000122173,-0.581963,1.1875,0,1.35184,-0.000418879,0,0,0,0,0,0,0,0,0,0,0,0,1.855,15.113,-14.938,-4.816,0.114129,0.486105
18:56:21:561047,-0.000122173,-0.581963,1.1875,0,1.35184,-0.000418879,0,0,0,0,0,0,0,0,0,0,0,0,2.422,15.19,-14.952,-4.508,0.029589,0.395929
18:56:21:566207,-0.000122173,-0.581963,1.1875,0,1.35184,-0.000418879,0,0,0,0,0,0,0,0,0,0,0,0,2.254,15.085,-14.301,-3.787,0.073268,0.494559
18:56:21:571223,-0.000122173,-0.581963,1.1875,0,1.35184,-0.000418879,0,0,0,0,0,0,0,0,0,0,0,0,2.184,15.379,-14.525,-3.892,0.061996,0.515694
18:56:21:576344,-0.000122173,-0.581963,1.1875,0,1.35184,-0.000418879,0,0,0,0,0,0,0,0,0,0,0,0,2.443,14.735,-14.182,-4.515,0.094403,0.445244
18:56:21:581350,-0.000122173,-0.58198,1.1875,0,1.35184,-0.000418879,0,0,0,0,0,0,0,0,0,0,0,0,1.785,14.392,-14.637,-4.305,0.063405,0.483287
18:56:21:586458,-0.000122173,-0.58198,1.1875,0,1.35184,-0.000418879,0,0,0,0,0,0,0,0,0,0,0,0,2.163,14.63,-14.798,-3.892,0.190215,0.390293
18:56:21:591457,-0.000122173,-0.58198,1.1875,0,1.35184,-0.000418879,0,0,0,0,0,0,0,0,0,0,0,0,2.205,14.91,-14.896,-4.2,0.061996,0.445244
18:56:21:596582,-0.000122173,-0.58198,1.1875,0,1.35184,-0.000418879,0,0,0,0,0,0,0,0,0,0,0,0,1.764,15.19,-14.497,-4.305,0.142309,0.373385
18:56:21:601583,-0.000122173,-0.58198,1.1875,0,1.35184,-0.000418879,0,0,0,0,0,0,0,0,0,0,0,0,1.596,14.861,-14.497,-4.095,0.180352,0.43679
18:56:21:606531,-0.000122173,-0.58198,1.1875,0,1.35184,-0.000418879,0,0,0,0,0,0,0,0,0,0,0,0,1.764,14.84,-15.015,-4.305,0.080313,0.411428
18:56:21:611715,-0.000122173,-0.58198,1.1875,0,1.35184,-0.000418879,0,0,0,0,0,0,0,0,0,0,0,0,2.443,14.735,-14.175,-3.682,0.102857,0.500195
18:56:21:616659,-0.000122173,-0.58198,1.1875,0,1.35184,-0.000418879,0,0,0,0,0,0,0,0,0,0,0,0,1.645,14.861,-13.86,-3.99,0.111311,0.329706
18:56:21:621835,-0.000122173,-0.58198,1.1875,0,1.35184,-0.000418879,0,0,0,0,0,0,0,0,0,0,0,0,1.876,15.61,-14.273,-3.997,0.092994,0.433972
18:56:21:626833,-0.000122173,-0.58198,1.1875,0,1.35184,-0.000418879,0,0,0,0,0,0,0,0,0,0,0,0,2.233,14.322,-15.162,-4.298,0.066223,0.608688
18:56:21:631969,-0.000122173,-0.58198,1.1875,0,1.35184,-0.000418879,0,0,0,0,0,0,0,0,0,0,0,0,2.023,14.749,-14.567,-4.41,0.076086,0.463561
18:56:21:636972,-0.000122173,-0.58198,1.1875,0,1.35184,-0.000418879,0,0,0,0,0,0,0,0,0,0,0,0,2.352,15.61,-15.029,-3.787,0.205714,0.381839
18:56:21:641945,-0.000122173,-0.58198,1.1875,0,1.35184,-0.000418879,0,0,0,0,0,0,0,0,0,0,0,0,2.093,14.749,-14.161,-4.711,-0.025362,0.497377
18:56:21:647115,-0.000122173,-0.58198,1.1875,0,1.35184,-0.000418879,0,0,0,0,0,0,0,0,0,0,0,0,2.254,14.574,-14.791,-3.892,0.076086,0.357886
18:56:21:652053,-0.000122173,-0.58198,1.1875,0,1.35184,-0.000418879,0,0,0,0,0,0,0,0,0,0,0,0,1.477,14.497,-14.567,-3.997,0.095812,0.494559
18:56:21:657154,-0.000122173,-0.58198,1.1875,0,1.35184,-0.000418879,0,0,0,0,0,0,0,0,0,0,0,0,0.938,14.763,-14.707,-4.298,0.060587,0.556555
18:56:21:662221,-0.000122173,-0.58198,1.1875,0,1.35184,-0.000418879,0,0,0,0,0,0,0,0,0,0,0,0,1.806,14.994,-14.504,-3.892,0.074677,0.515694
18:56:21:667278,-0.000122173,-0.58198,1.1875,0,1.35184,-0.000418879,0,0,0,0,0,0,0,0,0,0,0,0,2.114,15.54,-15.211,-3.787,0.1409,0.565009
18:56:21:672470,-0.000122173,-0.58198,1.1875,0,1.35184,-0.000418879,0,0,0,0,0,0,0,0,0,0,0,0,1.785,15.204,-14.196,-3.787,0.287436,0.466379
18:56:21:677457,-0.000122173,-0.58198,1.1875,0,1.35184,-0.000418879,0,0,0,0,0,0,0,0,0,0,0,0,1.575,15.498,-14.56,-4.403,0.195851,0.417064
18:56:21:682397,-0.000122173,-0.58198,1.1875,0,1.35184,-0.000418879,0,0,0,0,0,0,0,0,0,0,0,0,1.645,14.833,-14.294,-3.787,0.08454,0.419882
18:56:21:687578,-0.000122173,-0.58198,1.1875,0,1.35184,-0.000418879,0,0,0,0,0,0,0,0,0,0,0,0,1.855,14.805,-14.511,-4.305,0.054951,0.300117
18:56:21:692595,-0.000122173,-0.58198,1.1875,0,1.35184,-0.000418879,0,0,0,0,0,0,0,0,0,0,0,0,2.205,14.791,-14.847,-4.403,0.157808,0.457925
18:56:21:697719,-0.000122173,-0.58198,1.1875,0,1.35184,-0.000418879,0,0,0,0,0,0,-0.112,-0.042,0.018,-0.001,0.001,-0.002,1.925,14.35,-14.693,-4.403,0.147945,0.433972
18:56:21:702710,-0.000122173,-0.58198,1.1875,0,1.35184,-0.000418879,0,0,0,0,0,0,-0.103,0.007,-0.112,-0.001,0.001,-0.001,1.785,15.099,-14.931,-4.305,0.043679,0.456516
18:56:21:707841,-0.000122173,-0.58198,1.1875,0,1.35184,-0.000418879,0,0,0,0,0,0,-0.074,0.077,-0.303,-0.001,0.001,0,1.925,15.169,-14.707,-4.508,0.135264,0.474833
18:56:21:712791,-0.000122173,-0.58198,1.1875,0,1.35184,-0.000418879,0,0,0,0,0,0,-0.044,0.088,-0.332,-0.001,0.001,0,1.876,14.875,-14.301,-4.095,0.077495,0.4227
18:56:21:717953,-0.000122173,-0.58198,1.1875,0,1.35184,-0.000418879,0,0,0,0,0,0,-0.002,0.041,-0.17,0,0.001,0,2.065,14.371,-15.162,-4.095,0.167671,0.373385
18:56:21:722901,-0.000122173,-0.58198,1.1875,0,1.35184,-0.000418879,0,0,0,0,0,0,0.007,-0.005,-0.007,0,0,0,1.925,15.057,-14.77,-4.613,0.094403,0.404383
18:56:21:728076,-0.000122173,-0.58198,1.1875,0,1.35184,-0.000418879,0,0,0,0,0,0,0.003,-0.046,0.127,0,0,0,1.337,14.924,-14.294,-4.095,-0.016908,0.431154
18:56:21:733039,-0.000122173,-0.58198,1.1875,0,1.35184,-0.000418879,0,0,0,0,0,0,0.009,-0.049,0.117,0,0,0,1.547,14.238,-14.917,-3.892,0.095812,0.457925
18:56:21:738022,-0.000122173,-0.58198,1.1875,0,1.35184,-0.000418879,0,0,0,0,0,0,0.032,-0.045,0.066,0,0,0,2.044,15.365,-14.378,-3.892,0.074677,0.45088
18:56:21:743150,-0.000122173,-0.58198,1.1875,0,1.35184,-0.000418879,0,0,0,0,0,0,0.037,-0.04,0.047,0,0,0,2.254,14.805,-14.028,-4.921,0.043679,0.543874
18:56:21:748203,-0.000122173,-0.58198,1.1875,0,1.35184,-0.000418879,0,0,0,0,0,0,0.02,-0.025,0.01,0,0,0,2.275,15.148,-13.748,-3.997,0.039452,0.387475
18:56:21:753274,-0.000122173,-0.58198,1.1875,0,1.35184,-0.000418879,0,0,0,0,0,0,-0.001,0.002,-0.107,0.001,0.001,0.001,1.176,15.246,-14.812,-3.997,0.121174,0.379021
18:56:21:758329,-0.000122173,-0.58198,1.1875,0,1.35184,-0.000418879,0,0,0,0,0,0,0.005,-0.001,-0.142,0.001,0,0.001,2.233,14.98,-15.12,-3.892,0.080313,0.346614
18:56:21:763451,-0.000122173,-0.58198,1.1875,0,1.35184,-0.000418879,0,0,0,0,0,0,0.04,-0.055,0.04,0.001,0,0,2.205,16.478,-15.344,-4.508,0.102857,0.518512
18:56:21:768600,-0.000122173,-0.58198,1.1875,0,1.35184,-0.000418879,0,0,0,0,0,0,0.056,-0.097,0.278,0.001,0,-0.001,1.575,15.148,-14.091,-4.095,0.032407,0.387475
18:56:21:773591,-0.000122173,-0.58198,1.1875,0,1.35184,-0.000418879,0,0,0,0,0,0,0.048,-0.11,0.501,0,0,-0.003,1.428,15.876,-14.623,-4.305,0.100039,0.457925
18:56:21:778539,-0.000122173,-0.58198,1.1875,0,1.35184,-0.000418879,0,0,0,0,0,0,0.032,-0.08,0.418,0,0,-0.003,1.477,14.308,-14.476,-4.2,0.08454,0.457925
18:56:21:783700,-0.000122173,-0.58198,1.1875,0,1.35184,-0.000418879,0,0,0,0,0,0,0.018,-0.008,0.04,0,0.001,0,2.254,14.994,-14.882,-3.787,0.088767,0.494559
18:56:21:788715,-0.000122173,-0.58198,1.1875,0,1.35184,-0.000418879,0,0,0,0,0,0,0.019,0.033,-0.189,0,0.001,0.001,2.702,15.113,-14.896,-3.997,0.07045,0.410019
18:56:21:793714,-0.000122173,-0.58198,1.1875,0,1.35184,-0.000418879,0,0,0,0,0,0,0.024,0.056,-0.253,0,0,0.001,2.163,15.568,-13.986,-4.095,0.136673,0.414246
18:56:21:798822,-0.000122173,-0.58198,1.1875,0,1.35184,-0.000418879,0,0,0,0,0,0,0.021,0.034,-0.108,0,0,0,1.547,14.819,-14.392,-4.095,0.136673,0.395929
18:56:21:803964,-0.000122173,-0.58198,1.1875,0,1.35184,-0.000418879,0,0,0,0,0,0,0.01,-0.036,0.206,0,0.001,-0.001,1.995,14.497,-14.973,-3.689,0.102857,0.474833
18:56:21:808944,-0.000122173,-0.58198,1.1875,0,1.35184,-0.000418879,0,0,0,0,0,0,0.007,-0.074,0.363,0,0.001,-0.003,1.834,14.861,-14.756,-4.508,0.125401,0.439608
18:56:21:813950,-0.000122173,-0.58198,1.1875,0,1.35184,-0.000418879,0,0,0,0,0,0,0.018,-0.07,0.41,0,0,-0.003,2.443,14.882,-14.567,-4.2,0.07045,0.445244
18:56:21:819091,-0.000122173,-0.58198,1.1875,0,1.35184,-0.000418879,0,0,0,0,0,0,0.03,-0.039,0.326,0,0,-0.002,1.995,14.63,-14.063,-4.613,-0.01409,0.500195
18:56:21:824083,-0.000122173,-0.58198,1.1875,-1.74533e-05,1.35184,-0.000418879,0,0,0,0,0,0,0.04,-0.01,0.129,0,0,0,1.687,14.567,-14.301,-3.584,0.132446,0.515694
18:56:21:829209,-0.000122173,-0.58198,1.1875,-1.74533e-05,1.35186,-0.000418879,0,0,0,0,0,0,0.037,-0.027,-0.035,0,0,0,2.093,15.099,-14.847,-3.696,0.049315,0.410019
18:56:21:834197,-0.000122173,-0.58198,1.1875,-1.74533e-05,1.35186,-0.000418879,0,0,0,0,0,0,0.033,-0.038,-0.091,0,0,0.001,2.373,15.435,-13.909,-4.606,0.077495,0.477651
18:56:21:839164,-0.000122173,-0.58198,1.1875,-1.74533e-05,1.35186,-0.000418879,0,0,0,0,0,0,0.026,-0.026,-0.082,0,0,0,2.205,14.805,-14.504,-4.305,0.046497,0.445244
18:56:21:844317,-0.000122173,-0.58198,1.1875,-1.74533e-05,1.35186,-0.000418879,0,0,0,0,0,0,0.012,-0.013,-0.029,0,0,0,2.065,15.113,-14.588,-3.997,0.153581,0.460743
18:56:21:849465,-0.000122173,-0.58198,1.1875,-1.74533e-05,1.35186,-0.000418879,0,0,0,0,0,0,-0.021,-0.028,0.06,0,0.001,0,1.946,15.526,-14.553,-5.019,0.125401,0.364931
18:56:21:854443,-0.000122173,-0.58198,1.1875,-1.74533e-05,1.35186,-0.000418879,0,0,0,0,0,0,-0.038,-0.063,0.109,0,0.001,0,1.407,14.483,-14.455,-3.787,0.061996,0.387475
18:56:21:859510,-0.000122173,-0.58198,1.1875,-1.74533e-05,1.35186,-0.000418879,0,0,0,0,0,0,-0.037,-0.122,0.204,0,0,0,2.632,15.463,-14.658,-4.508,0.131037,0.4227
18:56:21:864589,-0.000122173,-0.58198,1.1875,-1.74533e-05,1.35186,-0.000418879,0,0,0,0,0,0,-0.025,-0.145,0.315,0,0,0,1.148,15.204,-14.623,-3.892,0.128219,0.370567
18:56:21:869611,-0.000122173,-0.58198,1.1875,-1.74533e-05,1.35186,-0.000418879,0,0,0,0,0,0,-0.019,-0.14,0.499,0,0,-0.002,2.583,14.658,-14.196,-4.2,0.023953,0.393111
18:56:21:874695,-0.000122173,-0.58198,1.1875,-1.74533e-05,1.35186,-0.000418879,0,0,0,0,0,0,-0.026,-0.112,0.541,0,0,-0.003,2.275,14.672,-14.364,-3.794,0.090176,0.448062
18:56:21:879659,-0.000122173,-0.58198,1.1875,-1.74533e-05,1.35186,-0.000418879,0,0,0,0,0,0,-0.024,-0.048,0.401,0,0,-0.002,2.163,15.743,-14.21,-4.2,-0.008454,0.504422
18:56:21:884820,-0.000122173,-0.58198,1.1875,-1.74533e-05,1.35186,-0.000418879,0,0,0,0,0,0,-0.004,-0.011,0.245,0,0,-0.001,1.078,14.819,-14.105,-3.787,0.181761,0.283209
18:56:21:889767,-0.000122173,-0.58198,1.1875,-1.74533e-05,1.35186,-0.000418879,0,0,0,0,0,0,0.038,0.007,0.092,0,0,0,2.163,15.449,-13.979,-4.2,0.026771,0.332524
18:56:21:894944,-0.000122173,-0.58198,1.1875,-1.74533e-05,1.35184,-0.000418879,0,0,0,0,0,0,0.057,-0.001,0.05,0.001,0,0,1.645,15.449,-14.182,-4.305,0.091585,0.404383
18:56:21:899944,-0.000122173,-0.58198,1.1875,-1.74533e-05,1.35184,-0.000418879,0,0,0,0,0,0,0.058,-0.004,-0.052,0.001,0,0,2.044,15.085,-14.546,-3.794,0.121174,0.433972
18:56:21:904888,-0.000122173,-0.58198,1.1875,-1.74533e-05,1.35184,-0.000418879,0,0,0,0,0,0,0.047,0.015,-0.159,0,0,0,2.016,15.302,-14.476,-3.997,0.198669,0.456516
18:56:21:910067,-0.000122173,-0.58198,1.1875,-1.74533e-05,1.35184,-0.000418879,0,0,0,0,0,0,0.03,0.05,-0.228,0,0.001,0.002,2.275,15.246,-14.112,-3.696,0.100039,0.346614
18:56:21:915211,-0.000122173,-0.58198,1.1875,-1.74533e-05,1.35184,-0.000418879,0,0,0,0,0,0,0.02,0.047,-0.126,-0.001,0.001,0.001,2.443,15.582,-14.329,-4.711,0.18317,0.373385
18:56:21:920137,-0.000122173,-0.58198,1.1875,-1.74533e-05,1.35184,-0.000418879,0,0,0,0,0,0,0.022,0.029,-0.062,0,0.001,0.001,2.373,14.721,-14.434,-4.711,0.108493,0.463561
18:56:21:925139,-0.000122173,-0.58198,1.1875,-1.74533e-05,1.35186,-0.000418879,0,0,0,0,0,0,0.034,0.004,-0.057,0,0,0,1.617,15.057,-14.588,-4.396,0.090176,0.363522
18:56:21:930280,-0.000122173,-0.58198,1.1875,-1.74533e-05,1.35186,-0.000418879,0,0,0,0,0,0,0.041,-0.005,-0.036,0,0,0,2.184,14.651,-14.203,-4.606,0.102857,0.367749
18:56:21:935317,-0.000122173,-0.58198,1.1875,-1.74533e-05,1.35186,-0.000418879,0,0,0,0,0,0,0.033,-0.025,0.123,0,0,0,1.316,14.693,-14.63,-3.801,0.023953,0.457925
18:56:21:940440,-0.000122173,-0.58198,1.1875,-1.74533e-05,1.35186,-0.000418879,0,0,0,0,0,0,0.021,-0.043,0.243,0,0,-0.001,1.288,15.246,-14.21,-4.2,0.071859,0.376203
18:56:21:945568,-0.000122173,-0.58198,1.1875,-1.74533e-05,1.35186,-0.000418879,0,0,0,0,0,0,0.014,-0.068,0.261,0,0,-0.001,1.995,15.421,-14.322,-4.298,0.011272,0.488923
18:56:21:950587,-0.000122173,-0.58198,1.1875,-1.74533e-05,1.35186,-0.000418879,0,0,0,0,0,0,0.023,-0.076,0.173,0,0,0,1.386,15.932,-14.203,-3.997,0.156399,0.318434
18:56:21:955708,-0.000122173,-0.58198,1.1875,-1.74533e-05,1.35186,-0.000418879,0,0,0,0,0,0,0.038,-0.069,0.049,0,0,0,1.526,15.449,-14.91,-4.298,0.132446,0.480469
18:56:21:960636,-0.000122173,-0.58198,1.1875,-1.74533e-05,1.35186,-0.000418879,0,0,0,0,0,0,0.035,-0.052,0.021,0,0,0,1.785,15.624,-14.665,-4.291,0.036634,0.4227
18:56:21:965829,-0.000122173,-0.58198,1.1875,-1.74533e-05,1.35186,-0.000418879,0,0,0,0,0,0,0.011,-0.014,0.008,0,0,0,1.925,14.84,-14.231,-3.899,0.100039,0.340978
18:56:21:970830,-0.000122173,-0.58198,1.1875,-1.74533e-05,1.35186,-0.000418879,0,0,0,0,0,0,-0.003,0.007,-0.019,0,0,0,2.016,14.938,-14.42,-3.808,0.005636,0.414246
18:56:21:975973,-0.000122173,-0.58198,1.1875,-1.74533e-05,1.35186,-0.000418879,0,0,0,0,0,0,-0.012,0.017,-0.072,0,0,0,2.016,16.114,-14.301,-3.696,0.100039,0.472015
18:56:21:980951,-0.000122173,-0.58198,1.1875,-1.74533e-05,1.35186,-0.000418879,0,0,0,0,0,0,-0.013,0.01,-0.072,0,0,0.001,1.904,15.316,-13.846,-3.703,0.153581,0.376203
18:56:21:986081,-0.000122173,-0.58198,1.1875,-1.74533e-05,1.35186,-0.000418879,0,0,0,0,0,0,-0.01,-0.009,-0.005,0,0,0,1.785,15.617,-14.406,-4.312,0.030998,0.50724
18:56:21:991064,-0.000122173,-0.58198,1.1875,-1.74533e-05,1.35186,-0.000418879,0,0,0,0,0,0,0,-0.022,0.052,0,0,0,1.925,15.148,-14.511,-3.794,0.018317,0.35225
18:56:21:996082,-0.000122173,-0.58198,1.1875,-1.74533e-05,1.35186,-0.000418879,0,0,0,0,0,0,0.025,-0.035,0.12,0,0,0,2.275,15.407,-14.105,-4.214,0.015499,0.453698
18:56:22:1208,-0.000122173,-0.58198,1.1875,-1.74533e-05,1.35186,-0.000418879,0,0,0,0,0,0,0.031,-0.038,0.217,0,0,-0.001,1.736,15.26,-13.545,-4.305,0.100039,0.381839
18:56:22:6143,-0.000122173,-0.58198,1.1875,-1.74533e-05,1.35186,-0.000418879,0,0,0,0,0,0,0.014,-0.036,0.317,0,0,-0.002,1.785,14.735,-14.511,-4.2,0.049315,0.460743
18:56:22:11333,-0.000122173,-0.58198,1.1875,-1.74533e-05,1.35186,-0.000418879,0,0,0,0,0,0,-0.012,-0.037,0.424,0,0,-0.003,1.806,14.343,-13.888,-3.794,0.107084,0.425518
18:56:22:16321,-0.000122173,-0.58198,1.1875,-1.74533e-05,1.35186,-0.000418879,0,0,0,0,0,0,-0.012,-0.043,0.385,0,0,-0.003,2.394,14.371,-13.902,-4.809,-0.011272,0.480469
18:56:22:21445,-0.000122173,-0.58198,1.1875,-1.74533e-05,1.35186,-0.000418879,0,0,0,0,0,0,0.014,-0.047,0.146,0,0,-0.001,2.394,15.316,-14.497,-4.599,-0.015499,0.390293
18:56:22:26438,-0.000122173,-0.58198,1.1875,-1.74533e-05,1.35186,-0.000418879,0,0,0,0,0,0,0.034,-0.038,-0.056,0,0,0,2.135,15.61,-13.776,-3.605,0.081722,0.367749
18:56:22:31387,-0.000122173,-0.58198,1.1875,-1.74533e-05,1.35186,-0.000418879,0,0,0,0,0,0,0.05,-0.008,-0.276,0,0,0.002,2.352,15.673,-13.734,-4.095,0,0.488923
18:56:22:36566,-0.000122173,-0.58198,1.1875,-1.74533e-05,1.35186,-0.000418879,0,0,0,0,0,0,0.051,0.01,-0.318,0,0,0.002,2.023,15.715,-14.756,-3.997,0.08454,0.417064
18:56:22:41516,-0.000122173,-0.58198,1.1875,-1.74533e-05,1.35186,-0.000418879,0,0,0,0,0,0,0.04,0.013,-0.216,0,0.001,0.001,1.386,15.008,-14.07,-4.501,0.160626,0.50724
18:56:22:46690,-0.000122173,-0.58198,1.1875,-1.74533e-05,1.35186,-0.000418879,0,0,0,0,0,0,0.029,-0.002,-0.072,0,0.001,0,2.184,15.393,-14.343,-4.2,0.002818,0.410019
18:56:22:51641,-0.000122173,-0.58198,1.1875,-1.74533e-05,1.35186,-0.000418879,0,0,0,0,0,0,0.028,-0.035,0.116,0,0,0,1.148,15.26,-13.818,-4.305,-0.036634,0.445244
18:56:22:56815,-0.000122173,-0.58198,1.1875,-1.74533e-05,1.35186,-0.000418879,0,0,0,0,0,0,0.045,-0.051,0.134,0,0,0,1.904,14.623,-14.035,-3.696,0.090176,0.32407
18:56:22:61767,-0.000122173,-0.58198,1.1875,-1.74533e-05,1.35186,-0.000418879,0,0,0,0,0,0,0.083,-0.053,-0.031,0,0,0,1.687,15.54,-14.658,-4.396,0.077495,0.35225
18:56:22:66935,-0.000122173,-0.58198,1.1875,-1.74533e-05,1.35186,-0.000418879,0,0,0,0,0,0,0.096,-0.042,-0.189,0,0,0.001,2.044,15.393,-14.084,-4.487,0.171898,0.469197
18:56:22:71964,-0.000122173,-0.58198,1.1875,-1.74533e-05,1.35186,-0.000418879,0,0,0,0,0,0,0.081,-0.023,-0.314,0.001,0,0.003,1.946,15.568,-14.385,-4.403,0.064814,0.363522
18:56:22:77077,-0.000122173,-0.58198,1.1875,-1.74533e-05,1.35186,-0.000418879,0,0,0,0,0,0,0.058,-0.02,-0.282,0.001,0,0.002,1.057,15.176,-13.608,-3.997,0.090176,0.411428
18:56:22:82003,-0.000122173,-0.58198,1.1875,-1.74533e-05,1.35186,-0.000418879,0,0,0,0,0,0,0.023,-0.032,-0.134,0,0,0.001,1.904,15.526,-13.776,-4.207,0.094403,0.433972
18:56:22:87185,-0.000122173,-0.58198,1.1875,-1.74533e-05,1.35186,-0.000418879,0,0,0,0,0,0,-0.006,-0.041,-0.01,0,0,0,1.855,15.435,-13.846,-3.703,0.011272,0.393111
18:56:22:92183,-0.000122173,-0.58198,1.1875,-1.74533e-05,1.35186,-0.000418879,0,0,0,0,0,0,-0.028,-0.032,0.024,0,0.001,0,1.946,15.743,-14.042,-4.298,0.107084,0.445244
18:56:22:97154,-0.000122173,-0.58198,1.1875,-1.74533e-05,1.35186,-0.000418879,0,0,0,0,0,0,-0.055,-0.006,0.057,0,0.001,0,1.785,15.015,-14.084,-3.892,0.061996,0.414246
18:56:22:102307,-0.000122173,-0.58198,1.1875,-1.74533e-05,1.35186,-0.000418879,0,0,0,0,0,0,-0.056,0,0.111,0,0.001,0,1.617,15.26,-14.182,-4.599,0.138082,0.439608
18:56:22:107308,-0.000122173,-0.58198,1.1875,-1.74533e-05,1.35186,-0.000418879,0,0,0,0,0,0,-0.028,-0.02,0.22,0,0,0,1.925,16.198,-14.231,-4.305,0.071859,0.43679
18:56:22:112449,-0.000122173,-0.58198,1.1875,-1.74533e-05,1.35186,-0.000418879,0,0,0,0,0,0,-0.005,-0.039,0.244,0,0,0,2.184,15.176,-14.406,-4.298,0.033816,0.483287
18:56:22:117376,-0.000122173,-0.58198,1.1875,-1.74533e-05,1.35184,-0.000418879,0,0,0,0,0,0,0.011,-0.046,0.152,0,0,0,2.044,15.61,-14.231,-3.5,-0.002818,0.335342
18:56:22:122558,-0.000122173,-0.58198,1.1875,-1.74533e-05,1.35184,-0.000418879,0,0,0,0,0,0,0.013,-0.038,0.059,0,0,0,1.806,15.624,-14.385,-4.095,0.15499,0.515694
18:56:22:127561,-0.000122173,-0.58198,1.1875,-1.74533e-05,1.35184,-0.000418879,0,0,0,0,0,0,0.017,-0.035,0.006,0,0,0,0.798,14.427,-14.084,-3.99,0.176125,0.453698
18:56:22:132564,-0.000122173,-0.58198,1.1875,-1.74533e-05,1.35184,-0.000418879,0,0,0,0,0,0,0.02,-0.044,0.038,0,0,0,1.099,15.246,-13.902,-3.787,0.061996,0.570645
18:56:22:137682,-0.000122173,-0.58198,1.1875,-1.74533e-05,1.35184,-0.000418879,0,0,0,0,0,0,0.014,-0.056,0.106,0,0,0,1.477,15.246,-14.014,-3.787,0.173307,0.453698
18:56:22:142629,-0.000122173,-0.58198,1.1875,-1.74533e-05,1.35184,-0.000418879,0,0,0,0,0,0,0.005,-0.051,0.132,0,0,0,1.876,15.743,-13.797,-3.696,0.059178,0.35225
18:56:22:147804,-0.000122173,-0.58198,1.1875,-1.74533e-05,1.35184,-0.000418879,0,0,0,0,0,0,0.001,-0.028,0.144,0,0,0,2.275,15.176,-14.147,-4.207,0.077495,0.355068
18:56:22:152810,-0.000122173,-0.58198,1.1875,-1.74533e-05,1.35184,-0.000418879,0,0,0,0,0,0,0,-0.016,0.126,0,0,0,2.163,14.749,-14.231,-4.214,0,0.326888
18:56:22:157932,-0.000122173,-0.58198,1.1875,-1.74533e-05,1.35184,-0.000418879,0,0,0,0,0,0,-0.023,-0.014,0.027,0,0.001,0,2.065,14.413,-13.657,-4.095,0.143718,0.448062
18:56:22:162931,-0.000122173,-0.58198,1.1875,-1.74533e-05,1.35184,-0.000418879,0,0,0,0,0,0,-0.054,-0.016,-0.064,0,0.001,0,1.246,15.085,-14.252,-4.207,0.176125,0.453698
18:56:22:168056,-0.000122173,-0.58198,1.1875,-1.74533e-05,1.35184,-0.000418879,0,0,0,0,0,0,-0.083,-0.02,-0.121,0,0,0,1.197,15.505,-13.888,-3.997,0.054951,0.4227
18:56:22:173054,-0.000122173,-0.58198,1.1875,-1.74533e-05,1.35184,-0.000418879,0,0,0,0,0,0,-0.071,-0.031,-0.066,0,0,0,1.904,16.142,-13.916,-3.577,0.094403,0.370567
18:56:22:178055,-0.000122173,-0.58198,1.1875,-1.74533e-05,1.35184,-0.000418879,0,0,0,0,0,0,-0.022,-0.063,0.075,0,0,0,1.575,15.554,-13.405,-4.606,0.212759,0.597416
18:56:22:183180,-0.000122173,-0.58198,1.1875,-1.74533e-05,1.35184,-0.000418879,0,0,0,0,0,0,0.007,-0.083,0.117,0,0,0,2.394,15.974,-14.084,-3.591,0.095812,0.390293
18:56:22:188130,-0.000122173,-0.58198,1.1875,-1.74533e-05,1.35184,-0.000418879,0,0,0,0,0,0,0.004,-0.069,0.066,0,0,0,1.547,15.785,-14.161,-3.808,-0.043679,0.510058
18:56:22:193309,-0.000122173,-0.58198,1.1875,-1.74533e-05,1.35184,-0.000418879,0,0,0,0,0,0,0,-0.015,-0.01,0,0,0,2.352,16.121,-13.881,-4.018,0.095812,0.45088
18:56:22:198308,-0.000122173,-0.58198,1.1875,-1.74533e-05,1.35184,-0.000418879,0,0,0,0,0,0,0.011,0.012,0.005,0,0,0,1.666,15.246,-13.811,-3.584,0.116947,0.35225
18:56:22:203433,-0.000122173,-0.58198,1.1875,-1.74533e-05,1.35184,-0.000418879,0,0,0,0,0,0,0.039,0.005,0.122,0,0,-0.001,1.834,15.596,-13.993,-4.018,-0.012681,0.411428
18:56:22:208394,-0.000122173,-0.58198,1.1875,-1.74533e-05,1.35184,-0.000418879,0,0,0,0,0,0,0.047,-0.021,0.184,0,0,-0.002,1.246,15.757,-13.958,-3.976,0.207123,0.45088
18:56:22:213383,-0.000122173,-0.58198,1.1875,-1.74533e-05,1.35184,-0.000418879,0,0,0,0,0,0,0.029,-0.046,0.131,0,0,-0.001,1.876,15.589,-14.063,-3.794,0.207123,0.363522
18:56:22:218559,-0.000122173,-0.58198,1.1875,-1.74533e-05,1.35184,-0.000418879,0,0,0,0,0,0,0.007,-0.043,0.009,0,0,0,1.687,15.701,-14.385,-3.493,0.040861,0.431154
18:56:22:223687,-0.000122173,-0.58198,1.1875,-1.74533e-05,1.35184,-0.000418879,0,0,0,0,0,0,-0.013,-0.028,-0.154,0,0.001,0.001,1.834,15.148,-13.916,-3.892,-0.009863,0.469197
18:56:22:228629,-0.000122173,-0.58198,1.1875,-1.74533e-05,1.35184,-0.000418879,0,0,0,0,0,0,-0.007,-0.024,-0.169,0,0.001,0.001,1.974,15.064,-13.867,-3.493,0.025362,0.463561
18:56:22:233807,-0.000122173,-0.58198,1.1875,-1.74533e-05,1.35184,-0.000418879,0,0,0,0,0,0,0.018,-0.029,-0.056,0.001,0.001,0.001,2.023,15.288,-13.811,-4.403,0.150763,0.4227
18:56:22:238750,-0.000122173,-0.58198,1.1875,-1.74533e-05,1.35184,-0.000418879,0,0,0,0,0,0,0.029,-0.035,0.031,0.001,0,0,2.751,15.505,-14.329,-4.599,0.162035,0.419882
18:56:22:243823,-0.000122173,-0.58198,1.1875,-1.74533e-05,1.35184,-0.000418879,0,0,0,0,0,0,0.015,-0.044,0.049,0.001,0,0,1.358,15.568,-14.091,-3.787,0.114129,0.50724
18:56:22:248890,-0.000122173,-0.58198,1.1875,-1.74533e-05,1.35184,-0.000418879,0,0,0,0,0,0,-0.002,-0.048,-0.029,0.001,0,0,2.023,15.757,-14.091,-3.787,0.115538,0.305753
18:56:22:254054,-0.000122173,-0.58198,1.1875,-1.74533e-05,1.35184,-0.000418879,0,0,0,0,0,0,-0.005,-0.044,-0.185,0.001,0,0.001,1.806,15.232,-14.714,-4.389,0.077495,0.370567
18:56:22:259049,-0.000122173,-0.58198,1.1875,-1.74533e-05,1.35184,-0.000418879,0,0,0,0,0,0,0.017,-0.034,-0.241,0.001,0.001,0.002,1.834,14.679,-14.049,-4.494,0.143718,0.346614
18:56:22:264048,-0.000122173,-0.58198,1.1875,-1.74533e-05,1.35184,-0.000418879,0,0,0,0,0,0,0.061,-0.014,-0.219,0,0,0.002,1.505,15.645,-13.573,-4.207,0.100039,0.32407
18:56:22:269190,-0.000122173,-0.58198,1.1875,-1.74533e-05,1.35184,-0.000418879,0,0,0,0,0,0,0.079,0,-0.128,0,0,0.001,1.477,14.427,-14.364,-4.095,0.162035,0.500195
18:56:22:274299,-0.000122173,-0.58198,1.1875,-1.74533e-05,1.35184,-0.000418879,0,0,0,0,0,0,0.068,-0.002,-0.046,0,0,0.001,1.645,15.834,-13.755,-3.787,-0.032407,0.393111
18:56:22:279245,-0.000122173,-0.58198,1.1875,-1.74533e-05,1.35184,-0.000418879,0,0,0,0,0,0,0.034,-0.027,0.122,0,0,0,1.764,15.057,-13.825,-4.291,0.100039,0.379021
18:56:22:284300,-0.000122173,-0.58198,1.1875,-1.74533e-05,1.35184,-0.000418879,0,0,0,0,0,0,0.011,-0.043,0.239,0,0,-0.001,1.505,15.449,-13.433,-4.221,0.09863,0.500195
18:56:22:289444,-0.000122173,-0.58198,1.1875,-1.74533e-05,1.35184,-0.000418879,0,0,0,0,0,0,-0.003,-0.041,0.302,0,0,-0.002,1.386,15.043,-13.79,-4.396,0.080313,0.373385
18:56:22:294376,-0.000122173,-0.58198,1.1875,-1.74533e-05,1.35184,-0.000418879,0,0,0,0,0,0,0.006,-0.021,0.227,0,0,-0.002,1.806,14.546,-14.441,-3.969,0.043679,0.445244
18:56:22:299546,-0.000122173,-0.58198,1.1875,-1.74533e-05,1.35184,-0.000418879,0,0,0,0,0,0,0.044,0.008,0.008,0,0,0,1.764,15.687,-13.734,-4.403,-0.007045,0.457925
18:56:22:304548,-0.000122173,-0.58198,1.1875,-1.74533e-05,1.35184,-0.000418879,0,0,0,0,0,0,0.069,0.019,-0.113,0,0,0.001,1.288,15.407,-13.881,-4.2,0.066223,0.43679
18:56:22:309691,-0.000122173,-0.58198,1.1875,-1.74533e-05,1.35184,-0.000418879,0,0,0,0,0,0,0.083,0.022,-0.153,0,0,0.001,1.267,15.701,-13.776,-4.221,-0.002818,0.45088
18:56:22:314617,-0.000122173,-0.58198,1.1875,-1.74533e-05,1.35184,-0.000418879,0,0,0,0,0,0,0.076,0.017,-0.109,0,0,0.001,1.834,15.659,-13.902,-3.815,0.033816,0.288845
18:56:22:319815,-0.000122173,-0.58198,1.1875,-1.74533e-05,1.35184,-0.000418879,0,0,0,0,0,0,0.056,-0.005,-0.052,0.001,0,0,1.687,15.148,-13.769,-4.305,0.050724,0.4227
18:56:22:324816,-0.000122173,-0.58198,1.1875,-1.74533e-05,1.35184,-0.000418879,0,0,0,0,0,0,0.044,-0.031,-0.046,0.001,0,0,2.205,16.002,-13.867,-3.878,0.046497,0.401565
18:56:22:329922,-0.000122173,-0.58198,1.1875,-1.74533e-05,1.35184,-0.000418879,0,0,0,0,0,0,0.027,-0.068,-0.015,0,0,0,1.764,15.722,-13.643,-4.214,0.125401,0.417064
18:56:22:334897,-0.000122173,-0.58198,1.1875,-1.74533e-05,1.35184,-0.000418879,0,0,0,0,0,0,0.017,-0.079,0.059,0,0,0,2.352,15.449,-14.518,-4.179,0.018317,0.43679
18:56:22:340045,-0.000122173,-0.58198,1.1875,-1.74533e-05,1.35184,-0.000418879,0,0,0,0,0,0,0.003,-0.072,0.185,0,0,0,1.687,15.505,-12.46,-3.493,0.074677,0.376203
18:56:22:344992,-0.000122173,-0.58198,1.1875,-1.74533e-05,1.35184,-0.000418879,0,0,0,0,0,0,-0.004,-0.056,0.201,0,0,0,1.904,16.093,-13.398,-4.102,0.139491,0.457925
18:56:22:350171,-0.000122173,-0.58198,1.1875,-1.74533e-05,1.35184,-0.000418879,0,0,0,0,0,0,-0.014,-0.028,0.094,0,0,0,1.785,16.093,-13.937,-4.291,-0.066223,0.431154
18:56:22:355185,-0.000122173,-0.58198,1.1875,-1.74533e-05,1.35184,-0.000418879,0,0,0,0,0,0,-0.018,-0.007,-0.033,0,0,0,1.785,15.932,-14.259,-3.486,0.043679,0.565009
18:56:22:360297,-0.000122173,-0.58198,1.1875,-1.74533e-05,1.35184,-0.000418879,0,0,0,0,0,0,-0.015,-0.006,-0.064,0,0,0.001,2.394,16.303,-14.203,-3.801,0.094403,0.491741
18:56:22:365296,-0.000122173,-0.58198,1.1875,-3.49066e-05,1.35184,-0.000418879,0,0,0,0,0,0,0,-0.02,-0.038,0,0,0,0.399,16.051,-12.789,-4.039,0.059178,0.439608
18:56:22:370242,-0.000122173,-0.58198,1.1875,-3.49066e-05,1.35184,-0.000418879,0,0,0,0,0,0,0.021,-0.034,-0.004,0,0,0,1.855,15.617,-13.496,-3.983,0.045088,0.355068
18:56:22:375421,-0.000122173,-0.58198,1.1875,-3.49066e-05,1.35184,-0.000418879,0,0,0,0,0,0,0.06,-0.05,0.039,0,0,0,2.114,15.477,-13.916,-4.396,0.092994,0.428336
18:56:22:380423,-0.000122173,-0.58198,1.1875,-3.49066e-05,1.35184,-0.000418879,0,0,0,0,0,0,0.076,-0.053,0.052,0,0,0,1.876,15.155,-13.797,-3.787,-0.09863,0.370567
18:56:22:385436,-0.000122173,-0.58198,1.1875,-3.49066e-05,1.35184,-0.000418879,0,0,0,0,0,0,0.061,-0.039,0.039,0,0,0,1.764,15.281,-13.685,-5.467,0.228258,0.419882
18:56:22:390542,-0.000122173,-0.58198,1.1875,-3.49066e-05,1.35184,-0.000418879,0,0,0,0,0,0,0.033,-0.017,0.022,0,0,0,2.065,15.757,-12.74,-1.911,0.150763,0.395929
18:56:22:395541,-0.000122173,-0.58198,1.1875,-3.49066e-05,1.35184,-0.000418879,0,0,0,0,0,0,0.002,0.015,0.021,0,0,0,1.736,16.394,-13.195,-3.885,0.069041,0.373385
18:56:22:400624,-0.000122173,-0.58198,1.1875,-3.49066e-05,1.35184,-0.000418879,0,0,0,0,0,0,0.001,0.018,0.037,0,0,0,1.995,15.47,-13.811,-3.388,0.162035,0.370567
18:56:22:405684,-0.000122173,-0.58198,1.1875,-3.49066e-05,1.35184,-0.000418879,0,0,0,0,0,0,0.012,-0.009,0.063,0,0,0,1.687,15.498,-13.79,-3.514,0.029589,0.387475
18:56:22:410741,-0.000122173,-0.58198,1.1875,-3.49066e-05,1.35184,-0.000418879,0,0,0,0,0,0,0.008,-0.025,0.063,0,0,0,2.394,15.673,-14.385,-8.526,0.162035,0.384657
18:56:22:415809,-0.000122173,-0.58198,1.1875,-3.49066e-05,1.35184,-0.000418879,0,0,0,0,0,0,-0.011,-0.008,0.012,0,0,0,1.127,15.526,-13.776,-1.372,0.087358,0.363522
18:56:22:420937,-0.000122173,-0.58198,1.1875,-3.49066e-05,1.35184,-0.000418879,0,0,0,0,0,0,-0.017,0.023,-0.061,0,0,0,2.065,15.001,-13.37,-3.955,0.035225,0.497377
18:56:22:425868,-0.000122173,-0.58198,1.1875,-3.49066e-05,1.35184,-0.000418879,0,0,0,0,0,0,0,0.044,-0.155,0,0,0.001,1.715,15.505,-13.454,-4.186,0.074677,0.474833
18:56:22:431041,-0.000122173,-0.58198,1.1875,-3.49066e-05,1.35184,-0.000418879,0,0,0,0,0,0,0.012,0.018,-0.121,0,0,0.001,2.583,16.023,-13.755,-4.172,-0.016908,0.395929
18:56:22:436058,-0.000122173,-0.58198,1.1875,-3.49066e-05,1.35184,-0.000418879,0,0,0,0,0,0,0.014,-0.048,0.102,0,0,0,1.575,15.19,-13.328,-3.801,-0.021135,0.398747
18:56:22:441010,-0.000122173,-0.58198,1.1875,-3.49066e-05,1.35184,-0.000418879,0,0,0,0,0,0,0.009,-0.074,0.259,0,0,0,2.254,15.393,-13.286,-3.612,0.076086,0.494559
18:56:22:446166,-0.000122173,-0.58198,1.1875,-3.49066e-05,1.35184,-0.000418879,0,0,0,0,0,0,0.016,-0.063,0.288,0,0,-0.001,2.184,15.008,-14.021,-3.612,0.092994,0.474833
18:56:22:451161,-0.000122173,-0.58198,1.1875,-3.49066e-05,1.35184,-0.000418879,0,0,0,0,0,0,0.037,-0.038,0.111,0,0,0,1.477,15.526,-13.517,-3.892,-0.018317,0.410019
18:56:22:456305,-0.000122173,-0.58198,1.1875,-3.49066e-05,1.35184,-0.000418879,0,0,0,0,0,0,0.046,-0.045,0.026,0,0,0,1.764,15.876,-13.678,-3.696,0.047906,0.297299
18:56:22:461316,-0.000122173,-0.58198,1.1875,-3.49066e-05,1.35184,-0.000418879,0,0,0,0,0,0,0.043,-0.082,0.048,0,0,0,2.275,15.743,-13.678,-3.724,0.092994,0.456516
18:56:22:466417,-0.000122173,-0.58198,1.1875,-3.49066e-05,1.35184,-0.000418879,0,0,0,0,0,0,0.032,-0.098,0.091,0,0,0,1.904,15.645,-13.916,-3.64,0.080313,0.457925
18:56:22:471441,-0.000122173,-0.58198,1.1875,-3.49066e-05,1.35184,-0.000418879,0,0,0,0,0,0,0.011,-0.073,0.039,0,0,0,1.785,15.435,-13.384,-4.312,0.073268,0.35225
18:56:22:476420,-0.000122173,-0.58198,1.1875,-3.49066e-05,1.35184,-0.000418879,0,0,0,0,0,0,0.002,-0.035,-0.07,0,0,0.001,1.617,14.868,-13.811,-4.2,0.123992,0.288845
18:56:22:481548,-0.000122173,-0.58198,1.1875,-3.49066e-05,1.35184,-0.000418879,0,0,0,0,0,0,0.009,0.004,-0.19,0,0,0.001,2.233,15.974,-13.888,-3.99,-0.009863,0.370567
18:56:22:486539,-0.000122173,-0.58198,1.1875,-3.49066e-05,1.35184,-0.000418879,0,0,0,0,0,0,0.024,0,-0.159,0,0,0.001,2.023,15.316,-13.629,-3.976,0.054951,0.463561
18:56:22:491682,-0.000122173,-0.58198,1.1875,-3.49066e-05,1.35184,-0.000418879,0,0,0,0,0,0,0.034,-0.036,0.022,0,0,0,2.135,15.715,-13.867,-3.808,0.004227,0.433972
18:56:22:496682,-0.000122173,-0.58198,1.1875,-3.49066e-05,1.35184,-0.000418879,0,0,0,0,0,0,0.022,-0.05,0.136,0,0,-0.001,1.904,15.834,-12.95,-4.221,0.069041,0.488923
18:56:22:501793,-0.000122173,-0.58198,1.1875,-3.49066e-05,1.35184,-0.000418879,0,0,0,0,0,0,-0.01,-0.029,0.171,0,0,-0.001,2.065,15.918,-13.734,-4.305,0.080313,0.4227
18:56:22:506755,-0.000122173,-0.58198,1.1875,-3.49066e-05,1.35184,-0.000418879,0,0,0,0,0,0,-0.022,0,0.107,0,0,-0.001,1.596,15.421,-13.664,-4.165,0.059178,0.587553
18:56:22:511755,-0.000122173,-0.58198,1.1875,-5.23599e-05,1.35184,-0.000418879,0,0,0,0,0,0,0.003,0.031,-0.063,0,0,0,2.044,15.204,-13.699,-4.228,0.09863,0.393111
18:56:22:516928,-0.000122173,-0.58198,1.1875,-5.23599e-05,1.35184,-0.000418879,0,0,0,0,0,0,0.048,0.035,-0.204,0,0,0.001,2.135,16.331,-13.251,-4.018,0.01409,0.376203
18:56:22:521911,-0.000122173,-0.58198,1.1875,-5.23599e-05,1.35184,-0.000418879,0,0,0,0,0,0,0.117,0.026,-0.393,0,0,0.003,2.184,15.82,-14.483,-4.298,-0.004227,0.474833
18:56:22:527070,-0.000122173,-0.58198,1.1875,-5.23599e-05,1.35184,-0.000418879,0,0,0,0,0,0,0.136,0.017,-0.432,0,0,0.004,2.352,15.148,-13.342,-3.808,0.01409,0.387475
18:56:22:532056,-0.000122173,-0.58198,1.1875,-5.23599e-05,1.35184,-0.000418879,0,0,0,0,0,0,0.111,0.001,-0.286,0,0,0.002,1.645,15.715,-13.384,-3.857,0.080313,0.497377
18:56:22:537187,-0.000122173,-0.58198,1.1875,-5.23599e-05,1.35184,-0.000418879,0,0,0,0,0,0,0.054,-0.017,-0.017,0,0.001,0,2.352,15.568,-13.538,-4.116,0.15499,0.343796
18:56:22:542179,-0.000122173,-0.58198,1.1875,-5.23599e-05,1.35184,-0.000418879,0,0,0,0,0,0,0.02,-0.027,0.11,0,0.001,-0.001,1.316,16.023,-14.238,-3.899,-0.01409,0.553737
18:56:22:547286,-0.000122173,-0.58198,1.1875,-5.23599e-05,1.35184,-0.000418879,0,0,0,0,0,0,-0.008,-0.025,0.118,0,0,-0.001,1.456,14.868,-13.748,-4.319,-0.019726,0.407201
18:56:22:552305,-0.000122173,-0.58198,1.1875,-5.23599e-05,1.35184,-0.000418879,0,0,0,0,0,0,-0.005,-0.009,0.02,0,0,0,1.617,15.12,-13.678,-4.214,-0.018317,0.477651
18:56:22:557265,-0.000122173,-0.58198,1.1875,-5.23599e-05,1.35184,-0.000418879,0,0,0,0,0,0,0.03,0.021,-0.141,0,0,0.001,1.617,15.596,-13.454,-3.745,0.094403,0.407201
18:56:22:562372,-0.000122173,-0.58198,1.1875,-5.23599e-05,1.35184,-0.000418879,0,0,0,0,0,0,0.055,0.029,-0.168,0,0,0.001,1.666,15.554,-13.573,-3.92,-0.025362,0.363522
18:56:22:567355,-0.000122173,-0.58198,1.1875,-5.23599e-05,1.35184,-0.000418879,0,0,0,0,0,0,0.053,0.008,-0.04,0,0,0.001,2.681,15.337,-13.776,-3.283,0.069041,0.393111
18:56:22:572578,-0.000122173,-0.58198,1.1875,-5.23599e-05,1.35184,-0.000418879,0,0,0,0,0,0,0.023,-0.019,0.095,0,0,0,1.456,16.184,-13.79,-4.55,0.01409,0.456516
18:56:22:577484,-0.000122173,-0.58198,1.1875,-5.23599e-05,1.35184,-0.000418879,0,0,0,0,0,0,-0.025,-0.048,0.231,0,0,-0.001,1.246,15.204,-13.846,-3.906,0.002818,0.332524
18:56:22:582663,-0.000122173,-0.58198,1.1875,-5.23599e-05,1.35184,-0.000418879,0,0,0,0,0,0,-0.04,-0.049,0.244,0,0,-0.001,1.337,15.498,-13.811,-3.304,-0.009863,0.410019
18:56:22:587625,-0.000122173,-0.58198,1.1875,-5.23599e-05,1.35184,-0.000418879,0,0,0,0,0,0,-0.032,-0.034,0.198,0,0,-0.001,1.995,16.359,-13.349,-3.5,0.080313,0.460743
18:56:22:592816,-0.000122173,-0.58198,1.1875,-5.23599e-05,1.35184,-0.000418879,0,0,0,0,0,0,-0.019,-0.031,0.165,0,0,0,2.611,16.023,-13.888,-3.626,0.032407,0.477651
18:56:22:597801,-0.000122173,-0.58198,1.1875,-5.23599e-05,1.35184,-0.000418879,0,0,0,0,0,0,-0.006,-0.046,0.148,0,0,0,1.785,15.316,-14.014,-4.606,0.043679,0.35225
18:56:22:602926,-0.000122173,-0.58198,1.1875,-5.23599e-05,1.35184,-0.000418879,0,0,0,0,0,0,-0.005,-0.059,0.148,0,0,0,2.163,15.47,-13.958,-4.032,0.088767,0.401565
18:56:22:607943,-0.000122173,-0.58198,1.1875,-5.23599e-05,1.35184,-0.000418879,0,0,0,0,0,0,-0.011,-0.064,0.119,0,0.001,0,1.617,15.435,-13.426,-3.871,0.02818,0.329706
18:56:22:613064,-0.000122173,-0.58198,1.1875,-5.23599e-05,1.35184,-0.000418879,0,0,0,0,0,0,-0.02,-0.06,0.072,0,0.001,0,2.275,15.974,-13.216,-3.661,-0.02818,0.466379
18:56:22:618054,-0.000122173,-0.58198,1.1875,-5.23599e-05,1.35184,-0.000418879,0,0,0,0,0,0,-0.032,-0.06,0.008,0,0,0,1.596,15.26,-13.363,-3.969,-0.059178,0.373385
18:56:22:623050,-0.000122173,-0.58198,1.1875,-5.23599e-05,1.35184,-0.000418879,0,0,0,0,0,0,-0.027,-0.063,0.003,0,0,0,1.834,15.281,-13.363,-3.997,0.029589,0.469197
18:56:22:628162,-0.000122173,-0.58198,1.1875,-5.23599e-05,1.35184,-0.000418879,0,0,0,0,0,0,0.012,-0.061,0.039,0,0,0,1.925,15.813,-13.447,-3.829,0.205714,0.52133
18:56:22:633189,-0.000122173,-0.58198,1.1875,-5.23599e-05,1.35184,-0.000418879,0,0,0,0,0,0,0.062,-0.047,0.061,0,0,0,1.596,16.282,-14.07,-3.99,-0.046497,0.335342
18:56:22:638294,-0.000122173,-0.58198,1.1875,-5.23599e-05,1.35184,-0.000418879,0,0,0,0,0,0,0.07,-0.037,0.061,0,0,0,1.428,15.904,-13.195,-4.214,0.074677,0.419882
18:56:22:643297,-0.000122173,-0.58198,1.1875,-5.23599e-05,1.35184,-0.000418879,0,0,0,0,0,0,0.031,-0.025,0.06,0,0,0,2.702,14.952,-12.698,-4.277,0.025362,0.4227
18:56:22:648427,-0.000122173,-0.58198,1.1875,-5.23599e-05,1.35184,-0.000418879,0,0,0,0,0,0,-0.007,-0.018,0.047,0,0,0,2.254,15.477,-13.629,-3.787,-0.025362,0.504422
18:56:22:653426,-0.000122173,-0.58198,1.1875,-5.23599e-05,1.35184,-0.000418879,0,0,0,0,0,0,-0.032,-0.007,-0.039,0,0,0,0.917,15.246,-13.538,-3.696,0.01409,0.411428
18:56:22:658368,-0.000122173,-0.58198,1.1875,-5.23599e-05,1.35184,-0.000418879,0,0,0,0,0,0,-0.016,0.001,-0.142,0,0,0.001,1.876,14.693,-13.664,-3.703,-0.02818,0.417064
18:56:22:663547,-0.000122173,-0.58198,1.1875,-5.23599e-05,1.35184,-0.000418879,0,0,0,0,0,0,0.03,0.026,-0.285,0,0,0.002,1.925,15.19,-13.657,-3.5,0.053542,0.35225
18:56:22:668496,-0.000122173,-0.58198,1.1875,-5.23599e-05,1.35184,-0.000418879,0,0,0,0,0,0,0.053,0.045,-0.323,0.001,0,0.003,1.946,15.568,-13.405,-4.438,0.004227,0.497377
18:56:22:673620,-0.000122173,-0.58198,1.1875,-5.23599e-05,1.35184,-0.000418879,0,0,0,0,0,0,0.057,0.05,-0.27,0.001,0,0.002,2.751,16.023,-13.482,-4.382,0,0.428336
18:56:22:678674,-0.000122173,-0.58198,1.1875,-5.23599e-05,1.35184,-0.000418879,0,0,0,0,0,0,0.046,0.026,-0.18,0.001,0,0.001,1.715,16.023,-13.02,-4.179,0.128219,0.398747
18:56:22:683799,-0.000122173,-0.58198,1.1875,-5.23599e-05,1.35184,-0.000418879,0,0,0,0,0,0,0.031,-0.023,-0.034,0,0,0.001,1.785,15.729,-13.993,-3.598,-0.039452,0.414246
18:56:22:688824,-0.000122173,-0.58198,1.1875,-5.23599e-05,1.35184,-0.000418879,0,0,0,0,0,0,0.03,-0.039,0.022,0,0,0.001,1.456,15.421,-13.293,-3.899,-0.073268,0.445244
18:56:22:693755,-0.000122173,-0.58198,1.1875,-5.23599e-05,1.35184,-0.000418879,0,0,0,0,0,0,0.038,-0.022,0.013,0,0,0.001,1.477,15.785,-14.049,-3.843,0.043679,0.411428
18:56:22:698923,-0.000122173,-0.58198,1.1875,-5.23599e-05,1.35184,-0.000418879,0,0,0,0,0,0,0.047,0,-0.027,0,0,0.001,1.386,15.057,-13.454,-3.997,0.02818,0.457925
18:56:22:703876,-0.000122173,-0.58198,1.1875,-5.23599e-05,1.35184,-0.000418879,0,0,0,0,0,0,0.064,0.004,-0.049,0,0,0.001,1.617,15.862,-13.272,-4.319,0.188806,0.346614
18:56:22:708981,-0.000122173,-0.58198,1.1875,-5.23599e-05,1.35184,-0.000418879,0,0,0,0,0,0,0.073,-0.016,-0.018,0,0,0,1.407,15.246,-13.111,-3.605,0.005636,0.460743
18:56:22:714002,-0.000122173,-0.58198,1.1875,-5.23599e-05,1.35184,-0.000418879,0,0,0,0,0,0,0.062,-0.052,0.067,0,0,0,2.275,15.967,-13.342,-3.773,0.153581,0.456516
18:56:22:719153,-0.000122173,-0.58198,1.1875,-5.23599e-05,1.35184,-0.000418879,0,0,0,0,0,0,0.026,-0.045,0.144,0,0,0,1.764,15.554,-14.315,-3.843,0.022544,0.431154
18:56:22:724156,-0.000122173,-0.58198,1.1875,-5.23599e-05,1.35184,-0.000418879,0,0,0,0,0,0,0.008,-0.021,0.173,0,0,0,0.889,15.785,-14.091,-4.116,0.109902,0.477651
18:56:22:729281,-0.000122173,-0.58198,1.1875,-5.23599e-05,1.35184,-0.000418879,0,0,0,0,0,0,0.003,-0.006,0.179,0,0,0,1.806,16.114,-13.958,-3.542,-0.073268,0.43679
18:56:22:734226,-0.000122173,-0.58198,1.1875,-5.23599e-05,1.35184,-0.000418879,0,0,0,0,0,0,0.002,-0.025,0.168,0,0,0,1.645,15.512,-13.356,-3.479,0.132446,0.393111
18:56:22:739365,-0.000122173,-0.58198,1.1875,-5.23599e-05,1.35184,-0.000418879,0,0,0,0,0,0,-0.011,-0.064,0.146,0,0,0,0.987,15.421,-13.342,-3.92,-0.009863,0.417064
18:56:22:744417,-0.000122173,-0.58198,1.1875,-5.23599e-05,1.35184,-0.000418879,0,0,0,0,0,0,-0.024,-0.064,0.125,0,0,0,2.065,15.148,-13.825,-3.85,0.057769,0.52133
18:56:22:749544,-0.000122173,-0.58198,1.1875,-5.23599e-05,1.35184,-0.000418879,0,0,0,0,0,0,-0.023,-0.016,0.078,0,0,0,1.904,15.449,-13.083,-3.927,0.094403,0.357886
18:56:22:754555,-0.000122173,-0.58198,1.1875,-5.23599e-05,1.35184,-0.000418879,0,0,0,0,0,0,-0.007,0.013,0.053,0,0,0,1.666,15.596,-13.776,-4.102,-0.052133,0.4227
18:56:22:759673,-0.000122173,-0.58198,1.1875,-5.23599e-05,1.35184,-0.000418879,0,0,0,0,0,0,0.021,0.013,0.04,0,0.001,0,2.534,15.379,-13.461,-3.948,0.118356,0.346614
18:56:22:764629,-0.000122173,-0.58198,1.1875,-5.23599e-05,1.35184,-0.000418879,0,0,0,0,0,0,0.035,-0.005,0.013,0,0,0,1.477,15.26,-13.496,-4.018,0.139491,0.486105
18:56:22:769622,-0.000122173,-0.58198,1.1875,-5.23599e-05,1.35184,-0.000418879,0,0,0,0,0,0,0.045,-0.016,-0.093,0,0,0.001,1.575,15.813,-13.195,-4.193,0.109902,0.373385
18:56:22:774745,-0.000122173,-0.58198,1.1875,-5.23599e-05,1.35184,-0.000418879,0,0,0,0,0,0,0.039,-0.011,-0.157,0,0,0.002,1.806,15.204,-12.957,-3.64,-0.025362,0.532602
18:56:22:779920,-0.000122173,-0.58198,1.1875,-5.23599e-05,1.35184,-0.000418879,0,0,0,0,0,0,0.014,-0.02,-0.089,0,0,0.001,0.987,15.806,-13.216,-3.941,-0.005636,0.43679
18:56:22:784920,-0.000122173,-0.58198,1.1875,-5.23599e-05,1.35184,-0.000418879,0,0,0,0,0,0,-0.004,-0.047,0.063,0,0,0,1.197,15.974,-14.07,-3.955,-0.02818,0.35225
18:56:22:790031,-0.000122173,-0.58198,1.1875,-5.23599e-05,1.35184,-0.000418879,0,0,0,0,0,0,-0.023,-0.081,0.226,0,0,-0.001,1.715,15.778,-13.517,-4.025,0.139491,0.346614
18:56:22:795028,-0.000122173,-0.58198,1.1875,-5.23599e-05,1.35184,-0.000418879,0,0,0,0,0,0,-0.026,-0.074,0.182,0,0,-0.001,2.352,15.645,-14.329,-3.829,0.09863,0.414246
18:56:22:800062,-0.000122173,-0.58198,1.1875,-5.23599e-05,1.35184,-0.000418879,0,0,0,0,0,0,-0.025,-0.027,-0.027,0,0,0,1.764,16.31,-13.426,-4.319,-0.012681,0.329706
18:56:22:805165,-0.000122173,-0.58198,1.1875,-5.23599e-05,1.35184,-0.000418879,0,0,0,0,0,0,-0.011,0.008,-0.143,0,0,0,1.876,15.974,-12.887,-4.193,0.033816,0.417064
18:56:22:810169,-0.000122173,-0.58198,1.1875,-6.98132e-05,1.35184,-0.000418879,0,0,0,0,0,0,0.006,0.013,-0.137,0.001,0,0.001,1.666,15.505,-13.685,-3.822,-0.108493,0.314207
18:56:22:815295,-0.000122173,-0.58198,1.1875,-6.98132e-05,1.35184,-0.000418879,0,0,0,0,0,0,0.031,0.017,-0.134,0.001,0,0.001,1.547,15.407,-13.363,-3.661,0.011272,0.398747
18:56:22:820291,-0.000122173,-0.58198,1.1875,-6.98132e-05,1.35184,-0.000418879,0,0,0,0,0,0,0.033,0.026,-0.163,0.001,0,0.001,1.477,16.24,-13.111,-3.724,0.011272,0.401565
18:56:22:825419,-0.000122173,-0.58198,1.1875,-6.98132e-05,1.35184,-0.000418879,0,0,0,0,0,0,0.018,0.024,-0.163,0,0,0.001,1.645,15.946,-13.986,-3.696,0.054951,0.407201
18:56:22:830355,-0.000122173,-0.58198,1.1875,-6.98132e-05,1.35184,-0.000418879,0,0,0,0,0,0,0.008,0,-0.103,0,0,0,2.114,16.576,-13.363,-3.815,0.039452,0.433972
18:56:22:835363,-0.000122173,-0.58198,1.1875,-6.98132e-05,1.35184,-0.000418879,0,0,0,0,0,0,0.009,-0.049,-0.016,0,0,0,1.995,15.96,-13.363,-3.92,0.039452,0.393111
18:56:22:840543,-0.000122173,-0.58198,1.1875,-6.98132e-05,1.35184,-0.000418879,0,0,0,0,0,0,0.017,-0.06,-0.025,0,0,0,2.044,16.023,-13.475,-4.207,0.087358,0.43679
18:56:22:845541,-0.000122173,-0.58198,1.1875,-6.98132e-05,1.35184,-0.000418879,0,0,0,0,0,0,0.028,-0.033,-0.102,0,0,0,1.337,16.093,-13.258,-3.99,-0.029589,0.431154
18:56:22:850612,-0.000122173,-0.58198,1.1875,-6.98132e-05,1.35184,-0.000418879,0,0,0,0,0,0,0.033,-0.013,-0.102,0,0,0,1.526,15.918,-13.734,-3.318,0.116947,0.355068
18:56:22:855798,-0.000122173,-0.58198,1.1875,-6.98132e-05,1.35184,-0.000418879,0,0,0,0,0,0,0.034,-0.023,0.059,0,0,0,1.358,15.834,-13.251,-3.654,0.080313,0.428336
18:56:22:860792,-0.000122173,-0.58198,1.1875,-6.98132e-05,1.35184,-0.000418879,0,0,0,0,0,0,0.031,-0.051,0.214,0,0,0,1.456,15.449,-13.335,-3.962,-0.094403,0.32407
18:56:22:865725,-0.000122173,-0.58198,1.1875,-6.98132e-05,1.35184,-0.000418879,0,0,0,0,0,0,0.022,-0.08,0.299,0,0,-0.001,2.205,15.806,-13.608,-3.78,0.054951,0.418473
18:56:22:870900,-0.000122173,-0.58198,1.1875,-6.98132e-05,1.35184,-0.000418879,0,0,0,0,0,0,0.02,-0.077,0.203,0,0,0,2.464,15.757,-13.258,-3.521,0.009863,0.449471
18:56:22:875930,-0.000122173,-0.58198,1.1875,-6.98132e-05,1.35184,-0.000418879,0,0,0,0,0,0,0.021,-0.044,-0.023,0,0,0,1.785,15.918,-13.223,-3.283,0.009863,0.490332
18:56:22:881024,-0.000122173,-0.58198,1.1875,-6.98132e-05,1.35184,-0.000418879,0,0,0,0,0,0,0.015,-0.018,-0.104,0,0.001,0,1.764,16.324,-13.566,-4.053,-0.050724,0.428336
18:56:22:886023,-0.000122173,-0.58198,1.1875,-6.98132e-05,1.35184,-0.000418879,0,0,0,0,0,0,-0.002,0.006,-0.083,0,0.001,0,2.562,16.093,-13.37,-4.025,0.002818,0.349432
18:56:22:891158,-0.000122173,-0.58198,1.1875,-6.98132e-05,1.35184,-0.000418879,0,0,0,0,0,0,0,0.008,-0.056,0,0,0,1.477,15.449,-13.433,-3.997,0.005636,0.40861
18:56:22:896108,-0.000122173,-0.58198,1.1875,-6.98132e-05,1.35184,-0.000418879,0,0,0,0,0,0,0.025,0.001,-0.064,0,0,0,2.135,15.505,-14,-3.92,0.116947,0.49315
18:56:22:901103,-0.000122173,-0.58198,1.1875,-6.98132e-05,1.35184,-0.000418879,0,0,0,0,0,0,0.057,-0.01,-0.039,0,0,0,1.764,16.709,-14.049,-3.92,0.002818,0.43679
18:56:22:906226,-0.000122173,-0.58198,1.1875,-6.98132e-05,1.35184,-0.000418879,0,0,0,0,0,0,0.074,-0.028,0.104,0,0,0,1.526,16.142,-13.797,-4.221,0.025362,0.442426
18:56:22:911275,-0.000122173,-0.58198,1.1875,-6.98132e-05,1.35184,-0.000418879,0,0,0,0,0,0,0.035,-0.036,0.198,0,0,-0.001,2.233,15.498,-13.349,-3.64,-0.032407,0.356477
18:56:22:916412,-0.000122173,-0.58198,1.1875,-6.98132e-05,1.35184,-0.000418879,0,0,0,0,0,0,0.002,-0.029,0.139,0,0,0,1.995,16.226,-13.307,-3.871,-0.066223,0.367749
18:56:22:921344,-0.000122173,-0.58198,1.1875,-6.98132e-05,1.35184,-0.000418879,0,0,0,0,0,0,-0.02,-0.01,-0.021,0,0,0,1.386,16.373,-13.426,-3.78,0.061996,0.418473
18:56:22:926527,-0.000122173,-0.58198,1.1875,-6.98132e-05,1.35184,-0.000418879,0,0,0,0,0,0,-0.016,-0.006,-0.065,0,0,0.001,1.526,15.645,-13.188,-3.542,-0.02818,0.433972
18:56:22:931526,-0.000122173,-0.58198,1.1875,-6.98132e-05,1.35184,-0.000418879,0,0,0,0,0,0,0,-0.022,-0.021,0,0,0.001,1.596,16.051,-12.957,-3.64,-0.045088,0.572054
18:56:22:936649,-0.000122173,-0.58198,1.1875,-6.98132e-05,1.35184,-0.000418879,0,0,0,0,0,0,0.01,-0.034,0.008,0,0.001,0,2.275,15.75,-13.125,-3.997,0.012681,0.370567
18:56:22:941650,-0.000122173,-0.58198,1.1875,-6.98132e-05,1.35184,-0.000418879,0,0,0,0,0,0,0.029,-0.033,0.02,0,0,0,1.715,16.856,-13.608,-3.864,0.07045,0.345205
18:56:22:946769,-0.000122173,-0.58198,1.1875,-6.98132e-05,1.35184,-0.000418879,0,0,0,0,0,0,0.045,-0.026,0.038,0,0,0,1.127,15.946,-13.713,-3.724,-0.035225,0.452289
18:56:22:951773,-0.000122173,-0.58198,1.1875,-6.98132e-05,1.35184,-0.000418879,0,0,0,0,0,0,0.068,-0.035,0.057,0,0,0,1.288,15.967,-13.384,-4.242,0.114129,0.418473
18:56:22:956899,-0.000122173,-0.58198,1.1875,-6.98132e-05,1.35184,-0.000418879,0,0,0,0,0,0,0.075,-0.053,0.013,0,0,0,1.687,16.17,-13.167,-3.031,0.100039,0.407201
18:56:22:961841,-0.000122173,-0.58198,1.1875,-6.98132e-05,1.35184,-0.000418879,0,0,0,0,0,0,0.069,-0.065,-0.103,0,0,0.001,1.687,16.24,-13.048,-3.983,0.114129,0.459334
18:56:22:966890,-0.000122173,-0.58198,1.1875,-6.98132e-05,1.35184,-0.000418879,0,0,0,0,0,0,0.056,-0.055,-0.114,0,0,0.001,1.855,15.834,-13.202,-3.934,-0.061996,0.508649
18:56:22:971986,-0.000122173,-0.58198,1.1875,-6.98132e-05,1.35184,-0.000418879,0,0,0,0,0,0,0.031,-0.032,0.041,0,0,0,1.715,15.442,-13.293,-3.563,0.08454,0.473424
18:56:22:977017,-0.000122173,-0.58198,1.1875,-6.98132e-05,1.35184,-0.000418879,0,0,0,0,0,0,0.02,-0.03,0.165,0,0,-0.001,1.148,16.023,-13.517,-3.465,0.091585,0.397338
18:56:22:982108,-0.000122173,-0.58198,1.1875,-6.98132e-05,1.35184,-0.000418879,0,0,0,0,0,0,0.021,-0.046,0.175,0,0,0,1.337,15.995,-13.72,-4.277,-0.069041,0.439608
18:56:22:987086,-0.000122173,-0.58198,1.1875,-6.98132e-05,1.35184,-0.000418879,0,0,0,0,0,0,0.03,-0.056,0.074,0,0,0,2.233,15.806,-13.706,-3.836,0.045088,0.405792
18:56:22:992292,-0.000122173,-0.58198,1.1875,-6.98132e-05,1.35184,-0.000418879,0,0,0,0,0,0,0.017,-0.059,-0.002,0,0,0,1.736,16.59,-13.104,-4.137,0.039452,0.565009
18:56:22:997212,-0.000122173,-0.58198,1.1875,-6.98132e-05,1.35184,-0.000418879,0,0,0,0,0,0,-0.054,-0.057,0.156,0,0,-0.001,1.764,15.96,-13.629,-3.745,0.061996,0.393111
18:56:23:2410,-0.000122173,-0.58198,1.1875,-6.98132e-05,1.35184,-0.000418879,0,0,0,0,0,0,-0.109,-0.054,0.271,0,0,-0.002,1.456,15.582,-13.146,-4.004,0.132446,0.431154
18:56:23:7344,-0.000122173,-0.58198,1.1875,-6.98132e-05,1.35184,-0.000418879,0,0,0,0,0,0,-0.122,-0.038,0.206,0,0,-0.002,1.764,15.904,-13.202,-4.249,-0.018317,0.342387
18:56:23:12400,-0.000122173,-0.58198,1.1875,-6.98132e-05,1.35184,-0.000418879,0,0,0,0,0,0,-0.073,-0.023,0.041,0,0,0,1.617,15.715,-13.503,-3.654,0.066223,0.511467
18:56:23:17533,-0.000122173,-0.58198,1.1875,-6.98132e-05,1.35184,-0.000418879,0,0,0,0,0,0,0.014,-0.021,-0.076,0,0,0.001,1.127,15.407,-13.272,-3.717,0.029589,0.43679
18:56:23:22534,-0.000122173,-0.58198,1.1875,-6.98132e-05,1.35184,-0.000418879,0,0,0,0,0,0,0.036,-0.043,0.014,0,0,0.001,1.428,15.834,-13.342,-3.941,0.074677,0.390293
18:56:23:27642,-0.000122173,-0.58198,1.1875,-6.98132e-05,1.35184,-0.000418879,0,0,0,0,0,0,0.005,-0.081,0.185,0,0,0,1.477,16.24,-12.887,-4.564,-0.036634,0.459334
18:56:23:32642,-0.000122173,-0.58198,1.1875,-6.98132e-05,1.35184,-0.000418879,0,0,0,0,0,0,-0.023,-0.088,0.163,0,0,-0.001,2.044,16.534,-13.706,-3.157,0.107084,0.407201
18:56:23:37781,-0.000122173,-0.58198,1.1875,-6.98132e-05,1.35184,-0.000418879,0,0,0,0,0,0,-0.031,-0.066,-0.037,0,0,0,2.303,15.554,-13.279,-3.563,-0.076086,0.29589
18:56:23:42713,-0.000122173,-0.58198,1.1875,-6.98132e-05,1.35184,-0.000418879,0,0,0,0,0,0,-0.008,-0.044,-0.13,0,0,0.001,1.855,16.037,-12.789,-3.822,0.018317,0.376203
18:56:23:47889,-0.000122173,-0.58198,1.1875,-6.98132e-05,1.35184,-0.000418879,0,0,0,0,0,0,0.041,-0.013,-0.087,0,0,0.001,1.946,15.778,-13.818,-3.682,0.023953,0.452289
18:56:23:52896,-0.000122173,-0.58198,1.1875,-6.98132e-05,1.35184,-0.000418879,0,0,0,0,0,0,0.066,0.003,-0.002,0,0,0.001,2.324,16.17,-13.258,-4.375,0.074677,0.286027
18:56:23:58016,-0.000122173,-0.58198,1.1875,-6.98132e-05,1.35184,-0.000418879,0,0,0,0,0,0,0.068,0.017,0.046,0,0,0,2.303,15.757,-13.384,-3.885,0.066223,0.43679
18:56:23:63018,-0.000122173,-0.58198,1.1875,-6.98132e-05,1.35184,-0.000418879,0,0,0,0,0,0,0.051,0.014,-0.002,0,0.001,0,1.995,15.687,-12.649,-4.193,-0.032407,0.500195
18:56:23:68139,-0.000122173,-0.58198,1.1875,-6.98132e-05,1.35184,-0.000418879,0,0,0,0,0,0,0.028,-0.003,-0.12,0,0.001,0,2.065,16.142,-13.496,-3.885,-0.018317,0.442426
18:56:23:73138,-0.000122173,-0.58198,1.1875,-6.98132e-05,1.35184,-0.000418879,0,0,0,0,0,0,0.02,-0.027,-0.143,0,0.001,0,1.904,15.498,-13.958,-4.116,0.032407,0.355068
18:56:23:78097,-0.000122173,-0.58198,1.1875,-6.98132e-05,1.35184,-0.000418879,0,0,0,0,0,0,0.019,-0.04,-0.074,0,0,0,1.974,16.002,-13.496,-3.955,-0.009863,0.508649
18:56:23:83264,-0.000122173,-0.58198,1.1875,-6.98132e-05,1.35184,-0.000418879,0,0,0,0,0,0,0.016,-0.052,0.057,0,0,0,2.065,15.652,-13.314,-4.27,-0.064814,0.462152
18:56:23:88396,-0.000122173,-0.58198,1.1875,-6.98132e-05,1.35184,-0.000418879,0,0,0,0,0,0,0.018,-0.052,0.088,0,0,0,1.288,16.31,-13.216,-3.731,0.054951,0.462152
18:56:23:93336,-0.000122173,-0.58198,1.1875,-6.98132e-05,1.35184,-0.000418879,0,0,0,0,0,0,0.031,-0.044,0.059,0,0,0,1.316,15.449,-13.706,-4.032,0.061996,0.359295
18:56:23:98342,-0.000122173,-0.58198,1.1875,-6.98132e-05,1.35184,-0.000418879,0,0,0,0,0,0,0.041,-0.04,0.059,0,0,0,0.959,15.659,-13.412,-3.514,0.053542,0.466379
18:56:23:103513,-0.000122173,-0.58198,1.1875,-6.98132e-05,1.35184,-0.000418879,0,0,0,0,0,0,0.046,-0.042,0.13,0,0,0,1.218,14.679,-13.818,-3.969,0.054951,0.534011
18:56:23:108514,-0.000122173,-0.58198,1.1875,-6.98132e-05,1.35184,-0.000418879,0,0,0,0,0,0,0.044,-0.041,0.171,0,0,0,2.681,17.269,-13.419,-3.619,0.039452,0.418473
18:56:23:113638,-0.000122173,-0.58198,1.1875,-6.98132e-05,1.35184,-0.000418879,0,0,0,0,0,0,0.035,-0.033,0.156,0,0,0,2.254,16.254,-13.475,-3.752,0.004227,0.459334
18:56:23:118638,-0.000122173,-0.58198,1.1875,-6.98132e-05,1.35184,-0.000418879,0,0,0,0,0,0,0.031,-0.033,0.134,0,0,0,1.218,15.757,-13.384,-3.85,0.032407,0.483287
18:56:23:123762,-0.000122173,-0.58198,1.1875,-6.98132e-05,1.35184,-0.000418879,0,0,0,0,0,0,0.03,-0.059,0.187,0,0,0,1.904,16.212,-13.538,-4.221,-0.04227,0.52133
18:56:23:128707,-0.000122173,-0.58198,1.1875,-6.98132e-05,1.35184,-0.000418879,0,0,0,0,0,0,0.028,-0.085,0.256,0,0,0,2.163,16.373,-13.643,-3.92,0.039452,0.414246
18:56:23:133884,-0.000122173,-0.58198,1.1875,-6.98132e-05,1.35184,-0.000418879,0,0,0,0,0,0,0.002,-0.094,0.231,0,0,-0.001,1.078,15.54,-13.048,-3.598,-0.02818,0.315616
18:56:23:138887,-0.000122173,-0.58198,1.1875,-6.98132e-05,1.35184,-0.000418879,0,0,0,0,0,0,-0.034,-0.066,0.058,0,0.001,0,1.029,15.568,-13.335,-4.067,0.054951,0.395929
18:56:23:144012,-0.000122173,-0.58198,1.1875,-6.98132e-05,1.35184,-0.000418879,0,0,0,0,0,0,-0.088,-0.007,-0.3,0,0.001,0.001,1.456,15.645,-13.251,-3.822,0.039452,0.38043
18:56:23:149009,-0.000122173,-0.58198,1.1875,-6.98132e-05,1.35184,-0.000418879,0,0,0,0,0,0,-0.098,0.006,-0.422,0,0.001,0.002,1.477,15.498,-13.16,-3.983,0.018317,0.345205
18:56:23:154154,-0.000122173,-0.58198,1.1875,-6.98132e-05,1.35184,-0.000418879,0,0,0,0,0,0,-0.068,-0.026,-0.259,0,0.001,0.001,2.534,14.966,-12.719,-3.703,-0.011272,0.342387
18:56:23:159139,-0.000122173,-0.58198,1.1875,-6.98132e-05,1.35184,-0.000418879,0,0,0,0,0,0,-0.024,-0.063,0.09,0,0,0,1.148,15.974,-13.048,-4.067,-0.018317,0.395929
18:56:23:164088,-0.000122173,-0.58198,1.1875,-6.98132e-05,1.35184,-0.000418879,0,0,0,0,0,0,-0.005,-0.056,0.214,0,0,-0.001,2.233,16.415,-13.062,-4.004,-0.09863,0.402974
18:56:23:169215,-0.000122173,-0.58198,1.1875,-6.98132e-05,1.35184,-0.000418879,0,0,0,0,0,0,0.002,-0.013,0.179,0,0,-0.001,1.925,15.715,-12.999,-3.801,0.076086,0.364931
18:56:23:174215,-0.000122173,-0.58198,1.1875,-6.98132e-05,1.35184,-0.000418879,0,0,0,0,0,0,0,0.003,0.145,0,0,-0.001,1.974,15.568,-13.468,-3.878,0.033816,0.383248
18:56:23:179338,-0.000122173,-0.58198,1.1875,-6.98132e-05,1.35184,-0.000418879,0,0,0,0,0,0,-0.013,-0.013,0.268,0,0,-0.002,1.267,16.198,-14.049,-3.535,0.01409,0.490332
18:56:23:184526,-0.000122173,-0.58198,1.1875,-6.98132e-05,1.35184,-0.000418879,0,0,0,0,0,0,-0.019,-0.04,0.399,0,0,-0.003,2.464,14.882,-12.404,-3.927,-0.060587,0.318434
18:56:23:189528,-0.000122173,-0.58198,1.1875,-6.98132e-05,1.35184,-0.000418879,0,0,0,0,0,0,-0.009,-0.062,0.406,0,0,-0.003,1.904,15.617,-13.132,-3.43,-0.059178,0.452289
18:56:23:194511,-0.000122173,-0.58198,1.1875,-6.98132e-05,1.35184,-0.000418879,0,0,0,0,0,0,0.008,-0.053,0.245,0,0,-0.001,1.358,15.596,-13.258,-3.759,-0.094403,0.433972
18:56:23:199638,-0.000122173,-0.58198,1.1875,-6.98132e-05,1.35184,-0.000418879,0,0,0,0,0,0,0.02,-0.021,-0.014,0,0,0,2.233,15.967,-13.545,-3.542,0.012681,0.49315
18:56:23:204582,-0.000122173,-0.58198,1.1875,-6.98132e-05,1.35184,-0.000418879,0,0,0,0,0,0,0.005,-0.005,-0.054,0,0,0,2.093,16.037,-13.363,-3.801,0.035225,0.376203
18:56:23:209764,-0.000122173,-0.58198,1.1875,-6.98132e-05,1.35184,-0.000418879,0,0,0,0,0,0,-0.029,-0.004,0.05,0,0,0,1.736,15.757,-13.944,-3.773,-0.035225,0.383248
18:56:23:214762,-0.000122173,-0.58198,1.1875,-6.98132e-05,1.35184,-0.000418879,0,0,0,0,0,0,-0.035,-0.014,0.098,0,0,0,1.148,16.086,-13.405,-4.074,-0.025362,0.474833
18:56:23:219887,-0.000122173,-0.58198,1.1875,-6.98132e-05,1.35184,-0.000418879,0,0,0,0,0,0,-0.009,-0.026,0.03,0,0,0,1.288,15.89,-12.908,-3.843,0.005636,0.404383
18:56:23:224883,-0.000122173,-0.58198,1.1875,-6.98132e-05,1.35184,-0.000418879,0,0,0,0,0,0,0.013,-0.029,-0.05,0,0,0.001,1.547,15.337,-13.02,-3.556,0.002818,0.500195
18:56:23:230024,-0.000122173,-0.58198,1.1875,-6.98132e-05,1.35184,-0.000418879,0,0,0,0,0,0,0.018,-0.035,-0.091,0,0,0,1.407,15.701,-13.153,-4.046,0.039452,0.291663
18:56:23:235011,-0.000122173,-0.58198,1.1875,-6.98132e-05,1.35184,-0.000418879,0,0,0,0,0,0,0.002,-0.045,-0.05,0,0,0,2.114,16.114,-13.202,-3.57,-0.005636,0.395929
18:56:23:240131,-0.000122173,-0.58198,1.1875,-6.98132e-05,1.35184,-0.000418879,0,0,0,0,0,0,-0.02,-0.068,0.046,0,0,0,1.645,16.373,-13.384,-4.074,0.057769,0.308571
18:56:23:245146,-0.000122173,-0.58198,1.1875,-6.98132e-05,1.35184,-0.000418879,0,0,0,0,0,0,-0.018,-0.085,0.108,0,0,-0.001,1.687,15.449,-12.88,-3.976,-0.046497,0.486105
18:56:23:250259,-0.000122173,-0.58198,1.1875,-6.98132e-05,1.35184,-0.000418879,0,0,0,0,0,0,-0.003,-0.084,0.112,0,0,-0.001,1.715,15.974,-12.796,-3.57,-0.066223,0.349432
18:56:23:255261,-0.000122173,-0.58198,1.1875,-6.98132e-05,1.35184,-0.000418879,0,0,0,0,0,0,0.028,-0.065,0.088,0,0,0,1.148,16.492,-12.775,-4.032,-0.01409,0.383248
18:56:23:260384,-0.000122173,-0.58198,1.1875,-6.98132e-05,1.35184,-0.000418879,0,0,0,0,0,0,0.047,-0.047,0.081,0,0,0,1.666,16.051,-13.223,-3.731,-0.012681,0.38043
18:56:23:265522,-0.000122173,-0.58198,1.1875,-6.98132e-05,1.35184,-0.000418879,0,0,0,0,0,0,0.059,-0.024,0.098,0,0,0,1.428,15.596,-13.335,-4.165,0.005636,0.500195
18:56:23:270507,-0.000122173,-0.58198,1.1875,-6.98132e-05,1.35184,-0.000418879,0,0,0,0,0,0,0.052,-0.016,0.1,0,0,0,2.583,16.548,-12.67,-3.584,0.01409,0.455107
18:56:23:275523,-0.000122173,-0.58198,1.1875,-6.98132e-05,1.35184,-0.000418879,0,0,0,0,0,0,0.027,-0.016,0.045,0,0,0,1.596,16.051,-12.404,-4.046,0.039452,0.304344
18:56:23:280629,-0.000122173,-0.58198,1.1875,-6.98132e-05,1.35184,-0.000418879,0,0,0,0,0,0,0.011,-0.026,-0.012,0,0,0.001,1.218,16.023,-12.957,-3.934,0.054951,0.38043
18:56:23:285646,-0.000122173,-0.58198,1.1875,-6.98132e-05,1.35184,-0.000418879,0,0,0,0,0,0,0.011,-0.052,-0.051,0,0,0,1.855,15.568,-12.726,-3.675,0,0.393111
18:56:23:290753,-0.000122173,-0.58198,1.1875,-6.98132e-05,1.35184,-0.000418879,0,0,0,0,0,0,0.028,-0.066,-0.028,0,0,0,1.687,16.373,-12.831,-3.584,0.002818,0.46497
18:56:23:295772,-0.000122173,-0.58198,1.1875,-6.98132e-05,1.35184,-0.000418879,0,0,0,0,0,0,0.054,-0.067,0.029,0,0,0,1.925,15.309,-13.202,-3.787,-0.036634,0.383248
18:56:23:300897,-0.000122173,-0.58198,1.1875,-6.98132e-05,1.35184,-0.000418879,0,0,0,0,0,0,0.054,-0.051,0.049,0,0,0,1.358,15.435,-13.048,-3.745,-0.005636,0.490332
18:56:23:305830,-0.000122173,-0.58198,1.1875,-6.98132e-05,1.35184,-0.000418879,0,0,0,0,0,0,0.024,-0.02,0.04,0,0,0,1.358,16.415,-13.048,-4.046,0.12681,0.421291
18:56:23:311008,-0.000122173,-0.58198,1.1875,-6.98132e-05,1.35184,-0.000418879,0,0,0,0,0,0,0.002,-0.005,0.017,0,0.001,0,1.267,15.862,-12.684,-3.92,-0.012681,0.431154
18:56:23:315952,-0.000122173,-0.58198,1.1875,-6.98132e-05,1.35184,-0.000418879,0,0,0,0,0,0,-0.011,-0.003,-0.034,0,0.001,0,1.904,15.834,-13.482,-3.92,0.118356,0.455107
18:56:23:321130,-0.000122173,-0.58198,1.1875,-6.98132e-05,1.35184,-0.000418879,0,0,0,0,0,0,-0.01,-0.01,-0.068,0,0,0,1.526,16.023,-13.111,-4.368,0.050724,0.439608
18:56:23:326095,-0.000122173,-0.58198,1.1875,-6.98132e-05,1.35184,-0.000418879,0,0,0,0,0,0,-0.003,-0.016,-0.088,0,0,0,1.764,15.904,-13.517,-3.689,0.026771,0.390293
18:56:23:331254,-0.000122173,-0.58198,1.1875,-6.98132e-05,1.35184,-0.000418879,0,0,0,0,0,0,0.011,-0.013,-0.053,0,0,0,2.513,15.862,-12.887,-3.976,0.076086,0.342387
18:56:23:336207,-0.000122173,-0.58198,1.1875,-6.98132e-05,1.35184,-0.000418879,0,0,0,0,0,0,0.028,-0.014,-0.008,0,0,0,1.764,16.303,-13.181,-3.255,0.005636,0.311389
18:56:23:341383,-0.000122173,-0.58198,1.1875,-6.98132e-05,1.35184,-0.000418879,0,0,0,0,0,0,0.048,-0.035,0.081,0,0,0,1.736,15.862,-12.81,-3.976,-0.04227,0.35225
18:56:23:346329,-0.000122173,-0.58198,1.1875,-6.98132e-05,1.35184,-0.000418879,0,0,0,0,0,0,0.047,-0.054,0.15,0,0,0,1.715,15.568,-13.132,-3.57,0.057769,0.546692
18:56:23:351380,-0.000122173,-0.58198,1.1875,-6.98132e-05,1.35184,-0.000418879,0,0,0,0,0,0,0.019,-0.065,0.243,0,0,-0.001,1.925,16.401,-13.342,-3.514,-0.002818,0.455107
18:56:23:356502,-0.000122173,-0.58198,1.1875,-6.98132e-05,1.35184,-0.000418879,0,0,0,0,0,0,-0.009,-0.056,0.271,0,0,-0.001,1.099,15.673,-12.796,-3.976,-0.039452,0.433972
18:56:23:361508,-0.000122173,-0.58198,1.1875,-6.98132e-05,1.35184,-0.000418879,0,0,0,0,0,0,-0.037,-0.038,0.24,0,0,-0.001,1.995,15.918,-12.81,-3.745,0.002818,0.321252
18:56:23:366631,-0.000122173,-0.58198,1.1875,-6.98132e-05,1.35184,-0.000418879,0,0,0,0,0,0,-0.029,-0.037,0.188,0,0,0,0.938,16.149,-12.887,-3.626,-0.077495,0.490332
18:56:23:371630,-0.000122173,-0.58198,1.1875,-6.98132e-05,1.35184,-0.000418879,0,0,0,0,0,0,0.011,-0.048,0.122,0,0,0,1.316,16.695,-12.719,-3.745,0.066223,0.439608
18:56:23:376751,-0.000122173,-0.58198,1.1875,-6.98132e-05,1.35184,-0.000418879,0,0,0,0,0,0,0.028,-0.054,0.099,0,0,0,1.764,16.548,-12.817,-3.815,-0.043679,0.398747
18:56:23:381751,-0.000122173,-0.58198,1.1875,-6.98132e-05,1.35184,-0.000418879,0,0,0,0,0,0,0.011,-0.046,0.059,0,0,0,1.505,15.918,-12.943,-3.878,0.046497,0.373385
18:56:23:386829,-0.000122173,-0.58198,1.1875,-6.98132e-05,1.35184,-0.000418879,0,0,0,0,0,0,-0.012,-0.032,0.01,0,0,0,2.065,15.715,-13.048,-3.598,0.032407,0.364931
18:56:23:391824,-0.000122173,-0.58198,1.1875,-6.98132e-05,1.35184,-0.000418879,0,0,0,0,0,0,-0.009,-0.014,-0.06,0,0,0,2.184,15.813,-12.908,-3.759,0.101448,0.373385
18:56:23:397024,-0.000122173,-0.58198,1.1875,-6.98132e-05,1.35184,-0.000418879,0,0,0,0,0,0,0.022,-0.013,-0.084,0,0,0.001,1.218,15.946,-13.258,-3.99,0.032407,0.431154
18:56:23:401968,-0.000122173,-0.58198,1.1875,-6.98132e-05,1.35184,-0.000418879,0,0,0,0,0,0,0.055,-0.027,-0.106,0,0.001,0.001,1.855,16.31,-13.181,-3.57,-0.087358,0.459334
18:56:23:407143,-0.000122173,-0.58198,1.1875,-6.98132e-05,1.35184,-0.000418879,0,0,0,0,0,0,0.008,-0.046,-0.11,0,0.001,0,1.946,16.24,-13.048,-3.759,-0.039452,0.421291
18:56:23:412124,-0.000122173,-0.58198,1.1875,-6.98132e-05,1.35184,-0.000418879,0,0,0,0,0,0,-0.043,-0.051,-0.063,0,0.001,0,2.254,16.114,-13.335,-3.878,0.02818,0.38043
18:56:23:417248,-0.000122173,-0.58198,1.1875,-6.98132e-05,1.35184,-0.000418879,0,0,0,0,0,0,-0.07,-0.041,0.07,0,0,-0.001,1.288,16.093,-12.719,-4.207,-0.005636,0.293072
18:56:23:422254,-0.000122173,-0.58198,1.1875,-6.98132e-05,1.35184,-0.000418879,0,0,0,0,0,0,-0.037,-0.023,0.115,0,0,-0.001,2.233,16.247,-12.978,-3.759,0.005636,0.355068
18:56:23:427244,-0.000122173,-0.58198,1.1875,-6.98132e-05,1.35184,-0.000418879,0,0,0,0,0,0,0.028,0,0.032,0,0,0,0.959,16.002,-13.076,-4.312,-0.025362,0.308571
18:56:23:432371,-0.000122173,-0.58198,1.1875,-6.98132e-05,1.35184,-0.000418879,0,0,0,0,0,0,0.043,-0.005,-0.048,0,0,0,1.925,15.757,-12.992,-3.864,0.123992,0.442426
18:56:23:437497,-0.000122173,-0.58198,1.1875,-6.98132e-05,1.35184,-0.000418879,0,0,0,0,0,0,0.016,-0.049,-0.029,0,0,0,1.197,16.345,-12.705,-3.843,0.002818,0.390293
18:56:23:442499,-0.000122173,-0.58198,1.1875,-6.98132e-05,1.35184,-0.000418879,0,0,0,0,0,0,-0.007,-0.079,0.061,-0.001,0,0,1.687,16.779,-13.426,-4.277,-0.08454,0.40861
18:56:23:447499,-0.000122173,-0.58198,1.1875,-6.98132e-05,1.35184,-0.000418879,0,0,0,0,0,0,-0.01,-0.077,0.099,0,0,0,1.358,15.687,-12.593,-4.263,0.029589,0.370567
18:56:23:452641,-0.000122173,-0.58198,1.1875,-6.98132e-05,1.35184,-0.000418879,0,0,0,0,0,0,0.006,-0.044,-0.009,0,0,0,2.373,15.372,-12.908,-3.906,0.046497,0.500195
18:56:23:457641,-0.000122173,-0.58198,1.1875,-6.98132e-05,1.35184,-0.000418879,0,0,0,0,0,0,0.034,0,-0.239,0,0,0.002,2.184,16.345,-12.859,-3.92,0.066223,0.452289
18:56:23:462762,-0.000122173,-0.58198,1.1875,-6.98132e-05,1.35184,-0.000418879,0,0,0,0,0,0,0.043,-0.003,-0.308,0,0,0.002,1.876,16.499,-12.586,-4.165,0.053542,0.326888
18:56:23:467750,-0.000122173,-0.58198,1.1875,-6.98132e-05,1.35184,-0.000418879,0,0,0,0,0,0,0.053,-0.047,-0.239,0,0,0.001,2.163,15.148,-12.999,-4.137,0.073268,0.433972
18:56:23:472888,-0.000122173,-0.58198,1.1875,-6.98132e-05,1.35184,-0.000418879,0,0,0,0,0,0,0.061,-0.074,-0.147,0,0,0.001,2.065,15.946,-12.95,-4.438,0.005636,0.418473
18:56:23:477834,-0.000122173,-0.58198,1.1875,-6.98132e-05,1.35184,-0.000418879,0,0,0,0,0,0,0.063,-0.076,-0.047,0,0,0,1.806,16.317,-13.146,-4.151,0.021135,0.298708
18:56:23:483000,-0.000122173,-0.58198,1.1875,-8.72665e-05,1.35184,-0.000418879,0,0,0,0,0,0,0.045,-0.055,-0.014,0,0,0,2.205,15.47,-13.16,-3.556,0.039452,0.543874
18:56:23:487959,-0.000122173,-0.58198,1.1875,-8.72665e-05,1.35184,-0.000418879,0,0,0,0,0,0,-0.009,-0.02,0.011,0,0,0,1.596,15.001,-14,-3.934,-0.01409,0.395929
18:56:23:492961,-0.000122173,-0.58198,1.1875,-8.72665e-05,1.35184,-0.000418879,0,0,0,0,0,0,-0.044,-0.016,0.027,0,0,0,1.547,16.065,-13.146,-3.752,0.128219,0.32407
18:56:23:498084,-0.000122173,-0.58198,1.1875,-8.72665e-05,1.35184,-0.000418879,0,0,0,0,0,0,-0.064,-0.042,0.068,0,0,0,2.275,15.89,-13.496,-3.766,-0.107084,0.405792
18:56:23:503122,-0.000122173,-0.58198,1.1875,-8.72665e-05,1.35184,-0.000418879,0,0,0,0,0,0,-0.043,-0.053,0.1,0,0,0,1.407,16.499,-12.201,-3.955,-0.066223,0.345205
18:56:23:508259,-0.000122173,-0.58198,1.1875,-8.72665e-05,1.35184,-0.000418879,0,0,0,0,0,0,-0.016,-0.027,0.083,0,0.001,0,2.114,16.737,-12.866,-3.409,0.036634,0.466379
18:56:23:513248,-0.000122173,-0.58198,1.1875,-8.72665e-05,1.35184,-0.000418879,0,0,0,0,0,0,0.031,0.023,0.01,0,0,0,1.687,16.079,-11.879,-4.396,-0.142309,0.376203
18:56:23:518384,-0.000122173,-0.58198,1.1875,-8.72665e-05,1.35184,-0.000418879,0,0,0,0,0,0,0.057,0.022,-0.018,0,0,0.001,1.197,16.303,-12.859,-3.871,-0.011272,0.511467
18:56:23:523368,-0.000122173,-0.58198,1.1875,-8.72665e-05,1.35184,-0.000418879,0,0,0,0,0,0,0.067,-0.041,0,0,0,0.001,1.575,16.429,-13.076,-4.172,-0.02818,0.426927
18:56:23:528510,-0.000122173,-0.58198,1.1875,-8.72665e-05,1.35184,-0.000418879,0,0,0,0,0,0,0.046,-0.08,0.014,0,0,0,0.959,15.715,-13.37,-3.493,-0.054951,0.317025
18:56:23:533509,-0.000122173,-0.58198,1.1875,-8.72665e-05,1.35184,-0.000418879,0,0,0,0,0,0,0,-0.071,-0.034,0,0,0,2.023,15.904,-13.314,-3.738,0.036634,0.35225
18:56:23:538452,-0.000122173,-0.58198,1.1875,-8.72665e-05,1.35184,-0.000418879,0,0,0,0,0,0,-0.011,-0.037,-0.096,0,0,0,1.736,16.023,-12.222,-4.074,-0.021135,0.480469
18:56:23:543617,-0.000122173,-0.58198,1.1875,-8.72665e-05,1.35184,-0.000418879,0,0,0,0,0,0,0.023,-0.014,-0.147,0,0,0.001,1.617,15.645,-13.013,-4.046,-0.08454,0.439608
18:56:23:548577,-0.000122173,-0.58198,1.1875,-8.72665e-05,1.35184,-0.000418879,0,0,0,0,0,0,0.061,-0.028,-0.12,0,0,0.001,1.687,15.19,-12.999,-3.29,0.015499,0.486105
18:56:23:553742,-0.000122173,-0.58198,1.1875,-8.72665e-05,1.35184,-0.000418879,0,0,0,0,0,0,0.077,-0.053,-0.021,0.001,0,0,2.184,16.31,-12.747,-3.892,-0.009863,0.414246
18:56:23:558692,-0.000122173,-0.58198,1.1875,-8.72665e-05,1.35184,-0.000418879,0,0,0,0,0,0,0.048,-0.051,0.034,0.001,0,0,1.806,16.443,-12.705,-4.032,-0.046497,0.439608
18:56:23:563865,-0.000122173,-0.58198,1.1875,-8.72665e-05,1.35184,-0.000418879,0,0,0,0,0,0,-0.01,-0.035,0.053,0,0,0,1.736,15.995,-13.111,-6.853,-0.08454,0.472015
18:56:23:568810,-0.000122173,-0.58198,1.1875,-8.72665e-05,1.35184,-0.000418879,0,0,0,0,0,0,-0.028,-0.033,0.051,0,0.001,0,2.093,16.828,-13.041,-2.961,0.091585,0.462152
18:56:23:574008,-0.000122173,-0.58198,1.1875,-8.72665e-05,1.35184,-0.000418879,0,0,0,0,0,0,-0.018,-0.047,0.105,0,0,0,1.407,16.079,-13.181,-3.969,0.007045,0.370567
18:56:23:578990,-0.000122173,-0.58198,1.1875,-8.72665e-05,1.35184,-0.000418879,0,0,0,0,0,0,-0.011,-0.058,0.171,0,0,0,1.029,16.331,-13.258,-3.262,0.012681,0.329706
18:56:23:583939,-0.000122173,-0.58198,1.1875,-8.72665e-05,1.35184,-0.000418879,0,0,0,0,0,0,-0.016,-0.059,0.199,0,0,0,1.316,16.198,-13.09,-3.906,-0.033816,0.431154
18:56:23:589128,-0.000122173,-0.58198,1.1875,-8.72665e-05,1.35184,-0.000418879,0,0,0,0,0,0,-0.019,-0.03,0.072,0,0,0,1.148,15.729,-13.223,-3.675,0.029589,0.398747
18:56:23:594132,-0.000122173,-0.58198,1.1875,-8.72665e-05,1.35184,-0.000418879,0,0,0,0,0,0,-0.012,-0.001,-0.038,0,0,0,1.197,15.974,-12.768,-3.731,-0.011272,0.216986
18:56:23:599185,-0.000122173,-0.58198,1.1875,-8.72665e-05,1.35184,-0.000418879,0,0,0,0,0,0,-0.012,0.029,-0.103,0,-0.001,0,1.575,15.743,-12.334,-3.871,-0.067632,0.383248
18:56:23:604220,-0.000122173,-0.58198,1.1875,-8.72665e-05,1.35184,-0.000418879,0,0,0,0,0,0,-0.025,0.027,-0.057,0,-0.002,0,1.946,16.359,-13.223,-3.171,-0.046497,0.293072
18:56:23:609381,-0.000122173,-0.58198,1.1875,-8.72665e-05,1.35184,-0.000418879,0,0,0,0,0,0,-0.051,-0.001,0.054,0,-0.005,0,2.492,15.673,-13.097,-3.64,-0.116947,0.390293
18:56:23:614333,-0.000122173,-0.58198,1.1875,-8.72665e-05,1.35184,-0.000418879,0,0,0,0,0,0,-0.062,-0.019,0.082,0,-0.007,-0.001,1.806,16.779,-13.349,-3.402,0.002818,0.428336
18:56:23:619502,-0.000122173,-0.58198,1.1875,-8.72665e-05,1.35184,-0.000418879,0,0,0,0,0,0,-0.08,-0.022,0.018,0,-0.01,-0.001,0.889,16.065,-12.67,-3.752,0.108493,0.32407
18:56:23:624631,-0.000122173,-0.58198,1.1875,-8.72665e-05,1.35184,-0.000418879,0,0,0,0,0,0,-0.102,-0.014,-0.044,0,-0.011,-0.001,1.456,17.017,-12.684,-3.983,-0.073268,0.424109
18:56:23:629613,-0.000122173,-0.58198,1.1875,-8.72665e-05,1.35184,-0.000418879,0,0,0,0,0,0,-0.147,-0.012,-0.054,0,-0.012,-0.001,1.526,16.457,-13.685,-4.326,-0.060587,0.283209
18:56:23:634752,-0.000122173,-0.58198,1.1875,-8.72665e-05,1.35184,-0.000418879,0,0,0,0,0,0,-0.171,-0.018,0.006,0,-0.012,-0.001,1.596,15.995,-13.419,-3.906,-0.074677,0.43679
18:56:23:639749,-0.000122173,-0.58198,1.1875,-8.72665e-05,1.35184,-0.000418879,0,0,0,0,0,0,-0.188,-0.018,0.095,0,-0.012,-0.001,1.645,15.876,-13.02,-3.605,0.07045,0.283209
18:56:23:644706,-0.000122173,-0.58198,1.1875,-8.72665e-05,1.35184,-0.000418879,0,0,0,0,0,0,-0.192,-0.012,0.104,0,-0.011,-0.002,1.687,15.918,-13.048,-3.892,-0.039452,0.445244
18:56:23:649905,-0.000122173,-0.58198,1.1875,-8.72665e-05,1.35184,-0.000418879,0,0,0,0,0,0,-0.204,-0.013,0.088,0,-0.01,-0.003,1.316,15.029,-13.776,-4.123,0.07045,0.255029
18:56:23:654806,-0.000122173,-0.58198,1.1875,-8.72665e-05,1.35184,-0.000418879,0,0,0,0,0,0,-0.219,-0.022,0.098,0,-0.009,-0.003,2.373,15.89,-13.335,-4.151,0.057769,0.411428
18:56:23:659989,-0.000122173,-0.58198,1.1875,-8.72665e-05,1.35184,-0.000418879,0,0,0,0,0,0,-0.238,-0.028,0.086,0,-0.008,-0.003,2.044,16.387,-13.643,-3.528,0.032407,0.462152
18:56:23:664958,-0.000122173,-0.58198,1.1875,-8.72665e-05,1.35184,-0.000418879,0,0,0,0,0,0,-0.239,-0.017,-0.001,0,-0.008,-0.003,1.428,15.435,-13.181,-3.717,0.066223,0.407201
18:56:23:670140,-0.000122173,-0.58198,1.1875,-8.72665e-05,1.35184,-0.000418879,0,0,0,0,0,0,-0.221,0,-0.173,0,-0.008,-0.001,1.218,15.477,-13.545,-3.717,0.011272,0.386066
18:56:23:675056,-0.000122173,-0.58198,1.1875,-8.72665e-05,1.35184,-0.000418879,0,0,0,0,0,0,-0.205,-0.004,-0.182,0,-0.009,0,1.925,15.092,-13.657,-3.563,0.054951,0.40861
18:56:23:680240,-0.000122173,-0.58198,1.1875,-8.72665e-05,1.35184,-0.000418879,0,0,0,0,0,0,-0.19,-0.027,-0.003,-0.001,-0.01,-0.001,1.127,15.001,-13.867,-3.815,0,0.298708
18:56:23:685182,-0.000122173,-0.58198,1.1875,-8.72665e-05,1.35184,-0.000418879,0,0,0,0,0,0,-0.181,-0.03,0.09,-0.002,-0.011,-0.002,2.275,15.316,-13.958,-3.297,-0.08454,0.483287
18:56:23:690202,-0.000122173,-0.58198,1.1875,-8.72665e-05,1.35184,-0.000418879,0,0,0,0,0,0,-0.174,-0.01,-0.002,-0.002,-0.012,-0.001,2.023,16.093,-13.237,-3.983,0.080313,0.373385
18:56:23:695362,-0.000122173,-0.58198,1.1875,-8.72665e-05,1.35184,-0.000418879,0,0,0,0,0,0,-0.173,0.027,-0.163,-0.002,-0.013,0,2.093,15.876,-14.679,-3.955,0.091585,0.395929
18:56:23:700305,-0.000122173,-0.58198,1.1875,-8.72665e-05,1.35184,-0.000418879,0,0,0,0,0,0,-0.182,0.043,-0.127,-0.003,-0.014,-0.001,2.275,15.757,-14.777,-3.997,0.019726,0.356477
18:56:23:705487,-0.000122173,-0.58198,1.1875,-8.72665e-05,1.35184,-0.000418879,0,0,0,0,0,0,-0.206,0.046,0.085,-0.004,-0.014,-0.002,2.184,15.225,-14.497,-3.689,0.132446,0.46497
18:56:23:710502,-0.000122173,-0.58198,1.1875,-8.72665e-05,1.35184,-0.000418879,0,0,0,0,0,0,-0.222,0.04,0.166,-0.004,-0.014,-0.003,2.163,15.071,-14.42,-3.78,0.128219,0.29589
18:56:23:715614,-0.000122173,-0.58198,1.1875,-8.72665e-05,1.35184,-0.000418879,0,0,0,0,0,0,-0.244,0.036,0.064,-0.004,-0.013,-0.002,1.876,14.721,-14.805,-3.346,0.036634,0.414246
18:56:23:720626,-0.000122173,-0.58198,1.1875,-8.72665e-05,1.35184,-0.000418879,0,0,0,0,0,0,-0.25,0.049,-0.077,-0.004,-0.013,-0.001,1.645,14.791,-14.343,-3.64,0.121174,0.448062
18:56:23:725751,-0.000122173,-0.58198,1.1875,-8.72665e-05,1.35184,-0.000418879,0,0,0,0,0,0,-0.229,0.09,-0.221,-0.003,-0.011,0,1.974,14.805,-14.819,-3.423,0.021135,0.467788
18:56:23:730681,-0.000122173,-0.58198,1.1875,-8.72665e-05,1.35186,-0.000418879,0,0,0,0,0,0,-0.197,0.116,-0.23,-0.003,-0.011,0,1.715,13.727,-15.134,-3.283,0.064814,0.398747
18:56:23:735876,-0.000122173,-0.58198,1.1875,-8.72665e-05,1.35186,-0.000418879,0,0,0,0,0,0,-0.156,0.121,-0.123,-0.003,-0.01,0,1.428,14.924,-15.526,-4.235,0.097221,0.362113
18:56:23:740850,-0.000122173,-0.58198,1.1875,-8.72665e-05,1.35186,-0.000418879,0,0,0,0,0,0,-0.15,0.099,-0.009,-0.004,-0.01,-0.001,1.456,14.511,-15.638,-4.032,0.131037,0.315616
18:56:23:746001,-0.000122173,-0.58198,1.1875,-8.72665e-05,1.35186,-0.000418879,0,0,0,0,0,0,-0.16,0.058,0.103,-0.005,-0.01,-0.001,1.176,13.594,-15.988,-4.137,0.118356,0.370567
18:56:23:750946,-0.000122173,-0.58198,1.1875,-8.72665e-05,1.35186,-0.000418879,0,0,0,0,0,0,-0.16,0.052,0.071,-0.006,-0.01,-0.001,1.715,14.497,-15.82,-3.696,0.174716,0.580508
18:56:23:756000,-0.000122173,-0.58198,1.1875,-8.72665e-05,1.35186,-0.000418879,0,0,0,0,0,0,-0.142,0.087,-0.091,-0.006,-0.01,0,2.093,14.763,-16.282,-4.221,0.157808,0.428336
18:56:23:761133,-0.000122173,-0.58198,1.1875,-8.72665e-05,1.35186,-0.000418879,0,0,0,0,0,0,-0.133,0.13,-0.16,-0.006,-0.01,0,1.337,14.49,-16.24,-3.731,0.138082,0.398747
18:56:23:766113,-0.000122173,-0.58198,1.1875,-8.72665e-05,1.35188,-0.000418879,0,0,0,0,0,0,-0.143,0.135,-0.079,-0.006,-0.009,0,1.008,13.853,-16.912,-3.654,0.105675,0.393111
18:56:23:771252,-0.000122173,-0.581998,1.1875,-8.72665e-05,1.35188,-0.000418879,0,0,0,0,0,0,-0.162,0.107,0.118,-0.005,-0.009,-0.002,1.645,14.322,-16.31,-3.766,0.174716,0.524148
18:56:23:776246,-0.000122173,-0.581998,1.1875,-8.72665e-05,1.3519,-0.000418879,0,0,0,0,0,0,-0.161,0.079,0.191,-0.003,-0.009,-0.002,2.163,14.063,-17.311,-3.843,0.226849,0.429745
18:56:23:781182,-0.000122173,-0.581998,1.18749,-8.72665e-05,1.3519,-0.000418879,0,0,0,0,0,0,-0.132,0.035,0.139,-0.001,-0.009,-0.001,1.456,13.993,-16.688,-3.5,0.12681,0.508649
18:56:23:786307,-0.000122173,-0.582015,1.18749,-8.72665e-05,1.3519,-0.000418879,0,0,0,0,0,0,-0.103,-0.001,0.033,0,-0.009,0,1.617,13.503,-16.961,-3.318,0.262074,0.421291
18:56:23:791486,-0.000122173,-0.582015,1.18747,-8.72665e-05,1.35191,-0.000418879,0,-0.0016057,0,0,0,0,-0.074,-0.074,-0.115,0.005,-0.01,0,1.855,13.265,-16.8,-3.934,0.133855,0.587553
18:56:23:796486,-0.000122173,-0.582015,1.18747,-8.72665e-05,1.35191,-0.000418879,0,-0.0015708,0,0,0,0,-0.076,-0.126,-0.148,0.008,-0.011,0,1.386,14.203,-16.982,-3.892,0.160626,0.574872
18:56:23:801609,-0.000122173,-0.582032,1.18745,-8.72665e-05,1.35193,-0.000418879,0,0,0,0,0.00237365,0,-0.111,-0.197,-0.064,0.015,-0.012,-0.001,2.275,13.349,-17.262,-3.549,0.118356,0.480469
18:56:23:806610,-0.000122173,-0.582032,1.18745,-8.72665e-05,1.35193,-0.000418879,0,-0.00198968,-0.00280998,0,0.00251327,0,-0.143,-0.243,0.039,0.02,-0.013,-0.001,2.793,14.175,-17.038,-3.255,0.081722,0.510058
18:56:23:811552,-0.000122173,-0.58205,1.18743,-8.72665e-05,1.35195,-0.000418879,0,-0.00226893,-0.00268781,0,0.00218166,0,-0.178,-0.336,0.171,0.027,-0.016,-0.002,1.946,14.567,-17.136,-3.528,0.115538,0.543874
18:56:23:816696,-0.000122173,-0.582067,1.1874,-8.72665e-05,1.35197,-0.000418879,0,-0.00233874,-0.00431096,0,0,0,-0.188,-0.42,0.217,0.032,-0.018,-0.002,1.715,13.734,-17.367,-3.766,0.142309,0.488923
18:56:23:821679,-0.000122173,-0.582085,1.18738,-8.72665e-05,1.35197,-0.000418879,0,-0.00247837,-0.00408407,0,0,0,-0.198,-0.567,0.249,0.039,-0.021,-0.002,2.135,13.902,-17.633,-3.381,0.247984,0.463561
18:56:23:826858,-0.000122173,-0.582085,1.18736,-8.72665e-05,1.35198,-0.000418879,0,-0.00254818,-0.00462512,0,0,0,-0.222,-0.658,0.271,0.044,-0.022,-0.002,1.974,13.447,-17.899,-3.717,0.164853,0.417064
18:56:23:831985,-0.000122173,-0.582102,1.18733,-8.72665e-05,1.35198,-0.000418879,0,-0.00251327,-0.00511381,0,0,0,-0.296,-0.773,0.333,0.052,-0.022,-0.004,1.764,13.797,-17.409,-3.661,0.164853,0.500195
18:56:23:836933,-0.000122173,-0.58212,1.18731,-8.72665e-05,1.352,-0.000418879,0,-0.00336849,-0.00527089,0,0,0,-0.349,-0.842,0.393,0.056,-0.022,-0.005,1.148,12.922,-17.542,-4.452,0.226849,0.565009
18:56:23:841982,-0.000122173,-0.582155,1.18726,-8.72665e-05,1.35202,-0.000418879,0,-0.00471239,-0.00699877,0,0,0,-0.38,-0.945,0.447,0.062,-0.022,-0.006,1.785,12.873,-17.108,-3.164,0.204305,0.393111
18:56:23:847127,-0.000122173,-0.582172,1.18723,-8.72665e-05,1.35204,-0.000418879,0,-0.00411898,-0.00818559,0,0.00340339,0,-0.334,-1.043,0.37,0.069,-0.022,-0.005,1.316,13.258,-16.898,-3.633,0.269119,0.43679
18:56:23:852065,-0.000122173,-0.582189,1.18717,-8.72665e-05,1.35204,-0.000418879,0,-0.00436332,-0.0102451,0,0.00284489,0,-0.282,-1.103,0.266,0.074,-0.022,-0.005,2.044,14.133,-16.233,-4.123,0.209941,0.395929
18:56:23:857246,-0.000122173,-0.582224,1.18709,-8.72665e-05,1.35205,-0.000418879,0,-0.00471239,-0.0117286,0,0.00232129,0,-0.211,-1.187,0.152,0.08,-0.022,-0.005,1.029,13.79,-16.863,-4.438,0.249393,0.411428
18:56:23:862241,-0.000122173,-0.582242,1.18702,-8.72665e-05,1.35207,-0.000418879,0,-0.00499164,-0.0150098,0,0.00326377,0,-0.18,-1.231,0.143,0.083,-0.022,-0.005,1.645,14.014,-16.303,-4.158,0.236712,0.442426
18:56:23:867356,-0.000122173,-0.582277,1.18693,-8.72665e-05,1.35209,-0.000436332,0,-0.00502655,-0.0161967,0,0.00260054,0,-0.161,-1.264,0.195,0.087,-0.023,-0.007,1.358,13.846,-15.785,-3.843,0.280391,0.393111
18:56:23:872356,-0.000122173,-0.582294,1.18682,-8.72665e-05,1.35211,-0.000436332,0,-0.00511381,-0.0190066,0,0.00352557,-0.00247837,-0.168,-1.268,0.23,0.089,-0.024,-0.008,0.889,14.182,-14.189,-3.906,0.201487,0.266301
18:56:23:877492,-0.000122173,-0.582329,1.18672,-8.72665e-05,1.35212,-0.000453786,0,-0.0050091,-0.0201935,0,0.00258309,-0.0026529,-0.191,-1.264,0.231,0.088,-0.024,-0.009,0.35,13.293,-13.944,-3.829,0.322661,0.214168
18:56:23:882491,-0.000122173,-0.582347,1.1866,-8.72665e-05,1.35214,-0.000471239,0,-0.00506145,-0.0221831,0,0.0031765,-0.00242601,-0.195,-1.251,0.187,0.085,-0.025,-0.01,0.56,13.377,-12.978,-4.13,0.215577,0.314207
18:56:23:887616,-0.000122173,-0.582381,1.18647,-8.72665e-05,1.35216,-0.000488692,0,-0.0058294,-0.022061,0,0.00390954,-0.00340339,-0.163,-1.184,0.077,0.078,-0.025,-0.01,-0.658,13.118,-13.776,-3.766,0.300117,0.373385
18:56:23:892598,-0.000122173,-0.582416,1.18637,-8.72665e-05,1.35218,-0.000506145,0,-0.00614356,-0.0227591,0,0.00279253,-0.00361283,-0.121,-1.1,0.023,0.071,-0.024,-0.01,-0.133,12.971,-13.223,-3.017,0.326888,0.116947
18:56:23:897743,-0.000122173,-0.582451,1.18627,-8.72665e-05,1.35219,-0.000541052,0,-0.00680678,-0.019984,0,0.00357793,-0.00495674,-0.059,-0.938,0.029,0.059,-0.022,-0.011,-0.539,13.566,-12.817,-3.57,0.371976,0.176125
18:56:23:902729,-0.000139626,-0.582486,1.1862,-8.72665e-05,1.35219,-0.000575959,0,-0.00657989,-0.0179071,0,0.00249582,-0.00518363,-0.023,-0.836,0.064,0.051,-0.018,-0.012,-1.953,13.328,-12.999,-3.514,0.271937,0.260665
18:56:23:907745,-0.000139626,-0.582521,1.18613,-8.72665e-05,1.35223,-0.000593412,0,-0.00581195,-0.0149749,0,0.00354302,-0.00588176,0.049,-0.715,0.042,0.041,-0.009,-0.013,-1.211,13.111,-13.16,-3.717,0.205714,0.233894
18:56:23:912868,-0.000139626,-0.582539,1.18607,-8.72665e-05,1.35225,-0.000628319,0,-0.00539307,-0.0124093,0,0.00413643,-0.00600393,0.124,-0.644,-0.069,0.035,-0.003,-0.013,-1.498,13.503,-13.398,-3.57,0.331115,0.170489
18:56:23:917850,-0.00015708,-0.582573,1.18604,-8.72665e-05,1.35226,-0.000663225,-0.00198968,-0.00596903,-0.00959931,0,0.00445059,-0.00591667,0.271,-0.503,-0.322,0.026,0.006,-0.012,-1.939,13.342,-14.546,-4.102,0.336751,0.215577
18:56:23:922798,-0.00015708,-0.582608,1.186,-8.72665e-05,1.35228,-0.000698132,-0.00155334,-0.00598648,-0.00726057,0,0.0045204,-0.00589921,0.372,-0.371,-0.455,0.018,0.012,-0.012,-1.918,13.055,-14.994,-3.738,0.36634,0.221213
18:56:23:927977,-0.000174533,-0.582643,1.18597,-8.72665e-05,1.35232,-0.000733038,-0.00193732,-0.00712094,-0.0066148,0,0.00492183,-0.00645772,0.489,-0.134,-0.471,0.002,0.02,-0.013,-1.834,13.335,-14.756,-3.192,0.302935,0.088767
18:56:23:932918,-0.000191986,-0.582678,1.18593,-8.72665e-05,1.35233,-0.000750492,-0.00307178,-0.00774926,-0.00657989,0,0.00467748,-0.00657989,0.531,0.018,-0.367,-0.009,0.026,-0.015,-2.366,13.615,-14.973,-3.878,0.209941,0.133855
18:56:23:938099,-0.00020944,-0.582713,1.1859,-8.72665e-05,1.35235,-0.000785398,-0.00296706,-0.00727802,-0.00656244,0,0.00457276,-0.00626573,0.536,0.199,-0.152,-0.025,0.034,-0.019,-3.199,13.083,-15.54,-3.794,0.326888,0.009863
18:56:23:943243,-0.000226893,-0.582748,1.18586,-8.72665e-05,1.35237,-0.000820305,-0.00284489,-0.00598648,-0.00705113,0,0.00469494,-0.006353,0.504,0.301,0.026,-0.034,0.039,-0.025,-2.394,13.363,-15.113,-3.507,0.256438,0.022544
18:56:23:948230,-0.000226893,-0.582783,1.18583,-8.72665e-05,1.35239,-0.000837758,-0.00279253,-0.00584685,-0.00734784,0,0.00310669,-0.00513127,0.482,0.323,0.116,-0.036,0.042,-0.029,-3.276,13.489,-15.484,-3.346,0.288845,-0.073268
18:56:23:953366,-0.000244346,-0.5828,1.18578,-8.72665e-05,1.3524,-0.000872665,-0.00263545,-0.00626573,-0.00834267,0,0.00331613,-0.00603884,0.459,0.285,0.22,-0.035,0.044,-0.034,-3.703,13.195,-15.008,-4.144,0.297299,0.214168
18:56:23:958357,-0.000261799,-0.582835,1.18574,-8.72665e-05,1.35242,-0.000907571,-0.00260054,-0.00591667,-0.00706858,0,0.00225147,-0.00642281,0.45,0.222,0.269,-0.031,0.046,-0.037,-3.5,12.747,-14.819,-3.997,0.246575,0.063405
18:56:23:963481,-0.000279253,-0.582853,1.18571,-8.72665e-05,1.35242,-0.000925025,-0.00244346,-0.00483456,-0.00619592,0,0,-0.00476475,0.463,0.104,0.316,-0.025,0.051,-0.041,-3.29,13.895,-14.623,-3.57,0.363522,0.012681
18:56:23:968491,-0.000296706,-0.58287,1.18569,-8.72665e-05,1.35244,-0.000942478,-0.00230383,-0.00413643,-0.00457276,0,0,-0.00424115,0.508,0.024,0.341,-0.02,0.056,-0.044,-2.919,13.678,-15.071,-3.549,0.233894,0.083131
18:56:23:973479,-0.000296706,-0.582888,1.18569,-8.72665e-05,1.35244,-0.000977384,-0.00308923,-0.00314159,-0.00352557,0,0,-0.00570723,0.64,-0.098,0.398,-0.012,0.065,-0.048,-3.255,14.462,-14.952,-3.535,0.216986,-0.022544
18:56:23:978601,-0.000331613,-0.582905,1.18569,-8.72665e-05,1.35246,-0.000994838,-0.00331613,-0.00289725,0,0,0,-0.00340339,0.746,-0.191,0.452,-0.006,0.07,-0.052,-3.143,13.881,-14.875,-4.235,0.360704,0.038043
18:56:23:983603,-0.000349066,-0.582905,1.18567,-8.72665e-05,1.35247,-0.00101229,-0.0045204,-0.00226893,0,0,0,-0.00357793,0.874,-0.345,0.528,0.003,0.078,-0.057,-3.36,13.916,-15.379,-3.724,0.311389,-0.053542
18:56:23:988721,-0.000366519,-0.582905,1.18567,-8.72665e-05,1.35247,-0.00102974,-0.00443314,0,0,0,0.00246091,-0.00385718,0.929,-0.456,0.549,0.011,0.083,-0.061,-3.892,14.301,-15.47,-3.339,0.278982,-0.022544
18:56:23:993720,-0.000383972,-0.582905,1.18567,-8.72665e-05,1.35247,-0.0010472,-0.00336849,0,0,0,0,-0.00296706,1.006,-0.641,0.516,0.021,0.092,-0.065,-3.241,14.014,-14.679,-3.71,0.221213,-0.038043
18:56:23:998687,-0.000401426,-0.582905,1.18567,-8.72665e-05,1.35247,-0.00106465,-0.00268781,0,0,0,0,-0.00345575,1.078,-0.772,0.45,0.026,0.1,-0.068,-3.29,13.916,-14.665,-3.402,0.138082,-0.108493
18:56:24:3799,-0.000401426,-0.582905,1.18567,-8.72665e-05,1.35247,-0.0010821,-0.00261799,0,0,0,0,-0.00345575,1.236,-0.942,0.267,0.035,0.115,-0.071,-4.116,14.455,-14.056,-3.738,0.166262,0.005636
18:56:24:8803,-0.000418879,-0.582905,1.18569,-8.72665e-05,1.35247,-0.00109956,-0.00185005,0,0,0,0,-0.00354302,1.372,-1.023,0.103,0.041,0.126,-0.073,-4.081,14.406,-13.342,-3.521,0.191624,-0.073268
18:56:24:13990,-0.000436332,-0.582905,1.18569,-0.00010472,1.35247,-0.00111701,-0.00228638,0,0,0,0,-0.00359538,1.595,-1.117,-0.077,0.05,0.141,-0.077,-4.235,14.749,-13.034,-3.437,0.159217,0.061996
18:56:24:18969,-0.000436332,-0.582905,1.18569,-0.00010472,1.35247,-0.00115192,-0.00249582,0,0,0,0,-0.00485202,1.728,-1.191,-0.068,0.056,0.151,-0.08,-4.613,15.218,-12.215,-3.773,0.092994,-0.219804
18:56:24:24095,-0.000453786,-0.582905,1.18569,-0.00010472,1.35247,-0.00116937,-0.00342085,0,0,0,0,-0.00464258,1.872,-1.339,0.103,0.064,0.166,-0.086,-3.983,15.729,-11.592,-3.626,0.083131,-0.061996
18:56:24:29095,-0.000471239,-0.582905,1.18569,-0.00010472,1.35247,-0.00120428,-0.00308923,0,0,0,0,-0.00438078,1.944,-1.45,0.202,0.07,0.175,-0.09,-4.424,16.044,-11.179,-3.255,0.061996,-0.046497
18:56:24:34103,-0.000488692,-0.582905,1.18569,-0.00010472,1.35247,-0.00122173,-0.00357793,0,0,0,0,-0.00523599,2.083,-1.613,0.192,0.081,0.191,-0.096,-3.885,17.031,-9.478,-2.996,-0.001409,-0.059178
18:56:24:39219,-0.000523599,-0.582905,1.18571,-0.00010472,1.35246,-0.00125664,-0.00359538,0,0.00244346,0,-0.00219911,-0.00570723,2.302,-1.767,0.075,0.094,0.208,-0.101,-5.327,17.745,-8.638,-3.626,-0.131037,-0.224031
18:56:24:44343,-0.000541052,-0.582905,1.18572,-0.00010472,1.35244,-0.00127409,-0.00525344,0,0.00364774,0,-0.00394444,-0.00513127,2.475,-1.857,0.014,0.103,0.22,-0.103,-5.719,18.809,-7.455,-3.332,-0.063405,-0.226849
18:56:24:49344,-0.000575959,-0.582905,1.18576,-0.00010472,1.3524,-0.001309,-0.00551524,0,0.00548033,0,-0.00577704,-0.00619592,2.733,-1.964,-0.015,0.113,0.24,-0.106,-4.34,19.215,-6.804,-3.22,0.008454,-0.287436
18:56:24:54363,-0.000593412,-0.582888,1.18583,-0.00010472,1.35237,-0.0013439,-0.00561996,0,0.00998328,0,-0.00726057,-0.0066148,2.899,-2.019,0.001,0.117,0.254,-0.108,-5.11,20.419,-5.817,-3.661,-0.1409,-0.26771
18:56:24:59346,-0.000610865,-0.582888,1.1859,-0.00010472,1.35232,-0.00137881,-0.0047822,0,0.013823,0,-0.00928515,-0.00621337,3.163,-2.087,0.076,0.122,0.274,-0.111,-5.964,21.329,-5.32,-3.899,-0.235303,-0.250802
18:56:24:64486,-0.000628319,-0.58287,1.186,-0.00010472,1.35226,-0.00141372,-0.0044855,0.00218166,0.0184307,0,-0.0101404,-0.00727802,3.355,-2.122,0.14,0.124,0.286,-0.114,-6.083,22.855,-4.515,-3.899,-0.22544,-0.26771
18:56:24:69542,-0.000663225,-0.582853,1.18614,-0.00010472,1.35219,-0.00146608,-0.00493928,0.0034383,0.0234223,0,-0.0109432,-0.00794125,3.628,-2.142,0.227,0.126,0.303,-0.117,-6.398,23.569,-3.507,-3.402,-0.215577,-0.373385
18:56:24:74589,-0.000698132,-0.582835,1.1863,-0.00010472,1.35212,-0.00151844,-0.00506145,0.00464258,0.0285885,0,-0.0130027,-0.00954695,3.767,-2.127,0.293,0.124,0.313,-0.12,-7.301,24.682,-3.171,-2.905,-0.235303,-0.355068
18:56:24:79736,-0.000733038,-0.582783,1.18647,-0.00010472,1.35204,-0.00155334,-0.00736529,0.00753982,0.0329867,0,-0.0136136,-0.00876155,3.889,-2.068,0.431,0.118,0.324,-0.124,-5.544,25.76,-2.1,-3.129,-0.411428,-0.412837
18:56:24:84716,-0.000820305,-0.582731,1.18668,-0.00010472,1.35197,-0.00162316,-0.0122522,0.0101578,0.0387114,0,-0.0138405,-0.0108559,3.93,-2.019,0.523,0.112,0.329,-0.127,-5.243,27.181,-1.008,-3.899,-0.494559,-0.491741
18:56:24:89718,-0.000890118,-0.582661,1.18695,-0.00010472,1.35188,-0.00167552,-0.0156731,0.0121999,0.0467399,0,-0.0172788,-0.0104022,3.963,-1.954,0.602,0.102,0.333,-0.132,-6.384,27.762,-0.924,-3.717,-0.503013,-0.350841
18:56:24:94795,-0.000994838,-0.582573,1.18726,-0.00010472,1.35176,-0.00172788,-0.0181689,0.0152018,0.0569501,0,-0.0202807,-0.0104894,3.965,-1.911,0.615,0.096,0.335,-0.135,-4.571,28.63,-0.952,-3.458,-0.742543,-0.414246
18:56:24:99844,-0.00109956,-0.582469,1.18764,-0.00010472,1.35164,-0.00178024,-0.0195128,0.0189717,0.070232,0,-0.0234572,-0.0119555,3.928,-1.819,0.606,0.086,0.339,-0.14,-5.145,29.82,-2.079,-3.332,-0.560782,-0.393111
18:56:24:104984,-0.00120428,-0.582329,1.18808,-0.00010472,1.3515,-0.0018675,-0.0193906,0.0232129,0.0792379,0,-0.0272271,-0.0149749,3.887,-1.728,0.574,0.078,0.341,-0.143,-4.851,30.758,-2.359,-3.843,-0.546692,-0.511467
18:56:24:109984,-0.00129154,-0.582172,1.18852,-0.00010472,1.35132,-0.00195477,-0.0176802,0.0280474,0.0823621,0,-0.0328296,-0.0141023,3.849,-1.564,0.462,0.064,0.342,-0.147,-5.544,30.772,-1.505,-3.99,-0.624187,-0.511467
18:56:24:115090,-0.00137881,-0.581998,1.18892,-0.00010472,1.35111,-0.00202458,-0.0174184,0.0325155,0.0796743,0,-0.0376817,-0.0154287,3.851,-1.456,0.387,0.055,0.341,-0.149,-5.614,31.731,-0.098,-3.255,-0.629823,-0.505831
18:56:24:120091,-0.00146608,-0.581788,1.18934,-0.00010472,1.35087,-0.00211185,-0.0182561,0.0374024,0.0831649,0,-0.0429875,-0.0175406,3.864,-1.319,0.418,0.04,0.339,-0.154,-5.803,32.179,0.28,-3.717,-0.433972,-0.555146
18:56:24:125236,-0.0015708,-0.581561,1.18984,-0.00010472,1.35059,-0.00221657,-0.0193732,0.0419054,0.0929562,0,-0.0518712,-0.0186576,3.856,-1.198,0.652,0.026,0.337,-0.16,-5.222,32.487,-0.497,-3.584,-0.576281,-0.446653
18:56:24:130349,-0.00165806,-0.581299,1.19038,-0.00010472,1.35026,-0.00232129,-0.0188845,0.0484852,0.102206,0,-0.0583987,-0.0194081,3.867,-1.095,0.814,0.015,0.338,-0.164,-5.488,32.361,-0.175,-3.92,-0.270528,-0.477651
18:56:24:135339,-0.00176278,-0.58102,1.19094,-0.00010472,1.34998,-0.00244346,-0.0181689,0.0542448,0.107792,0,-0.0565312,-0.0227242,3.983,-0.861,0.877,-0.003,0.345,-0.166,-6.643,32.494,-0.497,-3.493,-0.228258,-0.387475
18:56:24:140342,-0.00185005,-0.580688,1.19157,-0.00010472,1.34977,-0.00258309,-0.0180118,0.0597077,0.117077,0,-0.0470715,-0.0239808,4.128,-0.652,0.78,-0.019,0.352,-0.166,-5.096,32.2,-0.105,-3.185,-0.393111,-0.395929
18:56:24:145471,-0.00193732,-0.580339,1.19223,-0.00010472,1.34959,-0.00272271,-0.0180816,0.0667065,0.126606,0,-0.040736,-0.0274191,4.322,-0.316,0.564,-0.045,0.363,-0.167,-7.581,32.662,-1.001,-3.787,-0.474833,-0.36634
18:56:24:150410,-0.00200713,-0.579938,1.19288,-0.00010472,1.34935,-0.00286234,-0.0155858,0.0744557,0.126816,0,-0.0457276,-0.0277682,4.352,-0.113,0.464,-0.062,0.367,-0.169,-7.042,32.536,-0.035,-3.332,-0.531193,-0.162035
18:56:24:155465,-0.00209439,-0.579502,1.19353,-0.00010472,1.34912,-0.00300197,-0.0150622,0.0806517,0.129172,0,-0.0457625,-0.0275587,4.235,0.159,0.438,-0.088,0.365,-0.174,-6.251,31.752,0.182,-3.164,-0.514285,-0.107084
18:56:24:160592,-0.00214676,-0.579083,1.19424,-0.00010472,1.34888,-0.00312414,-0.0130027,0.0828333,0.13727,0,-0.0452913,-0.024679,4.142,0.347,0.479,-0.108,0.359,-0.176,-6.979,30.849,-0.602,-3.57,-0.614324,-0.08454
18:56:24:165730,-0.00219911,-0.578664,1.19497,-0.00010472,1.34863,-0.00322886,-0.0113272,0.0838631,0.142192,0,-0.0455007,-0.0235445,4.17,0.657,0.594,-0.139,0.355,-0.178,-5.915,31.647,-0.966,-3.423,-0.650958,0.035225
18:56:24:170732,-0.00225147,-0.578228,1.19578,-0.00010472,1.34839,-0.00333358,-0.0107338,0.0847706,0.149994,0,-0.049899,-0.0219213,4.34,0.858,0.714,-0.158,0.359,-0.179,-6.972,32.109,-0.189,-3.682,-0.791858,-0.035225
18:56:24:175842,-0.00230383,-0.577774,1.19656,-0.00010472,1.34811,-0.00342085,-0.0111876,0.0887849,0.153188,0,-0.0531802,-0.019251,4.7,1.096,0.951,-0.18,0.378,-0.184,-6.566,31.612,-0.763,-3.899,-0.724226,-0.060587
18:56:24:180855,-0.00237365,-0.577303,1.19733,-0.00010472,1.34776,-0.00350811,-0.0118333,0.0900066,0.153467,0,-0.0619766,-0.0160396,4.878,1.198,1.092,-0.189,0.394,-0.189,-5.299,32.564,0.315,-3.941,-0.741134,-0.002818
18:56:24:185980,-0.00242601,-0.576831,1.19813,-0.00010472,1.34732,-0.00356047,-0.0119206,0.0911236,0.157882,0,-0.0787144,-0.0122871,4.878,1.274,1.137,-0.197,0.404,-0.197,-10.486,32.361,0.217,-3.479,-0.624187,-0.045088
18:56:24:190966,-0.00249582,-0.57636,1.19899,-0.00010472,1.34684,-0.00361283,-0.0127409,0.0933577,0.163049,0,-0.0893434,-0.0110479,4.704,1.289,1.024,-0.202,0.397,-0.2,-5.173,32.921,0.469,-2.87,-0.18317,0.039452
18:56:24:196105,-0.00254818,-0.575836,1.19988,-0.00010472,1.34645,-0.00363028,-0.011589,0.100374,0.171444,0,-0.0797441,-0.0076969,4.352,1.326,0.779,-0.212,0.372,-0.202,-4.795,32.536,0.028,-3.437,-0.319843,-0.067632
18:56:24:201104,-0.00260054,-0.575278,1.20079,-0.00010472,1.34622,-0.00366519,-0.00963422,0.107617,0.174865,0,-0.0589049,-0.00637045,4.18,1.403,0.703,-0.224,0.357,-0.202,-2.177,32.109,0.875,-3.626,-0.607279,-0.005636
18:56:24:206090,-0.00263545,-0.574685,1.20169,-0.00010472,1.34596,-0.00368264,-0.00747001,0.112678,0.178338,0,-0.0552746,-0.00352557,4.159,1.604,0.835,-0.246,0.352,-0.203,-1.624,32.27,0.497,-3.661,-0.679138,0.102857
18:56:24:211213,-0.0026529,-0.574109,1.20264,-0.00010472,1.34563,-0.00368264,-0.00623083,0.113481,0.183486,0,-0.0616101,-0.00223402,4.43,1.794,1.117,-0.265,0.371,-0.206,-5.915,32.522,0.266,-2.926,-0.783404,0.026771
18:56:24:216337,-0.0026529,-0.573533,1.20365,-0.00010472,1.34523,-0.0037001,-0.00312414,0.113726,0.1934,0,-0.0716807,0,4.69,1.836,1.259,-0.27,0.39,-0.21,-6.496,32.809,0.028,-3.108,-0.741134,-0.015499
18:56:24:221282,-0.0026529,-0.572957,1.20466,-0.00010472,1.34481,-0.0037001,0,0.113411,0.197309,0,-0.0791681,0,4.973,1.734,1.291,-0.265,0.412,-0.216,-4.452,32.914,1.12,-3.367,-0.748179,0.025362
18:56:24:226337,-0.0026529,-0.572381,1.20569,-0.00010472,1.34434,-0.00368264,0,0.115454,0.200224,0,-0.087249,0,5.007,1.59,1.179,-0.256,0.415,-0.22,-4.886,33.145,-1.204,-3.129,-0.73268,0.188806
18:56:24:231462,-0.0026529,-0.571735,1.20674,-0.00010472,1.34378,-0.00368264,0,0.124145,0.20347,0,-0.103358,0,4.975,1.357,0.839,-0.244,0.412,-0.222,-3.262,32.354,-1.246,-3.479,-0.425518,0.1409
18:56:24:236460,-0.0026529,-0.571019,1.2078,-0.00010472,1.34326,-0.00368264,0,0.132313,0.211324,0,-0.104563,0,5.102,1.222,0.586,-0.237,0.416,-0.221,-3.262,31.311,0.091,-3.661,-0.350841,0.200078
18:56:24:241586,-0.0026529,-0.570339,1.20888,-0.00010472,1.34293,-0.00364774,0,0.133727,0.213314,0,-0.0776671,0.00413643,5.665,1.017,0.394,-0.228,0.445,-0.222,-2.079,32.2,0.021,-2.744,-0.562191,0.18317
18:56:24:246586,-0.0026529,-0.569675,1.20998,-0.00010472,1.3427,-0.00361283,0,0.133954,0.216787,0,-0.0590619,0.00677188,6.126,0.852,0.422,-0.221,0.474,-0.226,-1.288,32.032,-0.812,-3.22,-0.846809,0.280391
18:56:24:251586,-0.0026529,-0.569012,1.2111,-0.00010472,1.34237,-0.00356047,0,0.130551,0.219667,0,-0.0635474,0.00905826,6.526,0.607,0.464,-0.21,0.506,-0.235,-0.868,32.235,0.091,-3.276,-0.994754,0.346614
18:56:24:256711,-0.00263545,-0.568366,1.21229,-0.00010472,1.34191,-0.00347321,0.00219911,0.129416,0.227102,0,-0.0818559,0.0129503,6.54,0.518,0.359,-0.207,0.511,-0.24,-1.218,35.532,1.225,-3.605,-0.921486,0.369158
18:56:24:261705,-0.00261799,-0.567651,1.21346,-0.00010472,1.3413,-0.00338594,0.00256563,0.135612,0.229825,0,-0.104388,0.0154811,6.444,0.53,0.09,-0.213,0.505,-0.242,0,33.215,0.357,-3.57,-0.683365,0.393111
18:56:24:266710,-0.00260054,-0.566918,1.21466,-0.00010472,1.34062,-0.00329867,0.00336849,0.142366,0.236422,0,-0.125576,0.0174707,6.449,0.554,-0.008,-0.218,0.501,-0.242,0.259,33.194,0.721,-3.29,-0.381839,0.266301
18:56:24:271838,-0.00256563,-0.566185,1.21595,-0.00010472,1.33999,-0.0031765,0.00511381,0.145054,0.249163,0,-0.122749,0.0202807,6.588,0.462,0.012,-0.218,0.502,-0.244,0.805,34.062,0.735,-3.493,-0.173307,0.302935
18:56:24:276960,-0.00251327,-0.565434,1.21726,-0.00010472,1.33961,-0.00305433,0.00830777,0.146171,0.253596,0,-0.0938464,0.0232652,6.751,0.322,0.021,-0.211,0.509,-0.247,1.232,33.411,-0.553,-3.367,-0.543874,0.243757
18:56:24:281782,-0.00246091,-0.564701,1.21859,-0.00010472,1.33933,-0.00289725,0.0103498,0.14762,0.258763,0,-0.0692372,0.0283441,7.146,0.147,-0.083,-0.202,0.533,-0.252,1.435,34.797,-0.854,-3.976,-0.66223,0.321252
18:56:24:287099,-0.0023911,-0.563898,1.21995,-0.00010472,1.33895,-0.00272271,0.0117984,0.153624,0.26433,0,-0.0743336,0.0320617,7.47,0.105,-0.156,-0.202,0.556,-0.256,1.603,35.28,0.735,-3.752,-0.953893,0.256438
18:56:24:292089,-0.00230383,-0.563043,1.22129,-0.00010472,1.33835,-0.00256563,0.0142593,0.162717,0.264609,0,-0.103254,0.0328645,7.741,0.098,-0.126,-0.205,0.578,-0.263,2.359,34.713,0.693,-3.332,-0.886261,0.198669
18:56:24:297042,-0.00221657,-0.562188,1.22267,-0.00010472,1.33752,-0.00237365,0.015708,0.167674,0.270072,0,-0.140778,0.0342957,7.608,0.088,-0.042,-0.207,0.573,-0.267,2.373,34.769,1.61,-3.591,-0.410019,0
18:56:24:302160,-0.0021293,-0.561315,1.22412,-0.00010472,1.33673,-0.00218166,0.0172788,0.170135,0.27763,0,-0.148545,0.0362505,7.039,0.102,0.042,-0.214,0.539,-0.27,3.08,32.116,2.03,-3.458,-0.142309,0.131037
18:56:24:307212,-0.00202458,-0.560425,1.22555,-0.00010472,1.33626,-0.00200713,0.0185703,0.174079,0.284209,0,-0.111282,0.0372104,6.577,0.236,0.027,-0.232,0.506,-0.271,2.555,33.138,0.686,-3.241,-0.660821,0.038043
18:56:24:312333,-0.00191986,-0.559465,1.22705,-0.00010472,1.33601,-0.00185005,0.0207694,0.1823,0.291365,0,-0.074351,0.0323759,6.583,0.384,-0.012,-0.247,0.502,-0.27,3.276,32.361,1.267,-3.955,-1.05957,0.035225
18:56:24:317297,-0.00179769,-0.558488,1.22857,-0.00010472,1.33561,-0.00171042,0.023178,0.191009,0.295659,0,-0.0817512,0.0290597,7.052,0.605,-0.087,-0.264,0.524,-0.272,3.402,32.809,2.1,-3.458,-1.23147,0.087358
18:56:24:322452,-0.00167552,-0.557493,1.23007,-0.00010472,1.33488,-0.00158825,0.0243473,0.193348,0.300947,0,-0.120044,0.0265814,7.447,0.716,-0.125,-0.271,0.546,-0.274,3.549,32.004,1.624,-3.787,-0.800312,0.377612
18:56:24:327473,-0.00153589,-0.556516,1.23166,-0.00010472,1.33387,-0.00144862,0.0246964,0.191567,0.306497,0,-0.170972,0.0273319,7.618,0.846,-0.116,-0.279,0.558,-0.278,4.515,30.94,1.232,-3.514,-0.185988,0.142309
18:56:24:332525,-0.00141372,-0.555556,1.23325,-0.00010472,1.33307,-0.001309,0.0254818,0.192353,0.31203,0,-0.159628,0.0280823,7.257,0.971,-0.066,-0.289,0.538,-0.28,5.033,32.081,1.099,-3.276,-0.163444,0.328297
18:56:24:337582,-0.00125664,-0.554596,1.23487,-0.00010472,1.33272,-0.00115192,0.028222,0.191567,0.318365,0,-0.100897,0.0275762,6.27,1.355,0.015,-0.321,0.477,-0.28,5.047,32.634,1.274,-4.046,-0.711545,0.350841
18:56:24:342706,-0.0010821,-0.553601,1.23655,-0.00010472,1.33237,-0.00101229,0.0333881,0.193732,0.323951,0,-0.0839329,0.0299324,5.78,1.759,0.059,-0.353,0.443,-0.279,4.949,33.229,1.533,-3.332,-1.05675,0.373385
18:56:24:347703,-0.000855211,-0.552606,1.23819,-0.00010472,1.3317,-0.000855211,0.04112,0.195983,0.325574,0,-0.117007,0.0298102,5.933,2.388,0.147,-0.403,0.446,-0.277,4.438,32.62,1.407,-4.088,-0.828492,0.428336
18:56:24:352657,-0.000593412,-0.551559,1.23986,-0.00010472,1.33066,-0.000680678,0.0473159,0.203401,0.328122,0,-0.172264,0.0317126,6.528,2.638,0.225,-0.423,0.483,-0.279,3.787,32.592,2.702,-4.179,-0.321252,0.52133
18:56:24:357783,-0.000314159,-0.550494,1.24154,-0.00010472,1.32982,-0.000488692,0.0520457,0.206246,0.331525,0,-0.165876,0.0369835,7.261,2.653,0.307,-0.422,0.535,-0.287,3.255,33.628,1.183,-3.794,-0.287436,0.557964
18:56:24:362842,-3.49066e-05,-0.549482,1.24327,-0.00010472,1.32943,-0.000261799,0.0545939,0.204605,0.336814,0,-0.109572,0.0414167,7.181,2.594,0.303,-0.415,0.535,-0.293,2.891,32.662,1.848,-3.808,-0.729862,0.80313
18:56:24:367958,0.00020944,-0.54847,1.24498,-0.00010472,1.32909,3.49066e-05,0.0530406,0.200887,0.340863,0,-0.0866381,0.0535118,6.342,2.837,0.209,-0.431,0.482,-0.294,3.654,34.846,1.162,-4.032,-1.1737,0.66223
18:56:24:372958,0.000453786,-0.54744,1.24676,-0.00010472,1.32841,0.000436332,0.0495848,0.203697,0.344947,0,-0.117565,0.0694816,5.836,3.28,0.111,-0.464,0.448,-0.291,4.263,34.286,1.862,-3.843,-0.91585,0.340978
18:56:24:378085,0.000680678,-0.546375,1.2485,-0.00010472,1.32739,0.000925025,0.0460767,0.207171,0.348019,0,-0.169925,0.0870047,5.823,3.942,-0.009,-0.516,0.446,-0.285,6.426,33.257,1.309,-3.829,-0.369158,0.09863
18:56:24:383209,0.000907571,-0.545311,1.2503,-0.00010472,1.32652,0.00137881,0.0446804,0.211028,0.351474,0,-0.166504,0.0882613,6.266,3.997,0.041,-0.526,0.482,-0.288,6.832,34.244,1.498,-4.529,-0.318434,-0.008454
18:56:24:388222,0.00115192,-0.544211,1.25212,-0.00010472,1.32603,0.00171042,0.0485202,0.215618,0.356152,0,-0.121667,0.0744907,6.274,3.747,0.189,-0.51,0.487,-0.293,7.945,33.04,0.91,-4.452,-0.629823,-0.01409
