srisadhan/powerball/bin/HRI_project/2021/Collision_admittance/Admittance_highDamping_Gross_collision.csv
TimeStamp , Q1, Q2, Q3, Q4, Q5, Q6, dQ1, dQ2, dQ3, dQ4, dQ5, dQ6, Fx, Fy, Fz, Mx, My, Mz, Joint1_torque, Joint2_torque, Joint3_torque, Joint4_torque, Joint5_torque, Joint6_torque 
18:51:51:68428,0,-0.581928,1.18749,0,1.35184,-3.49066e-05,0,-0.00237365,0,0,0,0,0,0,0,0,0,0,3.367,14.546,-15.288,-4.515,0.218395,0.448062
18:51:51:73441,0,-0.581945,1.18749,0,1.35184,-1.74533e-05,0,-0.00162316,0,0,0,0,0,0,0,0,0,0,3.682,15.708,-14.896,-4.291,0.100039,0.418473
18:51:51:78421,0,-0.581945,1.18749,0,1.35184,-1.74533e-05,0,0,0,0,0,0,0,0,0,0,0,0,3.549,13.979,-15.372,-4.095,0.121174,0.504422
18:51:51:83566,0,-0.581945,1.18749,0,1.35184,-1.74533e-05,0,0,0,0,0,0,0,0,0,0,0,0,3.626,14.07,-15.512,-4.095,0.088767,0.441017
18:51:51:88513,0,-0.581945,1.18749,0,1.35184,-1.74533e-05,0,0,0,0,0,0,0,0,0,0,0,0,3.955,13.846,-15.526,-4.109,0.147945,0.418473
18:51:51:93685,0,-0.581945,1.18749,0,1.35184,-1.74533e-05,0,0,0,0,0,0,0,0,0,0,0,0,3.717,14.896,-14.987,-4.83,0.162035,0.494559
18:51:51:98619,0,-0.581945,1.18749,0,1.35184,-1.74533e-05,0,0,0,0,0,0,0,0,0,0,0,0,3.15,13.713,-15.148,-4.641,0.121174,0.476242
18:51:51:103810,0,-0.581945,1.18749,0,1.35184,-1.74533e-05,0,0,0,0,0,0,0,0,0,0,0,0,3.717,14.56,-14.917,-3.997,0.136673,0.517103
18:51:51:108820,0,-0.581945,1.18749,0,1.35184,-1.74533e-05,0,0,0,0,0,0,0,0,0,0,0,0,3.934,15.624,-15.218,-3.773,0.149354,0.359295
18:51:51:113757,0,-0.581945,1.18749,0,1.35184,-1.74533e-05,0,0,0,0,0,0,0,0,0,0,0,0,3.038,14.665,-15.218,-4.186,0.046497,0.459334
18:51:51:118945,0,-0.581945,1.18749,0,1.35184,-1.74533e-05,0,0,0,0,0,0,0,0,0,0,0,0,3.262,14.028,-15.68,-4.676,0.16908,0.412837
18:51:51:123936,0,-0.581945,1.18749,0,1.35184,-1.74533e-05,0,0,0,0,0,0,0,0,0,0,0,0,3.906,14.959,-15.33,-3.997,0.039452,0.449471
18:51:51:129060,0,-0.581945,1.18749,0,1.35184,-1.74533e-05,0,0,0,0,0,0,0,0,0,0,0,0,3.332,14.721,-14.609,-4.291,0.191624,0.426927
18:51:51:133992,0,-0.581945,1.18749,0,1.35184,-1.74533e-05,0,0,0,0,0,0,0,0,0,0,0,0,4.326,14.721,-15.393,-4.627,0.045088,0.467788
18:51:51:139185,0,-0.581945,1.18749,0,1.35184,-1.74533e-05,0,0,0,0,0,0,0,0,0,0,0,0,4.151,14.574,-15.232,-4.088,0.059178,0.395929
18:51:51:144186,0,-0.581945,1.18749,0,1.35184,-1.74533e-05,0,0,0,0,0,0,0,0,0,0,0,0,2.73,14.721,-15.372,-4.515,0.128219,0.364931
18:51:51:149309,0,-0.581945,1.18749,0,1.35184,-1.74533e-05,0,0,0,0,0,0,0,0,0,0,0,0,3.619,14.497,-15.071,-4.2,-0.052133,0.457925
18:51:51:154307,0,-0.581945,1.18749,0,1.35184,-1.74533e-05,0,0,0,0,0,0,0,0,0,0,0,0,4.683,14.525,-14.98,-4.515,0.08454,0.476242
18:51:51:159418,0,-0.581945,1.18749,0,1.35184,-1.74533e-05,0,0,0,0,0,0,0,0,0,0,0,0,3.332,14.098,-15.015,-4.41,-0.073268,0.494559
18:51:51:164366,0,-0.581945,1.18749,0,1.35184,-1.74533e-05,0,0,0,0,0,0,0,0,0,0,0,0,3.57,13.874,-15.106,-3.892,0.228258,0.370567
18:51:51:169576,0,-0.581945,1.18749,0,1.35184,-1.74533e-05,0,0,0,0,0,0,0,0,0,0,0,0,3.843,15.12,-15.099,-4.403,0.195851,0.364931
18:51:51:174543,0,-0.581963,1.18749,0,1.35184,-1.74533e-05,0,0,0,0,0,0,0,0,0,0,0,0,3.038,15.694,-15.547,-4.403,0.143718,0.449471
18:51:51:179685,0,-0.581963,1.18749,0,1.35184,-1.74533e-05,0,0,0,0,0,0,0,0,0,0,0,0,3.297,13.874,-15.505,-4.137,0.133855,0.395929
18:51:51:184692,0,-0.581963,1.18749,0,1.35184,-1.74533e-05,0,0,0,0,0,0,0,0,0,0,0,0,3.276,14.763,-15.148,-4.074,0.173307,0.40861
18:51:51:189809,0,-0.581963,1.18749,0,1.35184,-1.74533e-05,0,0,0,0,0,0,0,0,0,0,0,0,3.64,15.575,-15.218,-4.004,0.109902,0.498786
18:51:51:194794,0,-0.581963,1.18749,0,1.35184,-1.74533e-05,0,0,0,0,0,0,0,0,0,0,0,0,3.899,15.267,-15.26,-4.102,0.166262,0.494559
18:51:51:199805,0,-0.581963,1.18749,0,1.35184,-1.74533e-05,0,0,0,0,0,0,0,0,0,0,0,0,3.787,14.567,-16.086,-4.515,0.050724,0.449471
18:51:51:204916,0,-0.581963,1.18749,0,1.35184,-1.74533e-05,0,0,0,0,0,0,0,0,0,0,0,0,3.661,14.224,-15.106,-4.193,0.109902,0.445244
18:51:51:209913,0,-0.581963,1.18749,0,1.35184,-1.74533e-05,0,0,0,0,0,0,0,0,0,0,0,0,3.626,13.986,-14.427,-4.2,0.07045,0.441017
18:51:51:215046,0,-0.581963,1.18749,0,1.35184,-1.74533e-05,0,0,0,0,0,0,0,0,0,0,0,0,4.004,14.336,-15.071,-4.004,0.166262,0.400156
18:51:51:220041,0,-0.581963,1.18749,0,1.35184,0,0,0,0,0,0,0,0,0,0,0,0,0,3.843,13.636,-14.672,-4.62,0.036634,0.400156
18:51:51:225162,0,-0.581963,1.18749,0,1.35184,0,0,0,0,0,0,0,0,0,0,0,0,0,2.87,14.301,-15.568,-3.906,0.166262,0.40861
18:51:51:230164,0,-0.581963,1.18749,0,1.35184,0,0,0,0,0,0,0,0,0,0,0,0,0,3.682,14.14,-15.197,-4.718,0.198669,0.432563
18:51:51:235285,0,-0.581963,1.18749,0,1.35184,0,0,0,0,0,0,0,0,0,0,0,0,0,2.933,14.959,-15.344,-4.529,0.080313,0.397338
18:51:51:240284,0,-0.581963,1.18749,0,1.35184,0,0,0,0,0,0,0,0,0,0,0,0,0,2.359,15.071,-15.435,-4.207,0.011272,0.346614
18:51:51:245234,0,-0.581963,1.18749,0,1.35184,0,0,0,0,0,0,0,0,0,0,0,0,0,4.228,14.532,-15.89,-4.312,0.077495,0.524148
18:51:51:250411,0,-0.581963,1.18749,0,1.35184,0,0,0,0,0,0,0,0,0,0,0,0,0,5.012,14.917,-15.127,-4.214,0.115538,0.480469
18:51:51:255548,0,-0.581963,1.18749,0,1.35184,0,0,0,0,0,0,0,0,0,0,0,0,0,2.786,14.994,-15.071,-4.298,0.184579,0.443835
18:51:51:260506,0,-0.581963,1.18749,0,1.35184,0,0,0,0,0,0,0,0,0,0,0,0,0,2.779,14.14,-15.148,-4.718,0.074677,0.453698
18:51:51:265554,0,-0.581963,1.18749,-1.74533e-05,1.35184,0,0,0,0,0,0,0,0,0,0,0,0,0,3.388,14.763,-15.33,-4.711,0.143718,0.457925
18:51:51:270624,0,-0.581963,1.18749,-1.74533e-05,1.35184,0,0,0,0,0,0,0,0,0,0,0,0,0,3.99,15.225,-15.638,-3.997,0.128219,0.445244
18:51:51:275628,0,-0.581963,1.18749,-1.74533e-05,1.35184,0,0,0,0,0,0,0,0,0,0,0,0,0,3.808,14.952,-15.393,-3.682,0.076086,0.40861
18:51:51:280744,0,-0.581963,1.18749,-1.74533e-05,1.35184,0,0,0,0,0,0,0,0,0,0,0,0,0,3.829,14.028,-15.505,-3.479,0.131037,0.428336
18:51:51:285803,0,-0.581963,1.18749,-1.74533e-05,1.35184,0,0,0,0,0,0,0,0,0,0,0,0,0,4.046,14.14,-14.987,-4.2,0.109902,0.384657
18:51:51:290939,0,-0.581963,1.18749,-1.74533e-05,1.35184,0,0,0,0,0,0,0,0,0,0,0,0,0,4.508,14.567,-14.896,-4.2,0.053542,0.364931
18:51:51:295888,0,-0.581963,1.18749,-1.74533e-05,1.35184,0,0,0,0,0,0,0,0,0,0,0,0,0,4.9,14.49,-15.029,-4.095,0.162035,0.35225
18:51:51:301039,0,-0.581963,1.18749,-1.74533e-05,1.35184,0,0,0,0,0,0,0,0,0,0,0,0,0,3.472,15.379,-14.693,-4.102,0.136673,0.453698
18:51:51:306053,0,-0.581963,1.18749,-1.74533e-05,1.35184,0,0,0,0,0,0,0,0,0,0,0,0,0,3.297,14.532,-15.274,-4.2,0.15499,0.460743
18:51:51:311175,0,-0.581963,1.18749,-1.74533e-05,1.35184,0,0,0,0,0,0,0,0,0,0,0,0,0,4.144,14.567,-15.351,-4.305,0.087358,0.377612
18:51:51:316161,0,-0.581963,1.18749,-1.74533e-05,1.35184,0,0,0,0,0,0,0,0,0,0,0,0,0,3.955,14.259,-15.638,-4.102,0.157808,0.431154
18:51:51:321184,0,-0.581963,1.18749,-1.74533e-05,1.35184,0,0,0,0,0,0,0,0.024,-0.049,0.016,0,0,0,3.108,15.113,-15.526,-4.095,0.273346,0.395929
18:51:51:326237,0,-0.581963,1.18749,-1.74533e-05,1.35184,0,0,0,0,0,0,0,-0.056,-0.032,0.001,0,0,0,3.094,14.455,-14.959,-4.2,0.102857,0.473424
18:51:51:331258,0,-0.581963,1.18749,-1.74533e-05,1.35184,0,0,0,0,0,0,0,-0.096,0.007,-0.036,0,0,0,4.487,14.609,-15.26,-4.207,0.074677,0.467788
18:51:51:336422,0,-0.581963,1.18749,-1.74533e-05,1.35184,0,0,0,0,0,0,0,-0.032,0.027,-0.025,0,0,0.001,3.78,14.455,-15.372,-4.508,-0.001409,0.345205
18:51:51:341431,0,-0.581963,1.18749,-1.74533e-05,1.35184,0,0,0,0,0,0,0,0.027,0.019,0.014,0,0,0.001,3.654,14.875,-15.722,-4.095,0.108493,0.356477
18:51:51:346535,0,-0.581963,1.18749,-1.74533e-05,1.35184,0,0,0,0,0,0,0,0.088,-0.016,0.084,0,0,0,3.031,13.713,-15.19,-4.305,0.069041,0.455107
18:51:51:351552,0,-0.581963,1.18749,-1.74533e-05,1.35184,0,0,0,0,0,0,0,0.1,-0.044,0.134,0,0,0,2.954,14.105,-15.008,-3.997,0.050724,0.374794
18:51:51:356693,0,-0.581963,1.18749,-1.74533e-05,1.35184,0,0,0,0,0,0,0,0.086,-0.066,0.215,0,0,0,2.968,14.259,-14.917,-3.689,0.069041,0.321252
18:51:51:361669,0,-0.581963,1.18749,-1.74533e-05,1.35184,0,0,0,0,0,0,0,0.07,-0.061,0.235,0,0,0,5.775,14.567,-15.169,-3.689,0.047906,0.467788
18:51:51:366786,0,-0.581963,1.18749,-1.74533e-05,1.35184,0,0,0,0,0,0,0,0.061,-0.036,0.14,0,0,0,2.604,15.036,-15.253,-4.095,0.209941,0.393111
18:51:51:371750,0,-0.581963,1.18749,-1.74533e-05,1.35184,0,0,0,0,0,0,0,0.068,-0.019,0.013,0,0,0,4.711,13.874,-15.533,-4.816,0.312798,0.390293
18:51:51:376926,0,-0.581963,1.18749,-1.74533e-05,1.35184,0,0,0,0,0,0,0,0.067,-0.013,-0.102,0,0,0.001,3.654,14.609,-15.393,-4.305,0.074677,0.470606
18:51:51:381856,0,-0.581963,1.18749,-1.74533e-05,1.35184,0,0,0,0,0,0,0,0.039,-0.021,-0.052,0,0,0.001,3.934,14.49,-15.218,-3.997,0.076086,0.428336
18:51:51:387034,0,-0.581963,1.18749,-1.74533e-05,1.35184,0,0,0,0,0,0,0,-0.028,-0.04,0.158,-0.001,0,0,3.402,14.763,-15.953,-4.095,-0.019726,0.387475
18:51:51:392053,0,-0.581963,1.18749,-1.74533e-05,1.35184,0,0,0,0,0,0,0,-0.063,-0.052,0.286,-0.001,0,-0.001,3.605,13.755,-15.617,-4.711,0.18317,0.473424
18:51:51:397180,0,-0.581963,1.18749,-1.74533e-05,1.35184,0,0,0,0,0,0,0,-0.069,-0.068,0.348,0,0,-0.002,3.514,13.909,-15.26,-4.613,0.107084,0.369158
18:51:51:402149,0,-0.581963,1.18749,-1.74533e-05,1.35184,0,0,0,0,0,0,0,-0.051,-0.075,0.315,0,0,-0.002,3.402,15.232,-15.12,-3.997,0.115538,0.425518
18:51:51:407310,0,-0.581963,1.18749,-1.74533e-05,1.35184,0,0,0,0,0,0,0,-0.017,-0.076,0.217,0,0,-0.001,3.843,14.924,-15.302,-3.689,0.162035,0.418473
18:51:51:412286,0,-0.581963,1.18749,-1.74533e-05,1.35184,0,0,0,0,0,0,0,0.014,-0.057,0.085,0,0,0,3.486,14.686,-15.19,-4.095,0.125401,0.36634
18:51:51:417247,0,-0.581963,1.18749,-1.74533e-05,1.35184,0,0,0,0,0,0,0,0.036,-0.034,0.001,0,0,0,3.423,14.686,-15.729,-4.095,0.061996,0.425518
18:51:51:422425,0,-0.581963,1.18749,-1.74533e-05,1.35184,0,0,0,0,0,0,0,0.057,-0.005,-0.054,0,0,0.001,4.298,14.448,-15.106,-4.508,0,0.455107
18:51:51:427355,0,-0.581963,1.18749,-1.74533e-05,1.35184,0,0,0,0,0,0,0,0.055,0.001,-0.036,0,0,0.001,3.528,15.183,-15.33,-3.892,0.054951,0.418473
18:51:51:432556,0,-0.581963,1.18749,-1.74533e-05,1.35184,0,0,0,0,0,0,0,0.034,-0.009,0.005,0,0,0.001,3.234,14.917,-15.274,-4.508,0.121174,0.529784
18:51:51:437561,0,-0.581963,1.18749,-1.74533e-05,1.35184,0,0,0,0,0,0,0,0.025,-0.021,0.005,0,0,0.001,4.137,13.916,-15.211,-4.2,0.043679,0.39452
18:51:51:442674,0,-0.581963,1.18749,-1.74533e-05,1.35184,0,0,0,0,0,0,0,0.038,-0.021,-0.024,0,0,0,3.248,14.301,-15.463,-4.613,0.174716,0.480469
18:51:51:447653,0,-0.581963,1.18749,-1.74533e-05,1.35184,0,0,0,0,0,0,0,0.059,-0.006,-0.035,0,0,0,3.829,13.993,-14.805,-4.305,0.143718,0.401565
18:51:51:452798,0,-0.581963,1.18749,-1.74533e-05,1.35184,0,0,0,0,0,0,0,0.089,0.016,-0.011,0,0,0,3.437,14.105,-16.065,-4.508,0.136673,0.452289
18:51:51:457779,0,-0.581963,1.18749,-1.74533e-05,1.35184,0,0,0,0,0,0,0,0.098,0.013,0.027,-0.001,0,0,3.108,14.231,-15.302,-3.486,0.111311,0.371976
18:51:51:462903,0,-0.581963,1.18749,-1.74533e-05,1.35184,0,0,0,0,0,0,0,0.09,-0.015,0.088,-0.001,0,0,3.5,14.413,-14.721,-4.095,0.173307,0.490332
18:51:51:467931,0,-0.581963,1.18749,-1.74533e-05,1.35184,0,0,0,0,0,0,0,0.072,-0.028,0.095,0,0,0,3.598,14.574,-15.12,-4.102,0.147945,0.345205
18:51:51:473036,0,-0.581963,1.18749,-1.74533e-05,1.35184,0,0,0,0,0,0,0,0.039,-0.01,0.036,0,0,0.001,3.297,14.147,-14.959,-3.794,0.294481,0.442426
18:51:51:478001,0,-0.581963,1.18749,-1.74533e-05,1.35184,0,0,0,0,0,0,0,0.024,0.018,-0.006,0,0,0.001,3.22,14.497,-15.26,-4.305,0.162035,0.463561
18:51:51:483176,0,-0.581963,1.18749,-1.74533e-05,1.35184,0,0,0,0,0,0,0,0.031,0.039,0.021,0,0,0,3.206,14.294,-15.393,-4.403,0.198669,0.325479
18:51:51:488171,0,-0.581963,1.18749,-1.74533e-05,1.35184,0,0,0,0,0,0,0,0.053,0.023,0.099,0,0,0,3.955,14.532,-15.547,-4.718,0.162035,0.410019
18:51:51:493174,0,-0.581963,1.18749,-1.74533e-05,1.35184,0,0,0,0,0,0,0,0.087,-0.03,0.212,0,0,0,3.073,14.497,-15.127,-3.99,0.047906,0.39452
18:51:51:498285,0,-0.581963,1.18749,-1.74533e-05,1.35184,0,0,0,0,0,0,0,0.092,-0.082,0.251,-0.001,0,-0.001,3.745,14.301,-14.539,-4.2,0.214168,0.457925
18:51:51:503279,0,-0.581963,1.18749,-1.74533e-05,1.35184,0,0,0,0,0,0,0,0.08,-0.095,0.251,0,0,0,3.591,14.721,-15.638,-3.689,0.176125,0.383248
18:51:51:508443,0,-0.581963,1.18749,-1.74533e-05,1.35184,0,0,0,0,0,0,0,0.062,-0.071,0.249,0,0,0,3.717,13.874,-15.344,-3.696,0.018317,0.359295
18:51:51:513434,0,-0.581963,1.18749,-1.74533e-05,1.35184,0,0,0,0,0,0,0,0.056,-0.039,0.256,0,0,0,3.878,15.267,-15.246,-3.997,0.080313,0.463561
18:51:51:518487,0,-0.581963,1.18749,-1.74533e-05,1.35184,0,0,0,0,0,0,0,0.053,-0.003,0.28,0,-0.001,-0.001,3.402,15.344,-15.302,-3.99,0.143718,0.412837
18:51:51:523529,0,-0.581963,1.18749,-1.74533e-05,1.35184,0,0,0,0,0,0,0,0.053,0.002,0.287,0,-0.001,-0.001,3.472,14.217,-15.26,-4.305,0.170489,0.400156
18:51:51:528670,0,-0.581963,1.18749,-1.74533e-05,1.35186,0,0,0,0,0,0,0,0.066,0.004,0.243,-0.001,-0.001,-0.001,3.815,14.455,-15.344,-3.584,0.090176,0.432563
18:51:51:533667,0,-0.581963,1.18749,-1.74533e-05,1.35186,0,0,0,0,0,0,0,0.083,0.012,0.176,0,0,-0.001,3.675,14.49,-14.938,-4.102,0.100039,0.480469
18:51:51:538794,0,-0.581963,1.18749,-1.74533e-05,1.35186,0,0,0,0,0,0,0,0.09,0.024,0.067,0,0,0,3.626,14.679,-16.114,-3.892,0.191624,0.425518
18:51:51:543807,0,-0.581963,1.18749,-1.74533e-05,1.35186,0,0,0,0,0,0,0,0.065,0.024,0.008,0,0,0,2.933,13.804,-15.33,-4.298,0.119765,0.407201
18:51:51:548918,0,-0.581963,1.18749,-1.74533e-05,1.35186,0,0,0,0,0,0,0,-0.007,0.019,-0.057,0,0,0,3.577,14.266,-15.211,-4.305,0.061996,0.329706
18:51:51:553864,0,-0.581963,1.18749,-1.74533e-05,1.35186,0,0,0,0,0,0,0,-0.047,0.016,-0.071,0,0,0,3.563,14.602,-14.833,-4.102,0.071859,0.39452
18:51:51:559027,0,-0.581963,1.18749,-1.74533e-05,1.35186,0,0,0,0,0,0,0,-0.053,-0.002,0.024,0,0,-0.001,3.731,14.728,-15.638,-3.689,0.19726,0.329706
18:51:51:563973,0,-0.581963,1.18749,-1.74533e-05,1.35186,0,0,0,0,0,0,0,-0.026,-0.031,0.162,-0.001,0,-0.001,4.032,14.644,-14.987,-4.613,0.081722,0.390293
18:51:51:569169,0,-0.581963,1.18749,-1.74533e-05,1.35186,0,0,0,0,0,0,0,0.023,-0.074,0.336,-0.001,0,-0.001,3.416,14.301,-15.708,-4.2,0.128219,0.357886
18:51:51:574175,0,-0.581963,1.18749,-1.74533e-05,1.35186,0,0,0,0,0,0,0,0.049,-0.079,0.345,0,0,-0.001,3.605,14.763,-14.959,-3.591,0.049315,0.349432
18:51:51:579275,0,-0.581963,1.18749,-1.74533e-05,1.35186,0,0,0,0,0,0,0,0.079,-0.045,0.218,0,-0.001,0,4.004,14.532,-15.281,-3.486,0.118356,0.528375
18:51:51:584272,0,-0.581963,1.18749,-1.74533e-05,1.35186,0,0,0,0,0,0,0,0.102,-0.01,0.125,0,-0.001,0,3.829,14.063,-15.029,-4.41,0.159217,0.377612
18:51:51:589434,0,-0.581963,1.18749,-1.74533e-05,1.35186,0,0,0,0,0,0,0,0.103,-0.01,0.162,0,-0.001,0,3.605,14.728,-15.372,-4.004,0.138082,0.377612
18:51:51:594418,0,-0.581963,1.18749,-1.74533e-05,1.35186,0,0,0,0,0,0,0,0.079,-0.038,0.309,0,0,-0.001,3.199,15.148,-15.372,-3.997,0.135264,0.386066
18:51:51:599380,0,-0.581963,1.18749,-1.74533e-05,1.35186,0,0,0,0,0,0,0,0.058,-0.055,0.366,0,0,-0.002,3.577,14.147,-15.617,-3.696,0.011272,0.435381
18:51:51:604543,0,-0.581963,1.18749,-1.74533e-05,1.35186,0,0,0,0,0,0,0,0.041,-0.051,0.269,0,0,-0.001,3.955,15.001,-15.099,-3.787,0.131037,0.431154
18:51:51:609525,0,-0.581963,1.18749,-1.74533e-05,1.35186,0,0,0,0,0,0,0,0.038,-0.027,0.11,0,0,0,3.059,14.721,-15.281,-4.095,0.087358,0.374794
18:51:51:614651,0,-0.581963,1.18749,-3.49066e-05,1.35186,0,0,0,0,0,0,0,0.018,0.006,-0.074,0,0,0,3.01,14.532,-15.26,-3.899,0.094403,0.410019
18:51:51:619629,0,-0.581963,1.18749,-3.49066e-05,1.35186,0,0,0,0,0,0,0,-0.004,0.009,-0.064,0,0.001,0,3.374,14.259,-15.666,-4.403,-0.043679,0.398747
18:51:51:624779,0,-0.581963,1.18749,-3.49066e-05,1.35186,0,0,0,0,0,0,0,-0.014,-0.013,0.108,-0.001,0,-0.001,4.081,14.728,-15.26,-3.99,0.061996,0.317025
18:51:51:629798,0,-0.581963,1.18749,-3.49066e-05,1.35186,0,0,0,0,0,0,0,0.012,-0.022,0.204,-0.001,0,-0.001,3.997,14.875,-14.959,-4.004,0.100039,0.508649
18:51:51:634924,0,-0.581963,1.18749,-3.49066e-05,1.35186,0,0,0,0,0,0,0,0.074,0.003,0.181,-0.001,0,0,3.045,14.875,-15.078,-4.193,0.1409,0.412837
18:51:51:639912,0,-0.581963,1.18749,-3.49066e-05,1.35186,0,0,0,0,0,0,0,0.091,0.035,0.094,0,0,0,3.528,14.063,-15.099,-4.095,-0.015499,0.421291
18:51:51:644860,0,-0.581963,1.18749,-3.49066e-05,1.35186,0,0,0,0,0,0,0,0.055,0.057,0.007,0,0,0,2.891,14.14,-15.554,-3.892,0.131037,0.400156
18:51:51:650039,0,-0.581963,1.18749,-3.49066e-05,1.35186,0,0,0,0,0,0,0,0.012,0.045,0.013,0,0,0,3.969,14.259,-15.078,-3.99,0.118356,0.371976
18:51:51:654967,0,-0.581963,1.18749,-3.49066e-05,1.35186,0,0,0,0,0,0,0,-0.017,0.013,0.073,0,0,0,3.157,14.609,-15.484,-4.2,0.184579,0.487514
18:51:51:660161,0,-0.581963,1.18749,-3.49066e-05,1.35186,0,0,0,0,0,0,0,-0.006,-0.002,0.115,0,0,0,3.528,14.728,-15.162,-4.004,0.128219,0.367749
18:51:51:665271,0,-0.581963,1.18749,-3.49066e-05,1.35186,0,0,0,0,0,0,0,0.025,-0.012,0.155,0,0,0,3.297,14.217,-14.875,-4.697,0.185988,0.456516
18:51:51:670270,0,-0.581963,1.18749,-3.49066e-05,1.35186,0,0,0,0,0,0,0,0.045,-0.024,0.156,0,0,0,3.752,14.994,-15.617,-4.298,0.008454,0.294481
18:51:51:675273,0,-0.581963,1.18749,-3.49066e-05,1.35186,0,0,0,0,0,0,0,0.053,-0.039,0.141,0,0,0,3.22,14.217,-15.799,-4.501,0.094403,0.405792
18:51:51:680396,0,-0.581963,1.18749,-3.49066e-05,1.35186,0,0,0,0,0,0,0,0.064,-0.064,0.117,0,0,0,3.528,14.301,-15.617,-4.102,0.046497,0.429745
18:51:51:685394,0,-0.581963,1.18749,-3.49066e-05,1.35186,0,0,0,0,0,0,0,0.064,-0.07,0.097,0,0,0,3.22,14.728,-15.596,-3.892,0.012681,0.400156
18:51:51:690532,0,-0.581963,1.18749,-3.49066e-05,1.35186,0,0,0,0,0,0,0,0.046,-0.046,0.013,0,0,0.001,3.465,14.686,-15.554,-4.305,0.064814,0.421291
18:51:51:695523,0,-0.581963,1.18749,-3.49066e-05,1.35186,0,0,0,0,0,0,0,0.035,-0.015,-0.076,0,0,0.001,4.375,15.218,-16.226,-3.906,0.129628,0.393111
18:51:51:700662,0,-0.581963,1.18749,-3.49066e-05,1.35186,0,0,0,0,0,0,0,0.039,0.014,-0.176,0,0,0.001,3.731,14.49,-15.029,-4.193,0.118356,0.348023
18:51:51:705612,0,-0.581963,1.18749,-3.49066e-05,1.35186,0,0,0,0,0,0,0,0.047,0.011,-0.162,0,0,0.001,3.437,14.84,-15.645,-3.899,0.046497,0.286027
18:51:51:710772,0,-0.581963,1.18749,-3.49066e-05,1.35186,0,0,0,0,0,0,0,0.039,-0.014,-0.021,0,0,0,4.032,14.84,-14.714,-4.088,0.184579,0.387475
18:51:51:715736,0,-0.581963,1.18749,-3.49066e-05,1.35186,0,0,0,0,0,0,0,0.017,-0.028,0.095,0,0,0,3.122,14.49,-15.911,-3.794,0.156399,0.332524
18:51:51:720910,0,-0.581963,1.18749,-3.49066e-05,1.35186,0,0,0,0,0,0,0,-0.008,-0.029,0.202,0,0,0,3.36,13.951,-15.148,-4.501,0.033816,0.4227
18:51:51:725853,0,-0.581963,1.18749,-3.49066e-05,1.35186,0,0,0,0,0,0,0,-0.001,-0.015,0.202,0,0,0,3.829,14.028,-15.456,-4.221,0.131037,0.45088
18:51:51:731038,0,-0.581963,1.18749,-3.49066e-05,1.35186,0,0,0,0,0,0,0,0.042,0.017,0.117,0,0,0,3.325,15.386,-14.735,-4.305,0.049315,0.429745
18:51:51:735984,0,-0.581963,1.18749,-3.49066e-05,1.35186,0,0,0,0,0,0,0,0.069,0.04,0.053,0,0,0,3.689,14.686,-15.568,-4.298,0.150763,0.271937
18:51:51:740981,0,-0.581963,1.18749,-3.49066e-05,1.35186,0,0,0,0,0,0,0,0.078,0.056,0.037,0,0,0,3.423,14.028,-14.987,-3.892,0.092994,0.405792
18:51:51:746105,0,-0.581963,1.18749,-3.49066e-05,1.35186,0,0,0,0,0,0,0,0.065,0.052,0.086,0,0,0,3.78,13.489,-15.932,-4.088,0.150763,0.393111
18:51:51:751106,0,-0.581963,1.18749,-3.49066e-05,1.35186,0,0,0,0,0,0,0,0.041,0.025,0.167,0,0,0,3.451,14.14,-15.239,-4.508,0.1409,0.391702
18:51:51:756267,0,-0.581963,1.18749,-3.49066e-05,1.35186,0,0,0,0,0,0,0,0.033,-0.015,0.157,0,0,0,4.123,14.644,-15.372,-4.718,0.143718,0.487514
18:51:51:761296,0,-0.581963,1.18749,-3.49066e-05,1.35186,0,0,0,0,0,0,0,0.039,-0.042,0.107,0,0,0,4.032,14.616,-15.778,-4.186,0.030998,0.297299
18:51:51:766410,0,-0.581963,1.18749,-3.49066e-05,1.35186,0,0,0,0,0,0,0,0.062,-0.056,0.053,0,0,0,3.311,13.573,-15.148,-4.004,0.115538,0.445244
18:51:51:771407,0,-0.581963,1.18749,-3.49066e-05,1.35186,0,0,0,0,0,0,0,0.08,-0.038,0.068,0,0,0,3.521,13.601,-15.015,-3.71,0.247984,0.487514
18:51:51:776338,0,-0.581963,1.18749,-3.49066e-05,1.35186,0,0,0,0,0,0,0,0.092,0.004,0.142,0,0,-0.001,3.262,14.455,-14.945,-4.2,0.128219,0.407201
18:51:51:781515,0,-0.581963,1.18749,-3.49066e-05,1.35186,0,0,0,0,0,0,0,0.086,0.018,0.183,0,0,-0.001,3.731,14.189,-14.938,-4.2,0.115538,0.387475
18:51:51:786522,0,-0.581963,1.18749,-3.49066e-05,1.35186,0,0,0,0,0,0,0,0.067,-0.001,0.197,0,0,0,3.199,15.148,-15.309,-4.207,0.138082,0.503013
18:51:51:791646,0,-0.581963,1.18749,-3.49066e-05,1.35186,0,0,0,0,0,0,0,0.056,-0.02,0.186,0,0,0,3.213,14.84,-16.184,-4.004,0.133855,0.35225
18:51:51:796658,0,-0.581963,1.18749,-3.49066e-05,1.35186,0,0,0,0,0,0,0,0.045,-0.018,0.159,0,0,0,3.486,15.498,-14.959,-3.899,0.046497,0.456516
18:51:51:801796,0,-0.581963,1.18749,-3.49066e-05,1.35186,0,0,0,0,0,0,0,0.047,0,0.133,0,0,0,3.283,14.406,-15.708,-4.004,0.277573,0.49315
18:51:51:806728,0,-0.581963,1.18749,-3.49066e-05,1.35186,0,0,0,0,0,0,0,0.062,0.006,0.109,0,-0.001,0,2.807,14.497,-15.463,-4.004,0.036634,0.425518
18:51:51:811908,0,-0.581963,1.18749,-3.49066e-05,1.35186,0,0,0,0,0,0,0,0.07,-0.017,0.132,0,-0.001,0,3.675,14.497,-15.008,-3.969,0.143718,0.38043
18:51:51:816838,0,-0.581963,1.18749,-3.49066e-05,1.35186,0,0,0,0,0,0,0,0.06,-0.065,0.199,0,-0.001,0,3.325,14.105,-15.162,-4.214,0.092994,0.402974
18:51:51:821855,0,-0.581963,1.18749,-3.49066e-05,1.35186,0,0,0,0,0,0,0,0.046,-0.072,0.194,0,0,0,3.073,13.832,-15.841,-4.2,0.286027,0.314207
18:51:51:826976,0,-0.581963,1.18749,-3.49066e-05,1.35186,0,0,0,0,0,0,0,0.041,-0.028,0.046,0,0,0.001,3.311,14.994,-14.721,-4.676,0.05636,0.398747
18:51:51:831983,0,-0.581963,1.18749,-3.49066e-05,1.35186,0,0,0,0,0,0,0,0.053,0.013,-0.077,0,0,0.001,3.36,14.455,-15.736,-3.115,0.005636,0.505831
18:51:51:837141,0,-0.581963,1.18749,-3.49066e-05,1.35186,0,0,0,0,0,0,0,0.072,0.044,-0.122,0,-0.001,0.002,3.969,15.491,-15.12,-1.281,0.040861,0.417064
18:51:51:842158,0,-0.581963,1.18749,-3.49066e-05,1.35186,0,0,0,0,0,0,0,0.074,0.033,-0.038,0,0,0.001,2.828,14.455,-15.435,-5.327,0.087358,0.438199
18:51:51:847267,0,-0.581963,1.18749,-3.49066e-05,1.35186,0,0,0,0,0,0,0,0.072,-0.005,0.131,0,0,0,3.675,14.84,-15.19,-4.004,0.170489,0.250802
18:51:51:852266,0,-0.581963,1.18749,-3.49066e-05,1.35186,0,0,0,0,0,0,0,0.077,-0.025,0.194,0,0,0,3.339,14.07,-14.896,-4.305,0.08454,0.377612
18:51:51:857350,0,-0.581963,1.18749,-3.49066e-05,1.35186,0,0,0,0,0,0,0,0.09,-0.03,0.186,0,0,0,3.059,14.994,-14.896,-5.831,0.255029,0.397338
18:51:51:862348,0,-0.581963,1.18749,-3.49066e-05,1.35186,0,0,0,0,0,0,0,0.092,-0.009,0.105,0,0,0,3.423,15.225,-15.015,-6.692,0.087358,0.35225
18:51:51:867513,0,-0.581963,1.18749,-3.49066e-05,1.35186,0,0,0,0,0,0,0,0.088,0.005,0.062,0,0,0,3.472,14.84,-15.099,-4.69,0.1409,0.384657
18:51:51:872531,0,-0.581963,1.18749,-3.49066e-05,1.35186,0,0,0,0,0,0,0,0.084,0.005,0.092,0,0,0,3.136,14.532,-15.841,-3.892,0.181761,0.312798
18:51:51:877637,0,-0.581963,1.18749,-3.49066e-05,1.35186,0,0,0,0,0,0,0,0.082,-0.011,0.17,0,0,0,3.325,14.182,-15.708,-4.004,-0.040861,0.343796
18:51:51:882638,0,-0.58198,1.18749,-3.49066e-05,1.35186,0,0,0,0,0,0,0,0.08,-0.029,0.23,0,0,0,4.032,14.616,-15.344,-4.382,0.052133,0.473424
18:51:51:887764,0,-0.58198,1.18749,-3.49066e-05,1.35186,0,0,0,0,0,0,0,0.081,-0.02,0.162,0,0,0,3.766,14.994,-15.344,-3.92,0.061996,0.586144
18:51:51:892802,0,-0.58198,1.18749,-3.49066e-05,1.35186,0,0,0,0,0,0,0,0.081,0.007,-0.025,0,0,0.001,3.325,14.644,-15.722,-4.298,0.301526,0.429745
18:51:51:897901,0,-0.58198,1.18749,-3.49066e-05,1.35186,0,0,0,0,0,0,0,0.072,0.008,-0.093,0,0,0.001,3.549,14.35,-15.484,-3.892,0.122583,0.370567
18:51:51:902894,0,-0.58198,1.18749,-3.49066e-05,1.35186,0,0,0,0,0,0,0,0.042,-0.016,-0.057,0,0,0.001,3.829,14.49,-15.148,-4.592,0.087358,0.443835
18:51:51:908023,0,-0.58198,1.18749,-3.49066e-05,1.35186,0,0,0,0,0,0,0,0.025,-0.023,-0.019,0,0,0,3.605,15.078,-15.26,-3.976,0.08454,0.376203
18:51:51:912976,0,-0.58198,1.18749,-3.49066e-05,1.35186,0,0,0,0,0,0,0,0.029,0.014,-0.028,0,0,0,4.123,14.217,-15.666,-3.598,0.147945,0.367749
18:51:51:917991,0,-0.58198,1.18749,-3.49066e-05,1.35186,0,0,0,0,0,0,0,0.05,0.047,-0.035,0,0,0,3.514,14.112,-15.344,-3.787,0.005636,0.393111
18:51:51:923149,0,-0.58198,1.18749,-3.49066e-05,1.35186,0,0,0,0,0,0,0,0.08,0.049,0.013,0,0,0,3.878,15.344,-14.693,-4.305,0.153581,0.441017
18:51:51:928137,0,-0.58198,1.18749,-3.49066e-05,1.35186,0,0,0,0,0,0,0,0.086,0.016,0.033,0,0,0,3.731,14.525,-15.148,-3.703,0.209941,0.371976
18:51:51:933286,0,-0.58198,1.18749,-3.49066e-05,1.35186,0,0,0,0,0,0,0,0.069,-0.029,-0.03,0,0,0.001,3.605,14.378,-15.547,-4.403,0.178943,0.35225
18:51:51:938304,0,-0.58198,1.18749,-3.49066e-05,1.35186,0,0,0,0,0,0,0,0.03,-0.03,-0.048,0,0,0.001,3.094,14.385,-15.862,-4.207,0.109902,0.340978
18:51:51:943398,0,-0.58198,1.18749,-3.49066e-05,1.35186,0,0,0,0,0,0,0,0.005,-0.019,0.065,0,0,0,3.108,14.994,-15.232,-4.207,0.087358,0.383248
18:51:51:948387,0,-0.58198,1.18749,-3.49066e-05,1.35186,0,0,0,0,0,0,0,-0.003,-0.016,0.305,0,0,-0.001,3.262,14.308,-15.484,-3.514,0.160626,0.370567
18:51:51:953345,0,-0.58198,1.18749,-3.49066e-05,1.35186,0,0,0,0,0,0,0,0.02,-0.023,0.35,0,0,-0.002,3.829,14.49,-15.169,-3.99,0.046497,0.38043
18:51:51:958507,0,-0.58198,1.18749,-3.49066e-05,1.35186,0,0,0,0,0,0,0,0.077,-0.03,0.176,0,0,-0.001,3.626,14.525,-15.526,-3.794,0.052133,0.463561
18:51:51:963632,0,-0.58198,1.18749,-3.49066e-05,1.35186,0,0,0,0,0,0,0,0.101,-0.029,0.042,0,0,0,3.122,14.112,-15.75,-4.599,0.071859,0.397338
18:51:51:968628,0,-0.58198,1.18749,-3.49066e-05,1.35186,0,0,0,0,0,0,0,0.092,-0.032,0.077,0,0,-0.001,4.172,14.574,-15.071,-4.312,0.094403,0.329706
18:51:51:973649,0,-0.58198,1.18749,-3.49066e-05,1.35186,0,0,0,0,0,0,0,0.065,-0.038,0.242,0,0,-0.002,4.081,13.335,-14.987,-3.983,-0.008454,0.407201
18:51:51:978771,0,-0.58198,1.18749,-3.49066e-05,1.35186,0,0,0,0,0,0,0,0.032,-0.04,0.424,-0.001,0,-0.003,3.465,14.805,-15.393,-4.613,0.171898,0.405792
18:51:51:983773,0,-0.58198,1.18749,-3.49066e-05,1.35186,0,0,0,0,0,0,0,0.034,-0.031,0.387,0,0,-0.002,2.982,14.112,-15.302,-3.892,0.122583,0.419882
18:51:51:988885,0,-0.58198,1.18749,-3.49066e-05,1.35186,0,0,0,0,0,0,0,0.074,-0.008,0.174,0,0,0,3.108,13.762,-15.729,-3.885,0.188806,0.459334
18:51:51:993879,0,-0.58198,1.18749,-3.49066e-05,1.35186,0,0,0,0,0,0,0,0.107,0.004,0.06,0,0,0,3.64,14.721,-15.19,-4.207,0.052133,0.483287
18:51:51:999023,0,-0.58198,1.18749,-3.49066e-05,1.35186,0,0,0,0,0,0,0,0.125,0.011,0.052,0,0,0.001,3.094,14.385,-15.554,-4.494,0.166262,0.387475
18:51:52:3968,0,-0.58198,1.18749,-5.23599e-05,1.35186,0,0,0,0,0,0,0,0.107,0.011,0.116,0,0,0,2.779,14.448,-15.071,-3.997,0.040861,0.425518
18:51:52:8969,0,-0.58198,1.18749,-5.23599e-05,1.35186,0,0,0,0,0,0,0,0.064,0.012,0.154,0,0,0,3.591,14.14,-15.008,-4.291,0.150763,0.445244
18:51:52:14151,0,-0.58198,1.18749,-5.23599e-05,1.35186,0,0,0,0,0,0,0,0.053,0.019,0.082,0,0,0,3.472,14.07,-15.211,-3.71,0.232485,0.359295
18:51:52:19133,0,-0.58198,1.18749,-5.23599e-05,1.35186,0,0,0,0,0,0,0,0.079,0.036,-0.119,0,0,0.001,3.339,14.805,-15.68,-4.081,0.040861,0.390293
18:51:52:24253,0,-0.58198,1.18749,-5.23599e-05,1.35186,0,0,0,0,0,0,0,0.111,0.038,-0.212,0,0,0.001,3.815,13.839,-15.323,-3.934,0.107084,0.432563
18:51:52:29238,0,-0.58198,1.18749,-5.23599e-05,1.35186,0,0,0,0,0,0,0,0.103,0.019,-0.13,0,0,0.001,3.234,14.686,-15.736,-3.696,0.059178,0.46497
18:51:52:34406,0,-0.58198,1.18749,-5.23599e-05,1.35186,0,0,0,0,0,0,0,0.045,-0.03,0.115,0,0,0,3.549,15.232,-15.057,-3.885,0.087358,0.393111
18:51:52:39327,0,-0.58198,1.18749,-5.23599e-05,1.35186,0,0,0,0,0,0,0,0.007,-0.06,0.231,0,0,-0.001,3.136,14.266,-15.484,-4.004,0.040861,0.476242
18:51:52:44508,0,-0.58198,1.18749,-5.23599e-05,1.35186,0,0,0,0,0,0,0,0,-0.074,0.192,0,0,-0.001,3.843,14.917,-15.029,-4.305,0.071859,0.342387
18:51:52:49507,0,-0.58198,1.18749,-5.23599e-05,1.35186,0,0,0,0,0,0,0,0.027,-0.062,0.072,0,-0.001,0,4.137,14.406,-14.875,-3.99,0.074677,0.4227
18:51:52:54650,0,-0.58198,1.18749,-5.23599e-05,1.35186,0,0,0,0,0,0,0,0.059,-0.042,-0.014,0,-0.001,0,3.283,14.049,-15.302,-3.717,0.16908,0.329706
18:51:52:59634,0,-0.58198,1.18749,-5.23599e-05,1.35186,0,0,0,0,0,0,0,0.048,-0.04,0.075,0,-0.001,0,3.871,15.484,-15.638,-4.011,0.094403,0.364931
18:51:52:64598,0,-0.58198,1.18749,-5.23599e-05,1.35186,0,0,0,0,0,0,0,0.002,-0.046,0.308,0,0,0,3.528,13.839,-14.847,-4.424,0.008454,0.432563
18:51:52:69768,0,-0.58198,1.18749,-5.23599e-05,1.35186,0,0,0,0,0,0,0,-0.009,-0.043,0.366,0,0,-0.001,3.171,14.441,-14.98,-4.102,0.109902,0.357886
18:51:52:74700,0,-0.58198,1.18749,-5.23599e-05,1.35186,0,0,0,0,0,0,0,0.031,-0.024,0.205,0,0,0,3.612,14.455,-15.365,-4.515,0.207123,0.35225
18:51:52:79876,0,-0.58198,1.18749,-5.23599e-05,1.35186,0,0,0,0,0,0,0,0.064,-0.011,0.043,0,0,0.001,3.486,14.658,-15.505,-4.27,0.138082,0.543874
18:51:52:84878,0,-0.58198,1.18749,-5.23599e-05,1.35186,0,0,0,0,0,0,0,0.047,0.003,-0.049,0,0,0.001,3.745,14.448,-14.791,-3.703,0.046497,0.457925
18:51:52:90002,0,-0.58198,1.18749,-5.23599e-05,1.35186,0,0,0,0,0,0,0,-0.014,0.014,0.006,0,0,0,3.661,14.455,-15.071,-4.207,0.018317,0.397338
18:51:52:95001,0,-0.58198,1.18749,-5.23599e-05,1.35186,0,0,0,0,0,0,0,-0.104,0.032,0.113,0,0,-0.002,3.283,14.231,-15.029,-3.5,0.087358,0.345205
18:51:52:100126,0,-0.58198,1.18749,-5.23599e-05,1.35186,0,0,0,0,0,0,0,-0.112,0.039,0.118,0,0,-0.002,4.249,14.581,-15.722,-4.214,0.188806,0.398747
18:51:52:105082,0,-0.58198,1.18749,-5.23599e-05,1.35186,0,0,0,0,0,0,0,-0.037,0.033,0.018,0,0,-0.001,3.703,14.105,-14.896,-4.312,0.1409,0.415655
18:51:52:110255,0,-0.58198,1.18749,-5.23599e-05,1.35186,0,0,0,0,0,0,0,0.03,0.019,-0.067,0,0,0,3.451,15.113,-15.344,-4.62,-0.002818,0.445244
18:51:52:115198,0,-0.58198,1.18749,-5.23599e-05,1.35186,0,0,0,0,0,0,0,0.083,-0.006,-0.125,0,0,0.002,3.486,14.42,-15.729,-4.515,0.201487,0.284618
18:51:52:120250,0,-0.58198,1.18749,-5.23599e-05,1.35186,0,0,0,0,0,0,0,0.077,-0.02,-0.089,0,0,0.002,3.815,14.497,-15.456,-3.906,0.19726,0.343796
18:51:52:125375,0,-0.58198,1.18749,-5.23599e-05,1.35186,0,0,0,0,0,0,0,0.046,-0.026,0.027,0,0,0,3.325,14.574,-15.232,-4.501,0.166262,0.314207
18:51:52:130335,0,-0.58198,1.18749,-5.23599e-05,1.35186,0,0,0,0,0,0,0,0.036,-0.021,0.146,0,0,0,3.199,14.105,-15.68,-3.717,0.021135,0.424109
18:51:52:135512,0,-0.58198,1.18749,-5.23599e-05,1.35186,0,0,0,0,0,0,0,0.039,-0.025,0.227,0,0,-0.001,3.885,14.42,-15.148,-3.619,0.033816,0.45088
18:51:52:140474,0,-0.58198,1.18749,-5.23599e-05,1.35186,0,0,0,0,0,0,0,0.041,-0.049,0.349,0,0,-0.002,3.766,14.658,-15.204,-3.92,0.181761,0.364931
18:51:52:145769,0,-0.58198,1.18749,-5.23599e-05,1.35186,0,0,0,0,0,0,0,0.043,-0.065,0.38,0,0,-0.002,3.157,14.728,-16.002,-4.004,0.102857,0.463561
18:51:52:150637,0,-0.58198,1.18749,-5.23599e-05,1.35186,0,0,0,0,0,0,0,0.062,-0.067,0.287,0,0,-0.001,3.15,15.225,-14.938,-4.004,0.026771,0.397338
18:51:52:155765,0,-0.58198,1.18749,-5.23599e-05,1.35186,0,0,0,0,0,0,0,0.078,-0.057,0.194,0,0,0,3.857,14.658,-15.148,-4.312,-0.023953,0.331115
18:51:52:160749,0,-0.58198,1.18749,-5.23599e-05,1.35186,0,0,0,0,0,0,0,0.075,-0.042,0.168,0,0,0,3.626,14.266,-15.344,-4.004,0.115538,0.388884
18:51:52:165891,0,-0.58198,1.18749,-5.23599e-05,1.35186,0,0,0,0,0,0,0,0.053,-0.037,0.205,0,0,0,3.031,14.413,-14.959,-4.592,0.067632,0.359295
18:51:52:170889,0,-0.58198,1.18749,-5.23599e-05,1.35186,0,0,0,0,0,0,0,0.019,-0.021,0.134,0,0,0,2.863,15.008,-15.638,-3.619,0.087358,0.445244
18:51:52:175998,0,-0.58198,1.18749,-5.23599e-05,1.35186,0,0,0,0,0,0,0,0.016,0,-0.029,0,0,0,3.815,14.448,-15.169,-3.78,0.105675,0.359295
18:51:52:180956,0,-0.58198,1.18749,-5.23599e-05,1.35186,0,0,0,0,0,0,0,0.028,0.034,-0.221,0,0,0.001,3.766,14.049,-14.959,-3.927,0.043679,0.262074
18:51:52:186024,0,-0.58198,1.18749,-5.23599e-05,1.35186,0,0,0,0,0,0,0,0.031,0.043,-0.178,0,0,0,3.353,15.029,-15.372,-3.612,0.138082,0.417064
18:51:52:191150,0,-0.58198,1.18749,-5.23599e-05,1.35186,0,0,0,0,0,0,0,0.024,0.024,0.064,0,0,0,3.514,14.42,-15.162,-3.92,0.043679,0.355068
18:51:52:196140,0,-0.58198,1.18749,-5.23599e-05,1.35186,0,0,0,0,0,0,0,0.031,-0.002,0.176,0,0,-0.001,3.934,15.687,-15.414,-4.501,0.102857,0.45088
18:51:52:201261,0,-0.58198,1.18749,-5.23599e-05,1.35186,0,0,0,0,0,0,0,0.066,-0.037,0.129,0,0,0,3.64,14.798,-15.554,-3.913,0.059178,0.331115
18:51:52:206211,0,-0.58198,1.18749,-5.23599e-05,1.35186,0,0,0,0,0,0,0,0.086,-0.046,0.04,0,0,0,3.745,14.035,-15.393,-4.277,0.046497,0.452289
18:51:52:211374,0,-0.58198,1.18749,-5.23599e-05,1.35186,0,0,0,0,0,0,0,0.075,-0.04,0.017,0,0,0.001,3.906,14.84,-15.953,-4.319,0.023953,0.336751
18:51:52:216338,0,-0.58198,1.18749,-5.23599e-05,1.35186,0,0,0,0,0,0,0,0.037,-0.018,0.075,-0.001,0,0,4.277,14.49,-15.526,-4.2,0.088767,0.359295
18:51:52:221389,0,-0.58198,1.18749,-5.23599e-05,1.35186,0,0,0,0,0,0,0,0.03,0.004,0.027,-0.001,0,0,3.22,14.413,-15.414,-4.004,0.021135,0.426927
18:51:52:226499,0,-0.58198,1.18749,-5.23599e-05,1.35186,0,0,0,0,0,0,0,0.065,0.04,-0.192,0,0,0.002,2.954,13.972,-15.554,-3.689,0.023953,0.480469
18:51:52:231623,0,-0.58198,1.18749,-5.23599e-05,1.35186,0,0,0,0,0,0,0,0.095,0.048,-0.3,0,0,0.002,3.374,14.07,-15.533,-4.396,0.125401,0.463561
18:51:52:236635,0,-0.58198,1.18749,-5.23599e-05,1.35186,0,0,0,0,0,0,0,0.104,0.02,-0.213,0,-0.001,0.001,3.591,14.448,-15.372,-4.228,0.059178,0.4227
18:51:52:241587,0,-0.58198,1.18749,-5.23599e-05,1.35186,0,0,0,0,0,0,0,0.086,-0.006,-0.051,0,-0.001,0,3.864,14.651,-15.281,-3.808,-0.011272,0.481878
18:51:52:246762,0,-0.58198,1.18749,-5.23599e-05,1.35186,0,0,0,0,0,0,0,0.056,-0.022,0.093,0,-0.001,0,3.388,13.727,-15.26,-4.214,0.081722,0.435381
18:51:52:251722,0,-0.58198,1.18749,-5.23599e-05,1.35186,0,0,0,0,0,0,0,0.051,-0.014,0.076,0,0,0,3.969,15.043,-15.799,-4.62,-0.005636,0.35225
18:51:52:256886,0,-0.58198,1.18749,-5.23599e-05,1.35186,0,0,0,0,0,0,0,0.056,-0.009,0.033,0,0,0,3.276,14.623,-15.211,-4.284,0.078904,0.417064
18:51:52:261818,0,-0.58198,1.18749,-5.23599e-05,1.35186,0,0,0,0,0,0,0,0.057,-0.024,0.076,0,0,0,3.556,14.308,-14.875,-3.829,0.081722,0.314207
18:51:52:266956,0,-0.58198,1.18749,-5.23599e-05,1.35186,0,0,0,0,0,0,0,0.059,-0.061,0.186,0,0,0,3.437,14.42,-14.945,-4.578,0.123992,0.452289
18:51:52:272010,0,-0.58198,1.18749,-5.23599e-05,1.35186,0,0,0,0,0,0,0,0.066,-0.076,0.214,0,0,0,3.185,14.504,-15.323,-4.312,-0.115538,0.459334
18:51:52:276996,0,-0.58198,1.18749,-5.23599e-05,1.35186,0,0,0,0,0,0,0,0.079,-0.059,0.181,0,0,0,3.346,14.455,-15.169,-3.997,0.160626,0.411428
18:51:52:282136,0,-0.58198,1.18749,-5.23599e-05,1.35186,0,0,0,0,0,0,0,0.077,-0.027,0.157,0,0,0,3.297,14.686,-15.302,-3.815,0.119765,0.400156
18:51:52:287243,0,-0.58198,1.18749,-5.23599e-05,1.35186,0,0,0,0,0,0,0,0.052,0.025,0.131,0,0,0,3.493,14.728,-16.002,-4.088,0.097221,0.404383
18:51:52:292258,0,-0.58198,1.18749,-5.23599e-05,1.35186,0,0,0,0,0,0,0,0.034,0.043,0.082,0,0,0,3.696,15.001,-15.148,-4.193,0.090176,0.428336
18:51:52:297383,0,-0.58198,1.18749,-5.23599e-05,1.35186,0,0,0,0,0,0,0,0.033,0.033,-0.045,0,0,0,3.577,14.602,-15.708,-4.599,0.159217,0.376203
18:51:52:302371,0,-0.58198,1.18749,-5.23599e-05,1.35186,0,0,0,0,0,0,0,0.063,0.01,-0.115,0,0,0.001,3.668,14.847,-15.89,-4.123,0.12681,0.340978
18:51:52:307511,0,-0.58198,1.18749,-5.23599e-05,1.35186,0,0,0,0,0,0,0,0.081,0.008,-0.081,0,0,0.001,3.374,15.267,-15.666,-4.284,0.146536,0.446653
18:51:52:312498,0,-0.58198,1.18749,-5.23599e-05,1.35186,0,0,0,0,0,0,0,0.082,0.017,0.026,0,0,0,3.374,14.728,-15.596,-4.221,0.059178,0.411428
18:51:52:317632,0,-0.58198,1.18749,-5.23599e-05,1.35186,0,0,0,0,0,0,0,0.069,0.015,0.069,0,0,0,4.256,14.336,-15.407,-3.633,0.030998,0.359295
18:51:52:322618,0,-0.58198,1.18749,-5.23599e-05,1.35186,0,0,0,0,0,0,0,0.051,0,0.059,0,0,0.001,3.542,13.804,-15.442,-4.137,0.16908,0.297299
18:51:52:327842,0,-0.58198,1.18749,-5.23599e-05,1.35186,0,0,0,0,0,0,0,0.039,-0.004,0.04,0,0,0.001,3.591,14.728,-15.904,-3.829,0.016908,0.504422
18:51:52:332709,0,-0.58198,1.18749,-5.23599e-05,1.35186,0,0,0,0,0,0,0,0.002,0.017,0.055,0,0,0,3.486,14.182,-15.477,-4.067,0.033816,0.469197
18:51:52:337695,0,-0.58198,1.18749,-5.23599e-05,1.35186,0,0,0,0,0,0,0,-0.03,0.037,0.078,0,0.001,0,3.577,14.413,-15.484,-4.102,0.074677,0.433972
18:51:52:342882,0,-0.58198,1.18749,-5.23599e-05,1.35186,0,0,0,0,0,0,0,-0.042,0.046,0.056,0,0,-0.001,3.374,14.308,-15.75,-4.508,0.071859,0.401565
18:51:52:347880,0,-0.58198,1.18749,-5.23599e-05,1.35186,0,0,0,0,0,0,0,-0.007,0.034,-0.016,0,0,0,3.283,15.036,-15.19,-3.906,0.143718,0.383248
18:51:52:353008,0,-0.58198,1.18749,-5.23599e-05,1.35186,0,0,0,0,0,0,0,0.065,0.007,-0.129,0,0,0.001,4.137,14.343,-15.596,-4.312,0.08454,0.405792
18:51:52:358007,0,-0.58198,1.18749,-5.23599e-05,1.35186,0,0,0,0,0,0,0,0.082,-0.009,-0.131,0,-0.001,0.001,3.577,14.343,-15.281,-3.612,0.094403,0.435381
18:51:52:363116,0,-0.58198,1.18749,-5.23599e-05,1.35186,0,0,0,0,0,0,0,0.041,-0.027,-0.009,0,-0.001,0.001,3.255,15.043,-15.463,-3.626,0.094403,0.376203
18:51:52:368114,0,-0.58198,1.18749,-5.23599e-05,1.35186,0,0,0,0,0,0,0,0.008,-0.033,0.073,0,0,0,3.353,14.308,-15.393,-4.592,0.119765,0.491741
18:51:52:373063,0,-0.58198,1.18749,-5.23599e-05,1.35186,0,0,0,0,0,0,0,0.009,-0.03,0.068,0,0,0,3.458,14.448,-15.414,-3.815,0.029589,0.370567
18:51:52:378242,0,-0.58198,1.18749,-5.23599e-05,1.35186,0,0,0,0,0,0,0,0.039,-0.022,-0.006,0,0,0.001,2.982,14.882,-15.344,-3.528,0.150763,0.383248
18:51:52:383182,0,-0.58198,1.18749,-5.23599e-05,1.35186,0,0,0,0,0,0,0,0.076,-0.011,-0.085,0,0,0.001,3.01,15.267,-15.547,-3.717,0.108493,0.417064
18:51:52:388373,0,-0.58198,1.18749,-5.23599e-05,1.35186,0,0,0,0,0,0,0,0.068,-0.005,-0.061,0,0,0.001,3.423,14.805,-15.393,-4.081,0.128219,0.32407
18:51:52:393362,0,-0.58198,1.18749,-5.23599e-05,1.35186,0,0,0,0,0,0,0,0.046,-0.002,-0.042,0,0,0,4.263,14.308,-15.008,-4.193,0.128219,0.379021
18:51:52:398330,0,-0.58198,1.18749,-5.23599e-05,1.35186,0,0,0,0,0,0,0,0.018,-0.007,-0.064,0,0,0,3.36,14.728,-15.568,-3.808,0.133855,0.411428
18:51:52:403499,0,-0.58198,1.18749,-5.23599e-05,1.35186,0,0,0,0,0,0,0,0.013,-0.017,-0.075,0,0,0,3.815,14.525,-15.526,-3.864,0.153581,0.355068
18:51:52:408630,0,-0.58198,1.18749,-6.98132e-05,1.35186,0,0,0,0,0,0,0,0.029,-0.033,-0.002,0,0,0,3.885,15.309,-15.456,-3.843,0.097221,0.435381
18:51:52:413617,0,-0.58198,1.18749,-6.98132e-05,1.35186,0,0,0,0,0,0,0,0.044,-0.034,0.088,0,0,0,3.22,13.531,-15.925,-3.402,0.018317,0.342387
18:51:52:418751,0,-0.58198,1.18749,-6.98132e-05,1.35186,0,0,0,0,0,0,0,0.046,-0.014,0.193,0,-0.001,0,3.591,14.413,-15.008,-3.99,0.08454,0.401565
18:51:52:423756,0,-0.58198,1.18749,-6.98132e-05,1.35186,0,0,0,0,0,0,0,0.022,0.012,0.226,-0.002,-0.001,0,3.269,15.19,-15.323,-3.605,0.153581,0.456516
18:51:52:428888,0,-0.58198,1.18749,-6.98132e-05,1.35186,0,0,0,0,0,0,0,-0.044,0.072,0.266,-0.008,-0.003,-0.001,3.906,14.455,-15.029,-4.025,0.049315,0.355068
18:51:52:433875,0,-0.58198,1.18749,-6.98132e-05,1.35186,0,0,0,0,0,0,0,-0.092,0.117,0.283,-0.011,-0.004,-0.002,2.891,14.882,-15.442,-4.088,0.174716,0.497377
18:51:52:438867,0,-0.58198,1.18749,-6.98132e-05,1.35186,0,0,0,0,0,0,0,-0.131,0.157,0.204,-0.012,-0.004,-0.002,3.563,13.965,-15.211,-3.514,0.12681,0.400156
18:51:52:444017,0,-0.58198,1.18749,-6.98132e-05,1.35186,0,0,0,0,0,0,0,-0.119,0.151,0.055,-0.01,-0.004,0,3.388,14.427,-14.875,-3.801,0.061996,0.348023
18:51:52:448947,0,-0.58198,1.18749,-6.98132e-05,1.35186,0,0,0,0,0,0,0,-0.055,0.12,-0.208,-0.008,-0.003,0.002,3.094,14.455,-15.526,-3.92,0.159217,0.445244
18:51:52:454110,0,-0.58198,1.18749,-6.98132e-05,1.35186,0,0,0,0,0,0,0,-0.005,0.118,-0.31,-0.009,-0.003,0.003,3.255,14.063,-15.82,-3.983,0.069041,0.290254
18:51:52:459053,0,-0.58198,1.18749,-6.98132e-05,1.35186,0,0,0,0,0,0,0,0.027,0.155,-0.27,-0.014,-0.004,0.004,3.269,14.105,-15.309,-4.431,0.040861,0.417064
18:51:52:464235,0,-0.58198,1.18749,-6.98132e-05,1.35186,0,0,0,0,0,0,0,0.009,0.181,-0.158,-0.017,-0.003,0.003,3.591,14.301,-15.953,-3.696,0.200078,0.429745
18:51:52:469253,0,-0.58198,1.18749,-6.98132e-05,1.35186,0,0,0,0,0,0,0,-0.047,0.172,-0.008,-0.018,-0.003,0.001,3.325,14.385,-15.547,-3.871,0.132446,0.363522
18:51:52:474373,0,-0.58198,1.18749,-6.98132e-05,1.35186,0,0,0,0,0,0,0,-0.06,0.12,0.037,-0.015,-0.002,0.001,3.528,14.063,-15.82,-4.102,0.118356,0.411428
18:51:52:479304,0,-0.58198,1.18749,-6.98132e-05,1.35186,0,0,0,0,0,0,0,-0.027,0.087,0.043,-0.012,-0.002,0.001,4.417,14.686,-16.016,-4.214,0.128219,0.462152
18:51:52:484311,0,-0.58198,1.18749,-6.98132e-05,1.35186,0,0,0,0,0,0,0,0.032,0.059,0.088,-0.009,-0.003,0.001,3.563,14.154,-15.372,-4.48,0.146536,0.445244
18:51:52:489527,0,-0.58198,1.18749,-6.98132e-05,1.35186,0,0,0,0,0,0,0,0.039,0.053,0.142,-0.009,-0.003,0.001,3.612,14.273,-16.128,-4.326,0.133855,0.480469
18:51:52:494627,0,-0.58198,1.18749,-6.98132e-05,1.35186,1.74533e-05,0,0,0,0,0,0,-0.006,0.06,0.188,-0.008,-0.003,0,4.466,14.798,-15.841,-4.137,0.146536,0.39452
18:51:52:499584,0,-0.58198,1.18749,-6.98132e-05,1.35186,1.74533e-05,0,0,0,0,0,0,-0.036,0.073,0.153,-0.008,-0.003,0,3.577,14.539,-15.232,-4.578,0.081722,0.463561
18:51:52:504654,0,-0.58198,1.18749,-6.98132e-05,1.35186,1.74533e-05,0,0,0,0,0,0,-0.021,0.094,-0.018,-0.007,-0.002,0,3.661,14.567,-15.659,-3.01,-0.002818,0.428336
18:51:52:509765,0,-0.58198,1.18749,-6.98132e-05,1.35186,1.74533e-05,0,0,0,0,0,0,0.017,0.098,-0.164,-0.006,-0.001,0.002,4.515,14.147,-15.68,-3.598,0.174716,0.381839
18:51:52:514733,0,-0.58198,1.18749,-6.98132e-05,1.35186,1.74533e-05,0,0,0,0,0,0,0.054,0.084,-0.286,-0.006,-0.001,0.003,4.186,14.266,-15.232,-4.116,0.087358,0.435381
18:51:52:519872,0,-0.58198,1.18749,-6.98132e-05,1.35186,3.49066e-05,0,0,0,0,0,0,0.045,0.068,-0.261,-0.005,-0.001,0.003,3.878,14.679,-15.589,-4.151,0.138082,0.376203
18:51:52:524884,0,-0.58198,1.18749,-6.98132e-05,1.35186,3.49066e-05,0,0,0,0,0,0,0.018,0.05,-0.141,-0.004,-0.001,0.001,3.507,14.378,-15.75,-4.053,0.1409,0.491741
18:51:52:529999,0,-0.58198,1.18749,-6.98132e-05,1.35186,3.49066e-05,0,0,0,0,0,0,0.023,0.044,-0.076,-0.003,-0.001,0.001,4.102,13.538,-15.638,-4.214,0.156399,0.36634
18:51:52:534981,0,-0.58198,1.18749,-6.98132e-05,1.35186,5.23599e-05,0,0,0,0,0,0,0.063,0.035,0,-0.001,0,0,3.906,14.294,-15.974,-3.591,0.108493,0.376203
18:51:52:540110,0,-0.58198,1.18749,-6.98132e-05,1.35186,6.98132e-05,0,0,0,0,0,0,0.083,0.022,0.082,0,0,0,4.669,13.965,-15.932,-4.228,0.263483,0.377612
18:51:52:545122,0,-0.58198,1.18749,-6.98132e-05,1.35186,6.98132e-05,0,0,0,0,0,0.00247837,0.08,-0.012,0.234,0,0,0,4.326,14.308,-15.456,-4.214,0.146536,0.428336
18:51:52:550232,0,-0.58198,1.18749,-6.98132e-05,1.35186,6.98132e-05,0,0,0,0,0,0,0.072,-0.039,0.282,0,0.001,-0.001,4.032,13.608,-15.372,-3.836,0.074677,0.424109
18:51:52:555231,0,-0.58198,1.18749,-6.98132e-05,1.35186,8.72665e-05,0,0,0,0,0,0,0.088,-0.068,0.211,0,0.002,-0.001,3.934,13.713,-15.302,-3.444,0.092994,0.431154
18:51:52:560232,1.74533e-05,-0.58198,1.18749,-6.98132e-05,1.35186,8.72665e-05,0,0,0,0,0,0,0.116,-0.077,0.13,0.001,0.003,-0.001,3.976,14.028,-16.177,-3.976,0.153581,0.38043
18:51:52:565356,1.74533e-05,-0.58198,1.18749,-6.98132e-05,1.35186,8.72665e-05,0,0,0,0,0,0,0.154,-0.081,0.103,0.002,0.004,0,4.193,14.07,-15.925,-3.997,0.174716,0.356477
18:51:52:570301,1.74533e-05,-0.58198,1.18749,-6.98132e-05,1.35186,8.72665e-05,0,0,0,0,0,0,0.162,-0.081,0.165,0.002,0.004,-0.001,4.095,13.993,-16.583,-3.843,0.238121,0.373385
18:51:52:575482,1.74533e-05,-0.58198,1.18749,-6.98132e-05,1.35186,8.72665e-05,0,0,0,0,0,0,0.153,-0.077,0.162,0.002,0.005,-0.001,4.263,14.42,-16.268,-3.906,0.153581,0.419882
18:51:52:580481,1.74533e-05,-0.58198,1.18749,-6.98132e-05,1.35186,0.00010472,0,0,0,0,0,0,0.141,-0.063,0.063,0.002,0.005,0,4.34,14.028,-15.841,-4.193,0.187397,0.419882
18:51:52:585603,1.74533e-05,-0.58198,1.18749,-6.98132e-05,1.35186,0.00010472,0,0,0,0,0,0,0.149,-0.055,0.011,0.003,0.005,0,4.109,14.574,-15.645,-3.465,0.143718,0.419882
18:51:52:590607,1.74533e-05,-0.58198,1.18749,-6.98132e-05,1.35186,0.00010472,0,0,0,0,0,0,0.187,-0.054,0.021,0.004,0.006,0,4.095,13.881,-15.953,-4.375,0.069041,0.318434
18:51:52:595746,1.74533e-05,-0.58198,1.18749,-6.98132e-05,1.35186,0.00010472,0,0,0,0,0,0,0.219,-0.057,0.032,0.005,0.007,0,4.193,14.602,-16.233,-3.78,0.061996,0.467788
18:51:52:600746,1.74533e-05,-0.58198,1.18749,-6.98132e-05,1.35186,0.000122173,0,0,0,0,0,0,0.236,-0.065,-0.032,0.006,0.008,0,4.235,14.875,-15.596,-4.228,0.125401,0.35225
18:51:52:605728,1.74533e-05,-0.58198,1.18749,-6.98132e-05,1.35186,0.000122173,0,0,0,0,0,0,0.208,-0.077,-0.073,0.006,0.009,0,4.34,14.602,-15.883,-3.927,0.167671,0.373385
18:51:52:610870,1.74533e-05,-0.58198,1.18749,-6.98132e-05,1.35186,0.000122173,0,0,0,0,0,0,0.124,-0.112,-0.007,0.007,0.01,-0.001,4.508,14.609,-15.414,-4.256,0.118356,0.335342
18:51:52:615868,1.74533e-05,-0.58198,1.18749,-6.98132e-05,1.35186,0.000122173,0,0,0,0,0,0,0.077,-0.139,0.088,0.007,0.011,-0.002,3.689,14.378,-16.156,-4.2,0.091585,0.304344
18:51:52:621004,1.74533e-05,-0.58198,1.18749,-6.98132e-05,1.35186,0.000122173,0,0,0,0,0,0,0.084,-0.168,0.166,0.008,0.011,-0.003,3.815,14.378,-15.645,-3.948,0.184579,0.381839
18:51:52:625978,1.74533e-05,-0.58198,1.18749,-6.98132e-05,1.35186,0.000122173,0,0,0,0,0,0,0.141,-0.18,0.171,0.009,0.012,-0.003,4.452,14.413,-15.967,-4.004,0.043679,0.415655
18:51:52:631119,1.74533e-05,-0.58198,1.18749,-6.98132e-05,1.35186,0.000122173,0,0,0,0,0,0,0.241,-0.205,0.224,0.009,0.012,-0.003,4.032,14.686,-15.33,-4.116,0.043679,0.349432
18:51:52:636125,1.74533e-05,-0.58198,1.18749,-6.98132e-05,1.35186,0.000122173,0,0,0,0,0,0,0.274,-0.225,0.281,0.01,0.011,-0.003,3.836,13.993,-15.393,-4.172,0.153581,0.391702
18:51:52:641254,1.74533e-05,-0.58198,1.18749,-6.98132e-05,1.35186,0.000122173,0,0,0,0,0,0,0.258,-0.226,0.235,0.01,0.011,-0.002,3.703,14.728,-15.568,-3.675,0.125401,0.304344
18:51:52:646260,1.74533e-05,-0.58198,1.18749,-6.98132e-05,1.35186,0.000122173,0,0,0,0,0,0,0.227,-0.2,0.094,0.01,0.01,-0.001,3.437,14,-15.106,-3.339,0.071859,0.350841
18:51:52:651225,1.74533e-05,-0.58198,1.18749,-6.98132e-05,1.35186,0.000122173,0,0,0,0,0,0,0.196,-0.15,-0.084,0.009,0.01,0,3.864,14.644,-14.714,-3.745,0.153581,0.311389
18:51:52:656296,1.74533e-05,-0.58198,1.18749,-6.98132e-05,1.35186,0.000122173,0,0,0,0,0,0,0.194,-0.131,-0.06,0.008,0.009,0,3.654,15.421,-14.854,-4.004,0.097221,0.333933
18:51:52:661315,1.74533e-05,-0.58198,1.18749,-6.98132e-05,1.35186,0.000122173,0,0,0,0,0,0,0.197,-0.135,-0.013,0.008,0.008,0,4.207,15.456,-14.903,-4.144,0.132446,0.302935
18:51:52:666471,1.74533e-05,-0.58198,1.18749,-6.98132e-05,1.35186,0.000122173,0,0,0,0,0,0,0.192,-0.14,-0.062,0.007,0.006,0.001,3.822,15.358,-14.7,-4.025,0.036634,0.321252
18:51:52:671418,1.74533e-05,-0.58198,1.18749,-6.98132e-05,1.35186,0.000122173,0,0,0,0,0,0,0.18,-0.137,-0.132,0.007,0.005,0.001,3.682,14.497,-14.791,-3.927,0.159217,0.328297
18:51:52:676621,1.74533e-05,-0.58198,1.18749,-6.98132e-05,1.35186,0.000122173,0,0,0,0,0,0,0.152,-0.128,-0.116,0.006,0.004,0,3.703,14.294,-14.469,-4.018,0.08454,0.395929
18:51:52:681632,1.74533e-05,-0.58198,1.18749,-6.98132e-05,1.35186,0.000122173,0,0,0,0,0,0,0.136,-0.115,-0.029,0.006,0.004,0,3.248,15.477,-14.483,-4.095,0.100039,0.364931
18:51:52:686739,1.74533e-05,-0.58198,1.18749,-6.98132e-05,1.35186,0.000122173,0,0,0,0,0,0,0.13,-0.075,0.016,0.006,0.003,0,4.137,14.42,-14.315,-3.815,0.081722,0.325479
18:51:52:691691,1.74533e-05,-0.58198,1.18749,-6.98132e-05,1.35186,0.000122173,0,0,0,0,0,0,0.139,-0.044,-0.063,0.006,0.003,0.001,3.85,14.826,-13.888,-4.347,0.033816,0.319843
18:51:52:696858,1.74533e-05,-0.58198,1.18749,-6.98132e-05,1.35186,0.000122173,0,0,0,0,0,0,0.159,-0.028,-0.192,0.006,0.003,0.002,4.165,15.001,-15.218,-4.256,0.08454,0.312798
18:51:52:701800,1.74533e-05,-0.58198,1.18749,-6.98132e-05,1.35186,0.000122173,0,0,0,0,0,0,0.165,-0.046,-0.168,0.006,0.003,0.001,3.773,15.386,-13.979,-4.102,0.067632,0.340978
18:51:52:706802,1.74533e-05,-0.58198,1.18749,-6.98132e-05,1.35186,0.000122173,0,0,0,0,0,0,0.151,-0.09,0.005,0.006,0.004,0,4.459,15.302,-14.182,-3.731,0.036634,0.255029
18:51:52:711989,1.74533e-05,-0.58198,1.18749,-6.98132e-05,1.35186,0.000122173,0,0,0,0,0,0,0.132,-0.11,0.091,0.006,0.004,0,3.85,14.427,-14.182,-4.144,0.046497,0.377612
18:51:52:716956,1.74533e-05,-0.58198,1.18749,-6.98132e-05,1.35186,0.000122173,0,0,0,0,0,0,0.119,-0.114,0.053,0.006,0.004,0,3.22,14.63,-14.658,-4.48,-0.046497,0.379021
18:51:52:722140,1.74533e-05,-0.58198,1.18749,-6.98132e-05,1.35186,0.000122173,0,0,0,0,0,0,0.13,-0.107,-0.032,0.006,0.005,0,3.402,15.267,-14.301,-3.682,-0.021135,0.247984
18:51:52:727065,1.74533e-05,-0.58198,1.18749,-6.98132e-05,1.35186,0.000122173,0,0,0,0,0,0,0.164,-0.098,-0.107,0.006,0.005,0.001,3.479,15.463,-14.315,-4.221,-0.029589,0.412837
18:51:52:732221,1.74533e-05,-0.58198,1.18749,-6.98132e-05,1.35186,0.000122173,0,0,0,0,0,0,0.184,-0.099,-0.099,0.006,0.005,0,4.256,15.309,-14.203,-3.815,-0.049315,0.277573
18:51:52:737236,1.74533e-05,-0.58198,1.18749,-6.98132e-05,1.35186,0.000122173,0,0,0,0,0,0,0.194,-0.113,-0.048,0.007,0.005,0,3.92,15.491,-13.923,-3.801,0.002818,0.287436
18:51:52:742308,1.74533e-05,-0.58198,1.18749,-6.98132e-05,1.35186,0.000122173,0,0,0,0,0,0,0.179,-0.133,-0.012,0.007,0.005,-0.001,4.102,14.847,-13.706,-4.172,-0.005636,0.364931
18:51:52:747348,1.74533e-05,-0.58198,1.18749,-6.98132e-05,1.35186,0.000122173,0,0,0,0,0,0,0.161,-0.137,-0.023,0.008,0.005,0,3.395,14.77,-14.364,-4.319,0.011272,0.264892
18:51:52:752475,1.74533e-05,-0.58198,1.18749,-6.98132e-05,1.35186,0.000122173,0,0,0,0,0,0,0.133,-0.124,-0.103,0.009,0.006,0,3.955,15.043,-14.343,-4.214,-0.001409,0.300117
18:51:52:757492,1.74533e-05,-0.58198,1.18749,-6.98132e-05,1.35186,0.000122173,0,0,0,0,0,0,0.122,-0.118,-0.149,0.009,0.006,0.001,3.43,15.113,-14.315,-3.304,0.043679,0.294481
18:51:52:762595,1.74533e-05,-0.58198,1.18749,-6.98132e-05,1.35186,0.000122173,0,0,0,0,0,0,0.124,-0.139,-0.047,0.009,0.007,0,3.717,15.141,-14.049,-3.647,0.05636,0.304344
18:51:52:767612,1.74533e-05,-0.58198,1.18749,-6.98132e-05,1.35186,0.000122173,0,0,0,0,0,0,0.135,-0.168,0.154,0.009,0.007,0,3.745,14.924,-14.252,-4.305,-0.012681,0.232485
18:51:52:772737,1.74533e-05,-0.58198,1.18749,-6.98132e-05,1.35186,0.000122173,0,0,0,0,0,0,0.157,-0.196,0.43,0.009,0.007,-0.003,2.975,16.121,-14.231,-4.494,0.033816,0.257847
18:51:52:777735,1.74533e-05,-0.58198,1.18749,-6.98132e-05,1.35186,0.000122173,0,0,0,0,0,0,0.174,-0.191,0.422,0.01,0.007,-0.003,2.975,15.96,-13.02,-4.326,-0.025362,0.311389
18:51:52:782733,1.74533e-05,-0.58198,1.18749,-6.98132e-05,1.35186,0.000122173,0,0,0,0,0,0,0.197,-0.163,0.107,0.01,0.007,-0.001,3.619,14.504,-13.489,-3.493,-0.136673,0.305753
18:51:52:787878,1.74533e-05,-0.58198,1.18749,-6.98132e-05,1.35186,0.000122173,0,0,0,0,0,0,0.208,-0.153,-0.115,0.011,0.007,0,3.647,15.505,-13.265,-3.549,-0.149354,0.325479
18:51:52:792869,1.74533e-05,-0.58198,1.18749,-6.98132e-05,1.35186,0.000122173,0,0,0,0,0,0,0.217,-0.165,-0.16,0.011,0.008,0.001,3.486,15.036,-13.713,-3.92,-0.043679,0.257847
18:51:52:797982,1.74533e-05,-0.58198,1.18749,-6.98132e-05,1.35186,0.000122173,0,0,0,0,0,0,0.219,-0.181,-0.017,0.011,0.008,0,3.031,16.114,-13.51,-3.906,0.061996,0.271937
18:51:52:802914,1.74533e-05,-0.58198,1.18749,-6.98132e-05,1.35186,0.000122173,0,0,0,0,0,0,0.231,-0.2,0.145,0.011,0.008,0,2.863,15.967,-13.286,-4.466,-0.02818,0.256438
18:51:52:808110,1.74533e-05,-0.58198,1.18749,-6.98132e-05,1.35186,0.000122173,0,0,0,0,0,0,0.25,-0.209,0.09,0.012,0.008,0,2.926,15.778,-14.07,-3.717,-0.021135,0.202896
18:51:52:813113,1.74533e-05,-0.58198,1.18749,-6.98132e-05,1.35186,0.000122173,0,0,0,0,0,0,0.283,-0.23,-0.095,0.014,0.008,0,2.779,15.771,-13.51,-3.724,-0.094403,0.22544
18:51:52:818237,1.74533e-05,-0.58198,1.18749,-6.98132e-05,1.35186,0.00010472,0,0,0,0,0,0,0.292,-0.254,-0.098,0.014,0.009,0,3.08,15.974,-13.02,-4.48,-0.043679,0.185988
18:51:52:823235,1.74533e-05,-0.58198,1.18749,-6.98132e-05,1.35186,0.00010472,0,0,0,0,0,0,0.28,-0.286,0.169,0.014,0.01,-0.001,2.765,16.191,-13.314,-3.892,-0.081722,0.15499
18:51:52:828237,1.74533e-05,-0.58198,1.18749,-6.98132e-05,1.35186,0.00010472,0,0,0,0,0,0,0.272,-0.29,0.366,0.014,0.01,-0.002,2.555,16.17,-13.111,-3.843,-0.026771,0.233894
18:51:52:833359,1.74533e-05,-0.58198,1.18749,-6.98132e-05,1.35186,0.00010472,0,0,0,0,0,0,0.283,-0.268,0.379,0.014,0.01,-0.003,3.514,16.163,-12.817,-3.787,0.002818,0.249393
18:51:52:838468,1.74533e-05,-0.58198,1.18749,-6.98132e-05,1.35186,0.00010472,0,0,0,0,0,0,0.297,-0.246,0.104,0.014,0.01,0,2.912,16.583,-12.656,-4.004,-0.069041,0.185988
18:51:52:843466,1.74533e-05,-0.58198,1.18749,-6.98132e-05,1.35186,0.00010472,0,0,0,0,0,0,0.29,-0.247,-0.047,0.014,0.01,0,3.143,15.785,-12.586,-3.836,-0.087358,0.256438
18:51:52:848470,1.74533e-05,-0.58198,1.18749,-6.98132e-05,1.35186,8.72665e-05,0,0,0,0,0,0,0.27,-0.274,-0.064,0.014,0.011,0,3.346,15.547,-12.712,-3.717,-0.018317,0.240939
18:51:52:853592,1.74533e-05,-0.58198,1.18749,-6.98132e-05,1.35186,8.72665e-05,0,0,0,0,0,0,0.272,-0.297,0.019,0.014,0.011,0,2.863,16.478,-12.418,-3.983,-0.069041,0.240939
18:51:52:858609,1.74533e-05,-0.58198,1.18749,-6.98132e-05,1.35186,8.72665e-05,0,0,0,0,0,0,0.291,-0.323,0.154,0.014,0.011,-0.001,1.988,16.87,-13.02,-4.2,-0.074677,0.115538
18:51:52:863734,1.74533e-05,-0.58198,1.18749,-6.98132e-05,1.35186,8.72665e-05,0,0,0,0,0,0,0.293,-0.333,0.224,0.015,0.012,-0.001,2.359,16.009,-12.285,-3.717,-0.138082,0.152172
18:51:52:868760,1.74533e-05,-0.58198,1.18749,-6.98132e-05,1.35186,8.72665e-05,0,0,0,0,0,0,0.278,-0.337,0.292,0.017,0.014,-0.002,3.094,15.778,-11.963,-4.004,-0.043679,0.162035
18:51:52:873858,1.74533e-05,-0.58198,1.18749,-6.98132e-05,1.35184,8.72665e-05,0,0,0,0,0,0,0.285,-0.338,0.289,0.018,0.015,-0.002,1.806,16.513,-12.187,-3.696,0,0.146536
18:51:52:878858,1.74533e-05,-0.58198,1.18749,-6.98132e-05,1.35184,8.72665e-05,0,0,0,0,0,0,0.352,-0.342,0.171,0.02,0.017,-0.002,2.408,16.359,-12.166,-3.934,-0.045088,0.107084
18:51:52:883806,1.74533e-05,-0.58198,1.1875,-6.98132e-05,1.35184,6.98132e-05,0,0,0,0,0,0,0.414,-0.348,0.033,0.021,0.019,-0.002,2.422,16.352,-11.879,-4.389,-0.050724,0.16908
18:51:52:888915,1.74533e-05,-0.581963,1.1875,-6.98132e-05,1.35184,6.98132e-05,0,0,0,0,0,0,0.474,-0.359,-0.151,0.022,0.021,0,1.722,16.653,-11.655,-3.332,-0.100039,0.240939
18:51:52:893968,1.74533e-05,-0.581963,1.1875,-6.98132e-05,1.35184,6.98132e-05,0,0,0,0,0,0,0.492,-0.375,-0.184,0.022,0.022,0,1.715,16.387,-12.278,-4.2,-0.121174,0.131037
18:51:52:899089,1.74533e-05,-0.581963,1.1875,-6.98132e-05,1.35184,5.23599e-05,0,0,0,0,0,0,0.533,-0.433,-0.042,0.024,0.025,0,2.779,16.898,-11.788,-4.27,-0.190215,0.09863
18:51:52:904090,1.74533e-05,-0.581963,1.1875,-6.98132e-05,1.35184,5.23599e-05,0,0,0,0,0,0,0.587,-0.495,0.128,0.026,0.028,-0.001,2.891,16.275,-11.858,-3.878,-0.121174,0.171898
18:51:52:909212,1.74533e-05,-0.581963,1.1875,-6.98132e-05,1.35184,3.49066e-05,0,0,0,0,0,0,0.679,-0.585,0.285,0.029,0.032,-0.003,2.072,16.548,-11.207,-3.878,-0.061996,0.162035
18:51:52:914214,1.74533e-05,-0.581963,1.1875,-6.98132e-05,1.35184,3.49066e-05,0,0,0,0,0,0,0.729,-0.617,0.223,0.031,0.036,-0.003,1.652,17.591,-11.025,-4.025,-0.107084,0.184579
18:51:52:919343,1.74533e-05,-0.581963,1.1875,-6.98132e-05,1.35184,1.74533e-05,0,0,0,0,0,0,0.781,-0.618,-0.061,0.034,0.04,-0.002,2.289,17.248,-11.186,-3.752,-0.08454,0.23953
18:51:52:924289,1.74533e-05,-0.581963,1.1875,-6.98132e-05,1.35184,1.74533e-05,0,0,0,0,0,0,0.808,-0.611,-0.231,0.035,0.043,-0.001,2.401,17.129,-10.409,-3.318,-0.147945,0.119765
18:51:52:929482,1.74533e-05,-0.581963,1.1875,-6.98132e-05,1.35184,0,0,0,0,0,0,-0.00326377,0.845,-0.608,-0.263,0.034,0.046,-0.001,2.457,17.752,-10.157,-4.242,-0.195851,0.077495
18:51:52:934411,1.74533e-05,-0.581963,1.1875,-6.98132e-05,1.35183,0,0,0,0,0,0,-0.00286234,0.886,-0.592,-0.1,0.032,0.049,-0.002,1.827,17.787,-10.283,-3.339,-0.111311,0.185988
18:51:52:939602,1.74533e-05,-0.581963,1.1875,-6.98132e-05,1.35183,-1.74533e-05,0,0,0,0,0,-0.00233874,0.928,-0.562,0.005,0.03,0.051,-0.003,1.407,17.437,-9.961,-3.619,-0.240939,0.125401
18:51:52:944590,1.74533e-05,-0.581963,1.18752,-6.98132e-05,1.35183,-1.74533e-05,0,0,0,0,0,0,1.022,-0.509,0.084,0.029,0.055,-0.004,1.232,18.326,-6.643,-3.696,-0.345205,0.156399
18:51:52:949677,1.74533e-05,-0.581963,1.18752,-6.98132e-05,1.35181,-5.23599e-05,0,0,0,0,0,-0.00352557,1.097,-0.486,0.101,0.028,0.058,-0.004,1.344,17.976,-8.89,-3.899,-0.121174,0.029589
18:51:52:954713,1.74533e-05,-0.581963,1.18752,-6.98132e-05,1.35181,-5.23599e-05,0,0,0,0,0,-0.00258309,1.19,-0.48,0.092,0.026,0.062,-0.004,1.232,18.172,-8.827,-4.137,-0.207123,0.221213
18:51:52:959861,1.74533e-05,-0.581963,1.18754,-6.98132e-05,1.35179,-6.98132e-05,0,0,0.0021293,0,-0.00216421,-0.00340339,1.224,-0.48,0.052,0.023,0.066,-0.004,1.232,19.635,-8.631,-4.053,-0.252211,0.107084
18:51:52:964856,1.74533e-05,-0.581963,1.18756,-6.98132e-05,1.35179,-8.72665e-05,0,0,0.00254818,0,0,-0.0029147,1.247,-0.453,-0.068,0.019,0.071,-0.004,0.931,18.718,-7.483,-4.627,-0.315616,0.102857
18:51:52:969979,1.74533e-05,-0.581963,1.18757,-6.98132e-05,1.35179,-0.00010472,0,0,0.00356047,0,0,-0.00303687,1.271,-0.409,-0.169,0.016,0.074,-0.003,1.043,19.88,-8.869,-3.556,-0.359295,0.242348
18:51:52:974962,1.74533e-05,-0.581963,1.18759,-6.98132e-05,1.35177,-0.00010472,0,0,0.00294961,0,0,-0.00263545,1.345,-0.315,-0.301,0.012,0.079,-0.002,0.917,19.068,-8.624,-3.619,-0.335342,0.057769
18:51:52:979911,1.74533e-05,-0.581963,1.18761,-6.98132e-05,1.35176,-0.000122173,0,0,0.00333358,0,-0.00287979,-0.00235619,1.406,-0.252,-0.35,0.01,0.081,-0.002,0.28,19.803,-8.407,-4.298,-0.274755,0.222622
18:51:52:985106,1.74533e-05,-0.581963,1.18763,-6.98132e-05,1.35174,-0.000122173,0,0,0.00385718,0,-0.00354302,-0.00218166,1.47,-0.18,-0.355,0.006,0.085,-0.002,0.784,20.153,-7.392,-3.787,-0.250802,0.128219
18:51:52:990090,1.74533e-05,-0.581963,1.18764,-6.98132e-05,1.35171,-0.00015708,0,0,0.00303687,0,-0.00404916,-0.00356047,1.489,-0.153,-0.346,0.004,0.087,-0.002,0.266,20.118,-7.476,-6.363,-0.307162,0.101448
18:51:52:995226,1.74533e-05,-0.581963,1.18766,-8.72665e-05,1.35169,-0.00015708,0,0,0.00347321,0,-0.00462512,-0.00305433,1.511,-0.136,-0.405,0.002,0.091,-0.002,0.378,20.965,-6.349,-3.899,-0.280391,0.122583
18:51:53:157,0,-0.581945,1.18768,-8.72665e-05,1.35167,-0.000174533,0,0,0.00376991,0,-0.00483456,-0.00246091,1.536,-0.14,-0.501,0.002,0.092,-0.001,0.406,21.245,-6.055,-4.018,-0.29589,0.149354
18:51:53:5348,0,-0.581945,1.1877,-8.72665e-05,1.35165,-0.000174533,0,0,0.00387463,0,-0.00464258,-0.00223402,1.579,-0.163,-0.604,0.002,0.093,0,0.931,22.442,-5.488,-3.836,-0.357886,0.325479
18:51:53:10303,0,-0.581945,1.18773,-8.72665e-05,1.35162,-0.000191986,0,0,0.00464258,0,-0.00481711,-0.0023911,1.595,-0.199,-0.502,0.002,0.093,-0.001,0.182,21.994,-4.767,-3.556,-0.429745,0.307162
18:51:53:15466,0,-0.581928,1.18775,-8.72665e-05,1.3516,-0.00020944,0,0,0.00577704,0,-0.00453786,-0.00218166,1.586,-0.221,-0.335,0.002,0.093,-0.002,-0.168,22.449,-4.613,-3.955,-0.355068,0.122583
18:51:53:20477,0,-0.581928,1.18778,-8.72665e-05,1.35155,-0.00020944,0,0,0.00567232,0,-0.00610865,-0.00223402,1.563,-0.242,-0.138,0.003,0.092,-0.003,0.714,22.589,-4.256,-3.178,-0.426927,0
18:51:53:25602,0,-0.581928,1.18782,-8.72665e-05,1.35151,-0.000226893,0,0,0.00644026,0,-0.00750492,-0.00232129,1.553,-0.243,-0.152,0.003,0.091,-0.003,0.448,22.855,-3.752,-3.619,-0.345205,0.081722
18:51:53:30601,0,-0.58191,1.18785,-8.72665e-05,1.3515,-0.000226893,0,0,0.00670206,0,-0.00733038,-0.00260054,1.545,-0.23,-0.389,0.005,0.088,-0.002,0.322,22.89,-3.276,-3.948,-0.359295,0.204305
18:51:53:35738,0,-0.58191,1.18789,-8.72665e-05,1.35146,-0.000244346,0,0.00202458,0.00626573,0,-0.00642281,-0.00246091,1.53,-0.224,-0.564,0.006,0.086,0,-0.504,23.856,-2.583,-3.682,-0.45088,0.287436
18:51:53:40740,0,-0.581893,1.18792,-8.72665e-05,1.35141,-0.000244346,0,0.00169297,0.00698132,0,-0.00745256,0,1.472,-0.245,-0.611,0.007,0.082,0,-0.399,24.262,-2.128,-4.165,-0.269119,0.208532
18:51:53:45727,0,-0.581893,1.18796,-8.72665e-05,1.35137,-0.000261799,0,0,0.00820305,0,-0.00785398,0,1.416,-0.282,-0.485,0.008,0.079,0,-0.217,24.073,-1.715,-4.361,-0.379021,0.143718
18:51:53:50850,0,-0.581875,1.18801,-8.72665e-05,1.35132,-0.000261799,0,0.0018326,0.00965167,0,-0.00774926,0,1.341,-0.345,-0.282,0.009,0.073,-0.001,-0.042,25.368,-1.792,-4.375,-0.442426,0.208532
18:51:53:55800,0,-0.581858,1.18808,-8.72665e-05,1.35129,-0.000279253,0,0.00211185,0.0100007,0,-0.00938987,-0.00219911,1.307,-0.374,-0.245,0.01,0.069,0,-0.287,24.731,-1.617,-3.766,-0.522739,0.128219
18:51:53:60973,0,-0.58184,1.18813,-8.72665e-05,1.35123,-0.000279253,0,0.00335103,0.0122697,0,-0.00904081,0,1.264,-0.395,-0.267,0.013,0.063,0,-0.077,25.928,-1.001,-3.92,-0.384657,0.145127
18:51:53:65920,0,-0.581823,1.1882,-8.72665e-05,1.3512,-0.000279253,0,0.00286234,0.0128805,0,-0.00876155,0,1.222,-0.411,-0.224,0.015,0.058,0,-0.133,26.25,-1.232,-4.319,-0.302935,0.274755
18:51:53:71082,0,-0.581805,1.18827,-8.72665e-05,1.35115,-0.000279253,0,0.00406662,0.0136834,0,-0.0100007,0,1.119,-0.46,-0.058,0.017,0.051,-0.002,0.147,26.607,-0.707,-3.92,-0.319843,0.143718
18:51:53:76029,0,-0.581788,1.18834,-8.72665e-05,1.35109,-0.000296706,0,0.00466003,0.0140499,0,-0.0104196,0,1.028,-0.503,0.03,0.017,0.047,-0.003,0.42,25.249,-0.98,-3.619,-0.307162,0.147945
18:51:53:81175,0,-0.581753,1.18841,-8.72665e-05,1.35102,-0.000314159,0,0.0047473,0.0132994,0,-0.0111177,0,0.888,-0.543,0.032,0.017,0.04,-0.003,-0.056,25.732,0,-4.305,-0.208532,0.170489
18:51:53:86226,0,-0.581718,1.18846,-8.72665e-05,1.35095,-0.000314159,0,0.00568977,0.0121824,0,-0.0133518,0,0.814,-0.536,-0.02,0.017,0.035,-0.003,-0.357,27.097,0.343,-3.703,-0.246575,0.090176
18:51:53:91293,0,-0.581701,1.18853,-8.72665e-05,1.35088,-0.000331613,0,0.00455531,0.0117112,0,-0.0125664,0,0.738,-0.493,-0.071,0.017,0.027,-0.003,0.028,27.237,0.273,-4.179,-0.246575,0.256438
18:51:53:96326,0,-0.581683,1.18859,-8.72665e-05,1.35083,-0.000331613,0,0.00488692,0.0109083,0,-0.0126885,-0.0026529,0.664,-0.467,-0.041,0.016,0.019,-0.003,-0.686,26.894,0.644,-4.207,-0.163444,0.235303
18:51:53:101455,0,-0.581648,1.18864,-8.72665e-05,1.35078,-0.000331613,0,0.00420624,0.0116937,0,-0.0109781,0,0.596,-0.473,-0.001,0.015,0.013,-0.003,-0.546,27.16,0.483,-4.004,-0.363522,0.100039
18:51:53:106470,0,-0.581631,1.18871,-8.72665e-05,1.35073,-0.000349066,0,0.00462512,0.0124442,0,-0.0102451,0,0.48,-0.491,0.03,0.013,0.005,-0.003,-0.133,27.657,1.393,-3.689,-0.138082,0.150763
18:51:53:111579,0,-0.581596,1.18878,-8.72665e-05,1.35068,-0.000366519,0,0.00560251,0.0135961,0,-0.0101404,0,0.415,-0.489,0.03,0.011,0,-0.003,-0.406,27.188,0.651,-3.892,-0.02818,0.143718
18:51:53:116546,0,-0.581579,1.18885,-8.72665e-05,1.35061,-0.000366519,0,0.00532325,0.0139626,0,-0.0111527,0,0.34,-0.459,0.059,0.009,-0.009,-0.004,-0.574,27.503,0.343,-4.032,-0.046497,0.232485
18:51:53:121560,0,-0.581544,1.18894,-8.72665e-05,1.35055,-0.000366519,0,0.00605629,0.0165806,0,-0.0103498,0,0.284,-0.432,0.12,0.007,-0.015,-0.005,-0.497,27.433,-0.098,-4.508,-0.071859,0.209941
18:51:53:126703,0,-0.581526,1.18904,-8.72665e-05,1.3505,-0.000383972,0,0.00490437,0.018134,0,-0.0100356,0,0.176,-0.397,0.222,0.005,-0.023,-0.007,-0.903,27.048,-0.756,-3.381,-0.053542,0.054951
18:51:53:131731,0,-0.581491,1.18913,-8.72665e-05,1.35047,-0.000383972,0,0.0042586,0.0190415,0,-0.00815069,-0.00244346,0.108,-0.38,0.231,0.004,-0.026,-0.007,-0.42,26.74,-1.701,-3.367,-0.050724,0.277573
18:51:53:136848,0,-0.581474,1.18923,-8.72665e-05,1.35045,-0.000383972,0,0.00471239,0.0202284,0,-0.00570723,0,0.048,-0.363,0.123,0.003,-0.03,-0.007,-0.994,26.803,-1.715,-3.409,-0.05636,0.228258
18:51:53:141845,0,-0.581456,1.18935,-8.72665e-05,1.35043,-0.000401426,0,0.00443314,0.0214152,0,-0.0044855,0,0.028,-0.35,0.028,0.002,-0.033,-0.006,-0.77,28.007,-2.072,-3.892,-0.131037,-0.016908
18:51:53:146971,0,-0.581439,1.18946,-8.72665e-05,1.35041,-0.000401426,0,0.00357793,0.0217817,0,-0.00392699,0,-0.008,-0.323,0.014,0.001,-0.035,-0.006,-1.008,27.356,-4.473,-3.843,0.046497,0.162035
18:51:53:151920,0,-0.581439,1.18958,-8.72665e-05,1.3504,-0.000418879,0,0.00216421,0.0225497,0,-0.00389208,0,-0.041,-0.31,0.131,0,-0.038,-0.008,-0.588,27.769,-4.704,-3.787,-0.121174,0.097221
18:51:53:157101,0,-0.581422,1.18969,-8.72665e-05,1.35036,-0.000418879,0,0.00221657,0.0213803,0,-0.00376991,-0.00211185,-0.075,-0.311,0.353,-0.002,-0.043,-0.01,-0.588,27.881,-5.096,-3.976,0.009863,0.138082
18:51:53:162094,0,-0.581404,1.18977,-8.72665e-05,1.35036,-0.000418879,0,0.00226893,0.0165981,0,-0.00240855,0,-0.078,-0.317,0.383,-0.003,-0.047,-0.011,-1.155,27.069,-4.76,-3.731,-0.07045,0.071859
18:51:53:167205,0,-0.581404,1.18981,-8.72665e-05,1.35034,-0.000418879,0,0.00174533,0.0115017,0,0,0,-0.079,-0.296,0.152,-0.003,-0.053,-0.01,-0.994,27.433,-4.956,-4.046,-0.060587,0.090176
18:51:53:172206,0,-0.581404,1.18983,-8.72665e-05,1.35034,-0.000436332,0,0,0.00719076,0,-0.0021293,0,-0.098,-0.26,-0.068,-0.002,-0.057,-0.009,-1.267,27.09,-3.934,-4.004,0.050724,0.181761
18:51:53:177346,0,-0.581404,1.18983,-8.72665e-05,1.35034,-0.000436332,0,0,0.00286234,0,0,-0.00219911,-0.161,-0.212,-0.2,-0.001,-0.063,-0.008,-1.141,26.964,-3.78,-4.137,0.009863,0.171898
18:51:53:182303,0,-0.581404,1.18984,-8.72665e-05,1.35033,-0.000436332,0,0,0.00162316,0,0,0,-0.254,-0.211,-0.034,-0.001,-0.072,-0.01,-0.623,26.439,-3.724,-4.004,0.005636,0.125401
18:51:53:187454,0,-0.581404,1.18984,-8.72665e-05,1.35033,-0.000453786,0,0,0,0,0,0,-0.332,-0.221,0.094,-0.002,-0.078,-0.012,-1.029,26.978,-3.654,-3.864,0.032407,0.108493
18:51:53:192409,0,-0.581404,1.18984,-8.72665e-05,1.35033,-0.000453786,0,0,0,0,0,0,-0.468,-0.21,0.097,-0.003,-0.088,-0.013,-0.938,26.985,-3.402,-4.305,-0.085949,0.205714
18:51:53:197581,0,-0.581404,1.18984,-8.72665e-05,1.35033,-0.000471239,0,0,0,0,0,0,-0.558,-0.18,-0.024,-0.002,-0.096,-0.013,-1.547,26.803,-4.228,-3.584,-0.012681,0.131037
18:51:53:202594,0,-0.581404,1.18984,-8.72665e-05,1.35033,-0.000471239,0,0,0,0,0,0,-0.66,-0.142,-0.219,0,-0.107,-0.013,-1.155,26.922,-4.123,-3.444,0.074677,0.090176
18:51:53:207717,0,-0.581404,1.18984,-8.72665e-05,1.35033,-0.000471239,0,0,0,0,0,0,-0.698,-0.15,-0.267,0.004,-0.113,-0.013,-0.392,26.194,-5.068,-3.843,0.009863,0.332524
18:51:53:212700,0,-0.581404,1.18983,-8.72665e-05,1.35033,-0.000471239,0,0,0,0,0,0,-0.727,-0.218,-0.191,0.01,-0.122,-0.014,-0.889,25.914,-5.348,-3.934,0.022544,0.100039
18:51:53:217699,0,-0.581404,1.18983,-8.72665e-05,1.35033,-0.000471239,0,0,0,0,0,0,-0.742,-0.276,-0.085,0.012,-0.125,-0.015,-0.973,25.697,-5.929,-3.92,0.114129,0.173307
18:51:53:222826,0,-0.581404,1.18983,-8.72665e-05,1.35034,-0.000471239,0,0,0,0,0,0,-0.756,-0.328,0.042,0.015,-0.123,-0.016,-0.455,25.088,-6.741,-3.99,0.145127,0.049315
18:51:53:227825,0,-0.581404,1.18983,-8.72665e-05,1.35034,-0.000471239,0,0,0,0,0.00235619,0,-0.737,-0.328,0.043,0.016,-0.118,-0.016,-0.896,24.409,-7.595,-4.046,0.215577,0.152172
18:51:53:232949,0,-0.581404,1.18983,-8.72665e-05,1.35034,-0.000471239,0,0,0,0,0,0,-0.631,-0.294,-0.119,0.019,-0.107,-0.014,-1.47,24.647,-7.924,-3.339,0.202896,0.138082
18:51:53:237950,0,-0.581404,1.18983,-8.72665e-05,1.35036,-0.000488692,0,0,0,0,0.00319395,0,-0.527,-0.276,-0.268,0.02,-0.101,-0.011,-0.735,23.884,-8.582,-3.976,0.139491,0.207123
18:51:53:242895,0,-0.581404,1.18981,-8.72665e-05,1.3504,-0.000488692,0,0,-0.00218166,0,0.00404916,0,-0.397,-0.3,-0.333,0.023,-0.095,-0.01,-1.491,22.764,-9.443,-3.878,0.121174,0.142309
18:51:53:248030,0,-0.581404,1.18979,-8.72665e-05,1.35041,-0.000488692,0,0,-0.00251327,0,0.00279253,0,-0.351,-0.357,-0.214,0.026,-0.092,-0.01,-1.008,23.058,-9.884,-3.801,0.142309,0.147945
18:51:53:253212,0,-0.581404,1.18977,-8.72665e-05,1.35043,-0.000488692,0,0,-0.00324631,0,0.00467748,0,-0.297,-0.464,0.036,0.031,-0.086,-0.012,-1.624,22.645,-10.612,-3.647,0.107084,-0.005636
18:51:53:258194,0,-0.581404,1.18974,-8.72665e-05,1.35047,-0.000488692,0,0,-0.00424115,0,0.00575959,0,-0.237,-0.513,0.096,0.035,-0.081,-0.012,-1.246,21.917,-11.312,-3.409,0.233894,0.224031
18:51:53:263164,0,-0.581404,1.18972,-8.72665e-05,1.3505,-0.000488692,0,0,-0.00555015,0,0.00647517,0,-0.12,-0.523,-0.003,0.038,-0.073,-0.011,-1.211,21.028,-11.627,-3.857,0.202896,0.074677
18:51:53:268318,-1.74533e-05,-0.581404,1.18969,-8.72665e-05,1.35054,-0.000506145,0,0,-0.00644026,0,0.00797615,0,-0.042,-0.469,-0.1,0.037,-0.069,-0.009,-0.987,21.014,-12.194,-3.689,0.359295,0.115538
18:51:53:273324,-1.74533e-05,-0.581422,1.18965,-8.72665e-05,1.35057,-0.000523599,0,0,-0.00673697,0,0.0071733,0,-0.023,-0.415,-0.09,0.035,-0.063,-0.009,-1.498,21.196,-12.369,-4.452,0.21135,0.090176
18:51:53:278447,-1.74533e-05,-0.581422,1.18962,-8.72665e-05,1.35061,-0.000523599,0,0,-0.00584685,0,0.00832522,-0.00289725,-0.015,-0.343,-0.056,0.033,-0.057,-0.008,-1.169,19.131,-13.335,-4.018,0.163444,0.23953
18:51:53:283464,-1.74533e-05,-0.581422,1.18958,-8.72665e-05,1.35066,-0.000523599,0,0,-0.00694641,0,0.00701622,0,-0.009,-0.323,-0.068,0.034,-0.053,-0.007,-2.226,19.355,-12.922,-3.703,0.224031,0.147945
18:51:53:288414,-1.74533e-05,-0.581422,1.18955,-8.72665e-05,1.35069,-0.000541052,0,0,-0.00685914,0,0.00844739,-0.00280998,-0.003,-0.346,-0.068,0.036,-0.048,-0.007,-1.61,19.18,-13.839,-3.934,0.21135,0.233894
18:51:53:293573,-1.74533e-05,-0.581439,1.18951,-8.72665e-05,1.35075,-0.000558505,0,0,-0.00755728,0,0.0093026,-0.00225147,0,-0.378,-0.019,0.038,-0.044,-0.008,-1.813,19.768,-14.987,-3.612,0.201487,0.029589
18:51:53:298519,-1.74533e-05,-0.581439,1.18948,-8.72665e-05,1.3508,-0.000575959,0,0,-0.00780162,0,0.00832522,-0.00246091,0.034,-0.403,0.046,0.039,-0.037,-0.008,-2.037,19.292,-14.154,-3.304,0.362113,0.069041
18:51:53:303697,-1.74533e-05,-0.581456,1.18942,-8.72665e-05,1.35083,-0.000575959,0,0,-0.00916298,0,0.00933751,0,0.094,-0.392,0.006,0.038,-0.032,-0.007,-1.694,18.599,-13.937,-4.018,0.100039,0.132446
18:51:53:308714,-3.49066e-05,-0.581456,1.18935,-8.72665e-05,1.35088,-0.000593412,0,0,-0.0112225,0,0.0105941,-0.00305433,0.229,-0.361,-0.164,0.038,-0.024,-0.005,-2.478,18.669,-14.182,-4.018,0.190215,0.143718
18:51:53:313835,-3.49066e-05,-0.581456,1.18928,-8.72665e-05,1.35094,-0.000593412,0,0,-0.012898,0,0.00919789,-0.00246091,0.314,-0.356,-0.244,0.039,-0.019,-0.004,-1.813,18.312,-14.07,-3.5,0.163444,0.046497
18:51:53:318816,-3.49066e-05,-0.581474,1.1892,-8.72665e-05,1.35099,-0.000610865,0,-0.00181514,-0.0170693,0,0.0100531,0,0.375,-0.396,-0.141,0.041,-0.011,-0.005,-1.876,18.011,-14.189,-3.682,0.080313,0.108493
18:51:53:323961,-5.23599e-05,-0.581474,1.18909,-8.72665e-05,1.35102,-0.000628319,0,0,-0.0196175,0,0.00923279,0,0.372,-0.442,0.062,0.042,-0.008,-0.006,-2.016,17.493,-12.873,-3.829,0.061996,0.136673
18:51:53:328945,-5.23599e-05,-0.581491,1.18897,-8.72665e-05,1.35108,-0.000628319,0,-0.00214676,-0.0211883,0,0.00980875,-0.00214676,0.356,-0.487,0.36,0.043,-0.003,-0.009,-2.527,18.277,-11.522,-3.752,0.125401,0.004227
18:51:53:334068,-6.98132e-05,-0.581491,1.18885,-8.72665e-05,1.35113,-0.000645772,-0.00179769,-0.0018675,-0.0240855,0,0.010088,-0.00336849,0.369,-0.481,0.409,0.045,0,-0.01,-1.869,17.57,-11.473,-3.339,0.139491,0
18:51:53:339082,-6.98132e-05,-0.581509,1.18871,-8.72665e-05,1.35118,-0.000680678,0,-0.00181514,-0.0257785,0,0.00870919,-0.00431096,0.425,-0.437,0.188,0.047,0.005,-0.008,-1.757,17.381,-10.381,-3.276,0.263483,0.11272
18:51:53:344208,-8.72665e-05,-0.581509,1.18857,-8.72665e-05,1.35122,-0.000680678,-0.00221657,-0.00174533,-0.0259181,0,0.00834267,-0.00305433,0.472,-0.416,-0.054,0.049,0.01,-0.006,-2.709,16.863,-10.71,-3.934,0.204305,0.167671
18:51:53:349209,-8.72665e-05,-0.581526,1.18845,-8.72665e-05,1.35125,-0.000698132,-0.00176278,-0.00176278,-0.0265814,0,0.00708604,-0.003735,0.548,-0.434,-0.302,0.053,0.018,-0.003,-2.198,16.667,-9.205,-3.969,0.054951,0.057769
18:51:53:354319,-0.00010472,-0.581526,1.18832,-8.72665e-05,1.35127,-0.000715585,-0.00172788,0,-0.0237888,0,0.00544543,-0.00256563,0.618,-0.496,-0.274,0.055,0.026,-0.004,-2.352,16.744,-9.632,-3.185,0.022544,0.071859
18:51:53:359326,-0.00010472,-0.581526,1.18824,-8.72665e-05,1.35129,-0.000733038,-0.0016057,0,-0.0193557,0,0.00476475,-0.00359538,0.638,-0.542,-0.153,0.056,0.031,-0.006,-3.017,16.87,-9.233,-4.235,0.123992,0.035225
18:51:53:364315,-0.00010472,-0.581544,1.18819,-8.72665e-05,1.35132,-0.000750492,0,0,-0.0146259,0,0.00432842,-0.00392699,0.616,-0.592,0.016,0.056,0.038,-0.01,-2.632,16.513,-10.129,-4.333,-0.01409,0.167671
18:51:53:369455,-0.000122173,-0.581544,1.18815,-8.72665e-05,1.35134,-0.000785398,0,0,-0.00872665,0,0.0042237,-0.00413643,0.603,-0.599,0.055,0.056,0.044,-0.012,-3.213,16.429,-10.605,-3.423,-0.033816,-0.002818
18:51:53:374443,-0.000122173,-0.581544,1.18813,-8.72665e-05,1.35134,-0.000785398,0,0,-0.00528835,0,0.00275762,-0.00336849,0.673,-0.574,-0.019,0.056,0.053,-0.013,-3.017,16.576,-10.724,-3.745,0.122583,-0.036634
18:51:53:379457,-0.000122173,-0.581544,1.18813,-8.72665e-05,1.35136,-0.000802851,0,0,-0.00274017,0,0.00329867,-0.00282743,0.786,-0.551,-0.116,0.057,0.059,-0.013,-3.409,16.814,-11.529,-3.465,0.012681,0.125401
18:51:53:384582,-0.000139626,-0.581544,1.18813,-8.72665e-05,1.35137,-0.000820305,0,0,-0.00164061,0,0.00254818,-0.0034383,0.975,-0.548,-0.215,0.058,0.067,-0.012,-3.206,16.352,-12.145,-3.955,0.060587,0.046497
18:51:53:389688,-0.000139626,-0.581544,1.18812,-8.72665e-05,1.35139,-0.000837758,0,0,0,0,0.00244346,-0.00342085,1.066,-0.571,-0.208,0.058,0.072,-0.012,-2.94,16.086,-11.319,-3.521,-0.039452,0.012681
18:51:53:394686,-0.00015708,-0.581544,1.18812,-8.72665e-05,1.35139,-0.000855211,0,0,0,0,0,-0.0039968,1.14,-0.608,-0.125,0.058,0.08,-0.014,-3.577,15.806,-11.543,-3.864,0.063405,-0.022544
18:51:53:399732,-0.00015708,-0.581544,1.18812,-8.72665e-05,1.35139,-0.000872665,0,0,0,0,0,-0.00272271,1.169,-0.613,-0.074,0.059,0.085,-0.016,-3.64,16.891,-10.976,-3.668,0.016908,0.022544
18:51:53:404816,-0.00015708,-0.581544,1.18812,-8.72665e-05,1.35139,-0.000907571,0,0,0,0,0,-0.00305433,1.202,-0.602,-0.036,0.06,0.094,-0.018,-3.619,16.737,-10.381,-3.409,-0.060587,0.059178
18:51:53:409817,-0.000174533,-0.581544,1.18812,-8.72665e-05,1.35139,-0.000907571,-0.00218166,0,0,0,0,-0.00342085,1.216,-0.607,-0.032,0.061,0.099,-0.019,-4.011,16.814,-10.129,-3.731,0.053542,-0.101448
18:51:53:414939,-0.000191986,-0.581544,1.18812,-8.72665e-05,1.35139,-0.000942478,-0.00244346,0,0,0,0,-0.00352557,1.231,-0.635,-0.065,0.061,0.105,-0.02,-4.802,18.06,-9.87,-3.696,0.009863,-0.147945
18:51:53:419957,-0.00020944,-0.581544,1.18812,-8.72665e-05,1.35139,-0.000959931,-0.00345575,0,0,0,0,-0.00527089,1.242,-0.643,-0.125,0.061,0.108,-0.021,-3.444,17.899,-9.492,-3.976,-0.019726,0.025362
18:51:53:425098,-0.000226893,-0.581544,1.18812,-8.72665e-05,1.35139,-0.000994838,-0.00385718,0,0,0,0,-0.00445059,1.268,-0.605,-0.23,0.058,0.11,-0.022,-4.144,16.933,-8.715,-3.78,0.015499,0.061996
18:51:53:430079,-0.000244346,-0.581544,1.18812,-8.72665e-05,1.35139,-0.00101229,-0.00483456,0,0,0,0,-0.00555015,1.297,-0.563,-0.257,0.056,0.111,-0.023,-3.955,18.83,-8.428,-3.766,-0.036634,-0.022544
18:51:53:435187,-0.000279253,-0.581544,1.18813,-8.72665e-05,1.35139,-0.00102974,-0.00413643,0,0,0,0,-0.00350811,1.361,-0.532,-0.196,0.054,0.115,-0.026,-4.025,19.565,-7.686,-3.591,-0.036634,-0.038043
18:51:53:440188,-0.000296706,-0.581544,1.18813,-8.72665e-05,1.35139,-0.0010472,-0.00392699,0,0,0,0,-0.00403171,1.403,-0.537,-0.13,0.053,0.119,-0.027,-4.445,19.229,-6.895,-3.668,-0.104266,-0.115538
18:51:53:445169,-0.000296706,-0.581544,1.18813,-8.72665e-05,1.35139,-0.00106465,-0.00307178,0,0,0,0,-0.00441568,1.427,-0.533,-0.101,0.05,0.124,-0.03,-4.627,19.88,-6.272,-4.039,-0.202896,-0.125401
18:51:53:450328,-0.000331613,-0.581544,1.18813,-8.72665e-05,1.35137,-0.00109956,-0.00340339,0,0,0,0,-0.00443314,1.388,-0.478,-0.187,0.047,0.128,-0.031,-5.376,19.691,-6.083,-3.752,-0.246575,-0.266301
18:51:53:455312,-0.000349066,-0.581544,1.18815,-8.72665e-05,1.35136,-0.00111701,-0.00347321,0,0.00221657,0,0,-0.00595157,1.352,-0.429,-0.254,0.044,0.131,-0.032,-4.837,20.692,-5.208,-3.528,-0.081722,-0.229667
18:51:53:460450,-0.000366519,-0.581544,1.18817,-8.72665e-05,1.35134,-0.00115192,-0.00357793,0,0.00322886,0,-0.00371755,-0.00511381,1.327,-0.368,-0.272,0.038,0.135,-0.034,-4.886,21.315,-4.564,-3.948,-0.278982,-0.146536
18:51:53:465463,-0.000383972,-0.581526,1.1882,-8.72665e-05,1.35132,-0.00116937,-0.00383972,0,0.00528835,0,-0.00455531,-0.00467748,1.333,-0.331,-0.215,0.034,0.137,-0.035,-4.312,22.358,-3.941,-3.906,-0.314207,-0.119765
18:51:53:470574,-0.000401426,-0.581526,1.18824,-8.72665e-05,1.3513,-0.00118682,-0.00310669,0,0.00677188,0,-0.00450295,-0.00431096,1.353,-0.256,-0.079,0.026,0.14,-0.036,-5.033,22.442,-4.291,-4.284,-0.490332,-0.064814
18:51:53:475577,-0.000418879,-0.581526,1.18829,-0.00010472,1.35127,-0.00120428,-0.0037001,0,0.0082205,0,-0.00699877,-0.00453786,1.368,-0.187,0.008,0.02,0.141,-0.037,-4.83,22.141,-3.584,-3.388,-0.319843,-0.26771
18:51:53:480617,-0.000436332,-0.581526,1.18834,-0.00010472,1.35123,-0.00122173,-0.00293215,0,0.00888373,0,-0.00649262,-0.00466003,1.396,-0.072,0.098,0.01,0.144,-0.036,-5.278,23.667,-3.024,-3.122,-0.184579,-0.246575
18:51:53:485703,-0.000453786,-0.581509,1.18838,-0.00010472,1.35118,-0.00123918,-0.00310669,0,0.00923279,0,-0.00764454,-0.00303687,1.425,0.001,0.116,0.003,0.146,-0.036,-6.111,23.156,-1.855,-3.794,-0.331115,-0.269119
18:51:53:490823,-0.000471239,-0.581491,1.18845,-0.00010472,1.35116,-0.00125664,-0.00336849,0.00240855,0.0106465,0,-0.00673697,-0.00356047,1.495,0.076,0.1,-0.002,0.15,-0.035,-5.453,23.709,-1.204,-3.731,-0.377612,-0.143718
18:51:53:495842,-0.000488692,-0.581491,1.1885,-0.00010472,1.35111,-0.00127409,-0.00368264,0.0026529,0.0114668,0,-0.00907571,-0.00371755,1.559,0.08,0.102,-0.001,0.153,-0.035,-5.446,24.325,-0.497,-3.388,-0.340978,-0.287436
18:51:53:500780,-0.000506145,-0.581474,1.18857,-0.00010472,1.35104,-0.001309,-0.00305433,0.00260054,0.0123918,0,-0.0111177,-0.00345575,1.661,-0.002,0.172,0.006,0.16,-0.036,-5.369,25.298,-0.7,-3.409,-0.328297,-0.308571
18:51:53:505938,-0.000506145,-0.581456,1.18864,-0.00010472,1.35095,-0.001309,-0.00275762,0.00347321,0.015132,0,-0.0148702,-0.00216421,1.718,-0.106,0.222,0.014,0.165,-0.037,-5.523,25.501,-0.623,-3.829,-0.308571,-0.266301
18:51:53:511077,-0.000523599,-0.581439,1.18874,-0.00010472,1.35087,-0.00132645,-0.00190241,0.00397935,0.0179594,0,-0.0173311,0,1.792,-0.292,0.169,0.026,0.173,-0.038,-5.642,27.237,0.539,-3.437,-0.317025,-0.204305
18:51:53:516063,-0.000523599,-0.581422,1.18887,-0.00010472,1.3508,-0.00132645,-0.00167552,0.00390954,0.021677,0,-0.0160919,0,1.844,-0.417,0.022,0.033,0.176,-0.037,-6.265,26.936,1.239,-3.451,-0.209941,-0.264892
18:51:53:521081,-0.000523599,-0.581387,1.18901,-0.00010472,1.35071,-0.0013439,0,0.00453786,0.0261625,0,-0.0150971,0,1.918,-0.583,-0.25,0.042,0.181,-0.036,-5.551,27.293,-0.35,-3.675,-0.359295,-0.246575
18:51:53:526185,-0.000541052,-0.581352,1.18918,-0.00010472,1.35061,-0.00136136,0,0.00659734,0.0312414,0,-0.0187797,0,1.95,-0.662,-0.376,0.046,0.184,-0.036,-6.979,27.468,0.133,-3.514,-0.163444,-0.191624
18:51:53:531187,-0.000541052,-0.581299,1.18939,-0.00010472,1.3505,-0.00136136,0,0.00841249,0.0369312,0,-0.0200713,0,1.97,-0.707,-0.453,0.048,0.188,-0.036,-6.041,27.86,-1.162,-3.731,-0.318434,-0.308571
18:51:53:536309,-0.000541052,-0.581247,1.18963,-0.00010472,1.3504,-0.00137881,0,0.00972148,0.0441394,0,-0.0196175,-0.00331613,2.004,-0.657,-0.502,0.044,0.193,-0.036,-6.251,28.21,-2.716,-3.192,-0.057769,-0.174716
18:51:53:541335,-0.000541052,-0.581177,1.1899,-0.00010472,1.35033,-0.00141372,0,0.0116937,0.0488867,0,-0.0162141,-0.00424115,2.054,-0.587,-0.544,0.039,0.195,-0.036,-6.16,28.567,-3.374,-3.22,-0.238121,-0.348023
18:51:53:546437,-0.000541052,-0.581107,1.19012,-0.00010472,1.35026,-0.00141372,0,0.0137008,0.0475253,0,-0.0150971,-0.00324631,2.135,-0.456,-0.549,0.03,0.199,-0.037,-6.671,28.812,-3.423,-3.906,-0.149354,-0.441017
18:51:53:551461,-0.000541052,-0.581038,1.19033,-0.00010472,1.35019,-0.00143117,0,0.0148528,0.042237,0,-0.0150622,-0.00390954,2.161,-0.355,-0.49,0.024,0.201,-0.038,-6.972,29.386,-2.345,-3.983,-0.246575,-0.301526
18:51:53:556390,-0.000558505,-0.58095,1.19054,-0.00010472,1.35012,-0.00144862,0,0.0153764,0.0406487,0,-0.0150098,-0.00263545,2.15,-0.173,-0.405,0.014,0.201,-0.039,-6.664,29.687,-2.198,-3.451,-0.188806,-0.481878
18:51:53:561509,-0.000558505,-0.580863,1.19073,-0.00010472,1.35003,-0.00146608,0,0.0172613,0.0406138,0,-0.0158127,-0.00254818,2.133,-0.038,-0.431,0.006,0.2,-0.038,-6.769,29.687,-1.498,-3.5,-0.240939,-0.364931
18:51:53:566683,-0.000575959,-0.580758,1.19096,-0.00010472,1.34994,-0.00146608,-0.00211185,0.0199317,0.0427955,0,-0.0168424,-0.00251327,2.102,0.136,-0.608,-0.003,0.196,-0.036,-6.657,29.358,-1.687,-3.549,-0.263483,-0.202896
18:51:53:571650,-0.000575959,-0.580636,1.19122,-0.00010472,1.34986,-0.00148353,-0.00253073,0.0221831,0.0476649,0,-0.0171042,0,2.047,0.202,-0.743,-0.007,0.194,-0.035,-6.349,29.274,-2.394,-3.528,-0.207123,-0.417064
18:51:53:576815,-0.000593412,-0.580496,1.1915,-0.00010472,1.34977,-0.00150098,-0.00270526,0.0262672,0.0536165,0,-0.0168773,-0.00354302,1.87,0.215,-0.845,-0.007,0.189,-0.035,-6.167,29.267,-2.975,-4.326,-0.308571,-0.543874
18:51:53:581825,-0.000610865,-0.580339,1.19182,-0.00010472,1.34968,-0.00151844,-0.00251327,0.0277856,0.0580322,0,-0.0162316,-0.00298451,1.718,0.201,-0.824,-0.006,0.185,-0.035,-6.846,29.106,-3.857,-3.654,-0.259256,-0.21135
18:51:53:586831,-0.000628319,-0.580182,1.19211,-0.00010472,1.34961,-0.00151844,-0.00326377,0.0297928,0.0570723,0,-0.0166504,-0.00254818,1.544,0.225,-0.719,-0.01,0.178,-0.035,-6.391,29.785,-3.689,-3.983,-0.262074,-0.469197
18:51:53:591899,-0.000663225,-0.580025,1.19232,-0.00010472,1.34952,-0.00151844,-0.00457276,0.0314508,0.0488867,0,-0.0163712,0,1.506,0.29,-0.67,-0.016,0.173,-0.033,-6.251,28.259,-2.583,-3.626,-0.291663,-0.342387
18:51:53:597078,-0.000680678,-0.579851,1.1925,-0.00010472,1.34944,-0.00153589,-0.00518363,0.033807,0.039968,0,-0.0148528,0,1.549,0.449,-0.758,-0.029,0.169,-0.028,-6.958,28.672,-0.651,-3.703,-0.395929,-0.487514
18:51:53:602078,-0.000715585,-0.579676,1.19267,-0.00010472,1.34937,-0.00155334,-0.00523599,0.0330391,0.0363028,0,-0.0154462,-0.00315905,1.62,0.563,-0.933,-0.036,0.17,-0.024,-5.831,28.168,0.931,-3.325,-0.525557,-0.477651
18:51:53:607058,-0.000733038,-0.579519,1.19286,-0.00010472,1.3493,-0.00155334,-0.005044,0.032882,0.0381529,0,-0.0153065,0,1.772,0.672,-1.188,-0.039,0.179,-0.019,-6.125,28,0.63,-3.465,-0.453698,-0.393111
18:51:53:612200,-0.000767945,-0.579362,1.19309,-0.00010472,1.34919,-0.0015708,-0.00584685,0.0325678,0.0415388,0,-0.0176453,0,1.905,0.659,-1.202,-0.036,0.19,-0.017,-4.802,27.594,0.273,-3.906,-0.466379,-0.477651
18:51:53:617184,-0.000785398,-0.57917,1.19333,-0.00010472,1.3491,-0.0015708,-0.00520108,0.0339816,0.0469843,0,-0.0168773,-0.00237365,2.132,0.496,-0.943,-0.025,0.208,-0.017,-4.585,27.72,-0.35,-3.815,-0.600234,-0.405792
18:51:53:622314,-0.000820305,-0.578996,1.19363,-0.00010472,1.34903,-0.0015708,-0.00493928,0.0354476,0.0535118,0,-0.0157429,0,2.273,0.328,-0.721,-0.015,0.219,-0.017,-4.984,27.608,-1.169,-2.989,-0.4227,-0.249393
18:51:53:627325,-0.000837758,-0.578821,1.19394,-0.00010472,1.34895,-0.0015708,-0.00485202,0.0354651,0.0594983,0,-0.0163014,0,2.433,0.069,-0.575,0,0.231,-0.016,-5.705,27.055,-2.919,-4.249,-0.552328,-0.374794
18:51:53:632451,-0.000872665,-0.578629,1.19426,-0.00010472,1.34886,-0.00158825,-0.00408407,0.0361632,0.061104,0,-0.0170344,0,2.543,-0.151,-0.661,0.016,0.239,-0.013,-5.341,26.866,-3.262,-3.171,-0.639686,-0.146536
18:51:53:637395,-0.000872665,-0.578437,1.19456,-0.00010472,1.34879,-0.00158825,-0.00324631,0.0376118,0.0587129,0,-0.0157603,0,2.632,-0.27,-0.732,0.024,0.244,-0.012,-4.375,26.831,-2.331,-3.297,-0.641095,-0.412837
18:51:53:642382,-0.000890118,-0.578245,1.19483,-0.00010472,1.34869,-0.00158825,-0.00198968,0.0378038,0.0556062,0,-0.0162316,0,2.883,-0.393,-0.765,0.033,0.252,-0.012,-5.327,26.859,-2.618,-3.829,-0.684774,-0.483287
18:51:53:647575,-0.000890118,-0.578053,1.19513,-0.00010472,1.34862,-0.00158825,-0.00242601,0.0371406,0.0591318,0,-0.0176802,0,3.157,-0.426,-0.792,0.036,0.263,-0.011,-5.054,26.859,-1.708,-3.878,-0.646731,-0.381839
18:51:53:652523,-0.000907571,-0.577879,1.19546,-0.00010472,1.34851,-0.00158825,-0.0021293,0.0371581,0.0646295,0,-0.0190241,0,3.671,-0.399,-0.971,0.037,0.288,-0.01,-5.229,26.894,-1.974,-3.5,-0.66223,-0.318434
18:51:53:657704,-0.000907571,-0.577686,1.19581,-0.00010472,1.34839,-0.00158825,0,0.0365996,0.0664272,0,-0.0212232,0,3.996,-0.335,-1.174,0.035,0.308,-0.009,-5.53,26.789,-2.863,-3.752,-0.673502,-0.428336
18:51:53:662643,-0.000907571,-0.577512,1.19613,-0.00010472,1.34827,-0.0016057,0,0.0346797,0.063722,0,-0.0219737,0,4.32,-0.197,-1.449,0.025,0.334,-0.008,-5.544,27.461,-2.73,-3.843,-0.703091,-0.52133
18:51:53:667811,-0.000925025,-0.577355,1.19641,-0.00010472,1.34816,-0.0016057,0,0.0331089,0.0570025,0,-0.0213628,0,4.408,-0.103,-1.564,0.016,0.344,-0.008,-5.6,27.839,-0.651,-3.801,-0.772132,-0.476242
18:51:53:672753,-0.000925025,-0.57718,1.19663,-0.00010472,1.34806,-0.0016057,0,0.0324806,0.0508938,0,-0.0220959,0,4.424,0.004,-1.752,0.005,0.348,-0.01,-5.404,28.812,-0.056,-3.731,-0.727044,-0.29589
18:51:53:677946,-0.000942478,-0.577023,1.19688,-0.00010472,1.34792,-0.00162316,-0.00218166,0.0319744,0.0497244,0,-0.0271399,0,4.42,0.063,-1.976,0.001,0.345,-0.012,-6.097,28.861,1.162,-3.36,-0.769314,-0.388884
18:51:53:682946,-0.000942478,-0.576849,1.19717,-0.00010472,1.34771,-0.00162316,-0.00188496,0.0331962,0.055868,0,-0.0355,0,4.458,0.195,-2.399,-0.003,0.338,-0.014,-5.572,29.547,1.659,-3.892,-0.697455,-0.367749
18:51:53:688056,-0.000942478,-0.576674,1.19754,-0.00010472,1.34745,-0.00162316,-0.00191986,0.0356047,0.0649437,0,-0.0451342,0,4.529,0.338,-2.594,-0.011,0.335,-0.015,-5.124,29.442,0.987,-3.535,-0.490332,-0.381839
18:51:53:693069,-0.000942478,-0.576447,1.19794,-0.00010472,1.34718,-0.00164061,0,0.04016,0.0747524,0,-0.0510858,0,4.73,0.613,-2.624,-0.03,0.338,-0.017,-5.243,29.631,-0.7,-4.032,-0.226849,-0.305753
18:51:53:698072,-0.000959931,-0.576203,1.19836,-0.00010472,1.34694,-0.00164061,-0.00179769,0.0469319,0.0791507,0,-0.0486598,0,4.923,0.792,-2.559,-0.045,0.347,-0.019,-5.054,27.832,-0.462,-3.472,-0.245166,-0.491741
18:51:53:703181,-0.000977384,-0.575924,1.19878,-0.00010472,1.34678,-0.00164061,-0.00218166,0.0499862,0.0831475,0,-0.037926,0,5.208,0.978,-2.588,-0.062,0.363,-0.019,-5.621,27.937,-0.784,-3.85,-0.163444,-0.321252
18:51:53:708126,-0.000994838,-0.575679,1.19923,-0.00010472,1.34668,-0.00164061,-0.00371755,0.0501433,0.0867952,0,-0.0279951,0,5.308,1.026,-2.723,-0.068,0.371,-0.019,-4.991,28.504,-1.477,-3.388,-0.371976,-0.429745
18:51:53:713289,-0.00102974,-0.575453,1.19972,-0.00010472,1.34654,-0.00164061,-0.00516617,0.0470715,0.0917345,0,-0.0251502,0,5.259,0.988,-2.896,-0.067,0.368,-0.02,-4.487,29.134,-1.785,-3.528,-0.419882,-0.500195
18:51:53:718261,-0.00106465,-0.575243,1.20018,-0.00010472,1.3464,-0.00164061,-0.00497419,0.0435285,0.0898845,0,-0.0284489,0,5.161,0.912,-2.879,-0.062,0.358,-0.021,-3.332,30.562,-1.897,-3.451,-0.459334,-0.386066
18:51:53:723435,-0.0010821,-0.575034,1.20058,-0.00010472,1.34624,-0.00164061,-0.0042237,0.0424813,0.0832697,0,-0.0291121,0,5.146,0.788,-2.708,-0.053,0.343,-0.024,-4.095,30.681,-0.28,-3.514,-0.426927,-0.491741
18:51:53:728457,-0.0010821,-0.574807,1.20096,-0.00010472,1.3461,-0.00164061,-0.00167552,0.0426733,0.0803899,0,-0.0304385,0,5.433,0.724,-2.589,-0.045,0.347,-0.027,-4.375,31.5,0.112,-3.591,-0.497377,-0.359295
18:51:53:733417,-0.0010821,-0.57458,1.2014,-0.00010472,1.34595,-0.00164061,0,0.044663,0.0827635,0,-0.0313636,0,5.715,0.724,-2.575,-0.043,0.361,-0.028,-4.137,31.29,0.154,-3.766,-0.456516,-0.259256
18:51:53:738553,-0.0010821,-0.574336,1.20185,-0.00010472,1.34577,-0.00164061,0,0.0477522,0.0897797,0,-0.0331089,0,5.991,0.759,-2.58,-0.046,0.382,-0.029,-4.221,31.402,-0.798,-3.08,-0.638277,-0.411428
18:51:53:743519,-0.0010821,-0.574074,1.20234,-0.00010472,1.34561,-0.00164061,0,0.0514872,0.092677,0,-0.0327424,0,5.954,0.792,-2.61,-0.052,0.385,-0.029,-3.983,30.716,-1.078,-3.829,-0.501604,-0.283209
18:51:53:748645,-0.0010821,-0.573777,1.20283,-0.00010472,1.34544,-0.00164061,0,0.0552397,0.0958011,0,-0.033615,0,5.595,0.824,-2.774,-0.059,0.363,-0.028,-3.64,31.29,-1.498,-3.689,-0.710136,-0.353659
18:51:53:753698,-0.0010821,-0.573498,1.20337,-0.00010472,1.34526,-0.00164061,0,0.0556062,0.101875,0,-0.0353953,0,5.285,0.809,-2.922,-0.058,0.335,-0.027,-3.871,30.114,-1.309,-3.717,-0.727044,-0.202896
18:51:53:758819,-0.0010821,-0.573201,1.20389,-0.00010472,1.34506,-0.00164061,0,0.056409,0.104563,0,-0.0385543,0,4.952,0.724,-2.989,-0.051,0.292,-0.027,-3.668,30.016,-2.247,-4.046,-0.617142,-0.185988
18:51:53:763832,-0.0010821,-0.572904,1.2044,-0.00010472,1.34485,-0.00164061,0,0.0576657,0.0991172,0,-0.0398633,0,4.874,0.674,-2.879,-0.046,0.273,-0.028,-2.702,30.212,-1.799,-4.172,-0.666457,-0.270528
18:51:53:768942,-0.0010821,-0.57259,1.20484,-0.00010472,1.34462,-0.00164061,0,0.0611389,0.0927643,0,-0.0426384,0,4.897,0.722,-2.651,-0.049,0.262,-0.029,-2.968,29.568,-1.057,-3.78,-0.374794,-0.164853
18:51:53:773937,-0.0010821,-0.572241,1.20534,-0.00010472,1.34437,-0.00164061,0,0.0652404,0.0954346,0,-0.0448899,0,4.93,0.835,-2.576,-0.058,0.261,-0.028,-3.759,28.553,-0.91,-3.22,-0.501604,-0.288845
18:51:53:779070,-0.0010821,-0.571875,1.20585,-0.00010472,1.3441,-0.00162316,0,0.070808,0.0989776,0,-0.0520981,0,4.956,0.987,-2.578,-0.071,0.262,-0.027,-3.332,26.677,-1.729,-4.081,-0.247984,-0.166262
18:51:53:784018,-0.0010821,-0.571491,1.20635,-0.00010472,1.34383,-0.00162316,0,0.0718203,0.0988555,0,-0.0533896,0,4.99,1.002,-2.58,-0.074,0.262,-0.026,-3.087,26.11,-2.457,-3.437,-0.215577,-0.194442
18:51:53:789193,-0.0010821,-0.571159,1.20684,-0.00010472,1.34361,-0.0016057,0,0.0693943,0.0984715,0,-0.0452389,0.00216421,5.104,0.925,-2.53,-0.071,0.263,-0.027,-2.492,26.18,-3.122,-3.528,-0.166262,-0.333933
18:51:53:794174,-0.0010821,-0.570845,1.20737,-0.00010472,1.34347,-0.00158825,0,0.0634078,0.101351,0,-0.036617,0,5.195,0.892,-2.48,-0.069,0.264,-0.028,-2.464,26.649,-2.926,-3.577,-0.421291,-0.178943
18:51:53:799297,-0.0010821,-0.570548,1.20786,-0.00010472,1.34335,-0.00158825,0,0.0610865,0.0982097,0,-0.0286234,0,5.305,0.952,-2.417,-0.073,0.266,-0.028,-2.548,27.867,-2.667,-3.857,-0.456516,-0.15499
18:51:53:804243,-0.0010821,-0.570234,1.20829,-0.00010472,1.34322,-0.0015708,0,0.0604058,0.0893783,0,-0.0253422,0,5.377,1.044,-2.414,-0.079,0.267,-0.028,-2.527,27.559,-1.785,-3.297,-0.526966,-0.256438
18:51:53:809437,-0.0010821,-0.569937,1.20868,-0.00010472,1.3431,-0.00155334,0,0.0610691,0.0825192,0,-0.0245568,0.00354302,5.542,1.18,-2.556,-0.085,0.272,-0.027,-1.673,25.816,-1.218,-4.032,-0.487514,-0.005636
18:51:53:814442,-0.00106465,-0.569623,1.20909,-0.00010472,1.34298,-0.00153589,0,0.0608073,0.0827635,0,-0.0238936,0.00277507,5.793,1.277,-2.87,-0.089,0.28,-0.024,-1.449,26.551,-0.413,-4.06,-0.596007,-0.118356
18:51:53:819564,-0.00106465,-0.569344,1.20955,-0.00010472,1.34286,-0.00151844,0,0.0574911,0.0872839,0,-0.0245393,0.00331613,6.021,1.323,-3.074,-0.09,0.288,-0.023,-1.4,26.908,-0.868,-3.829,-0.756633,0.015499
18:51:53:824564,-0.00106465,-0.569082,1.21,-0.00010472,1.34273,-0.00151844,0,0.0538085,0.0876504,0,-0.0261625,0.00256563,6.526,1.366,-3.238,-0.092,0.31,-0.021,-1.148,26.936,-1.918,-3.934,-0.770723,-0.045088
18:51:53:829684,-0.00106465,-0.56882,1.21044,-0.00010472,1.34256,-0.00148353,0,0.0520632,0.0869872,0,-0.0294263,0.00380482,6.985,1.384,-3.299,-0.093,0.335,-0.02,-0.707,27.125,-1.211,-3.955,-0.742543,-0.097221
18:51:53:834674,-0.00106465,-0.568558,1.21091,-0.00010472,1.3424,-0.00146608,0,0.0524471,0.0905302,0,-0.0321141,0.00450295,7.706,1.42,-3.501,-0.095,0.379,-0.018,-0.987,27.153,-1.344,-4.06,-0.78904,0.004227
18:51:53:839814,-0.0010472,-0.568279,1.21142,-0.00010472,1.34225,-0.00144862,0,0.0546986,0.0969356,0,-0.030264,0.00431096,8.066,1.447,-3.747,-0.096,0.404,-0.016,-0.679,27.482,-2.492,-3.514,-0.856672,0.021135
18:51:53:844813,-0.0010472,-0.567965,1.21189,-0.00010472,1.34209,-0.00141372,0.00216421,0.0601964,0.0957313,0,-0.0307876,0.00401426,8.297,1.45,-4.167,-0.094,0.419,-0.013,-0.42,26.796,-1.659,-3.703,-0.752406,0.077495
18:51:53:849814,-0.00102974,-0.567633,1.21232,-0.00010472,1.34188,-0.00139626,0.00162316,0.061453,0.0889071,0,-0.0365821,0.00523599,8.298,1.428,-4.378,-0.091,0.414,-0.013,-0.14,25.193,-0.917,-3.255,-0.851036,0.081722
18:51:53:854939,-0.00101229,-0.567337,1.21276,-0.00010472,1.34165,-0.00137881,0.00303687,0.0597077,0.0854862,0,-0.0430747,0.00506145,8.296,1.422,-4.486,-0.087,0.398,-0.014,0.154,26.593,-1.127,-3.906,-0.849627,0.116947
18:51:53:860065,-0.000994838,-0.567057,1.21323,-0.00010472,1.34139,-0.00136136,0.00277507,0.0563741,0.0917869,0,-0.0507193,0.00445059,8.418,1.475,-4.415,-0.089,0.394,-0.015,1.036,27.398,-0.847,-3.605,-0.672093,0.163444
18:51:53:865060,-0.000977384,-0.566813,1.21375,-0.00010472,1.34111,-0.00132645,0.00347321,0.0532674,0.0976512,0,-0.0545066,0.00387463,8.843,1.626,-4.24,-0.098,0.41,-0.015,0.777,28.203,-1.806,-3.689,-0.369158,0.104266
18:51:53:870047,-0.000959931,-0.566534,1.21426,-0.00010472,1.34081,-0.001309,0.00287979,0.053442,0.0995885,0,-0.0557982,0.00378736,9.196,1.743,-4.233,-0.106,0.431,-0.013,0.434,28.882,-1.036,-3.857,-0.443835,0.143718
18:51:53:875171,-0.000942478,-0.566237,1.2148,-0.00010472,1.34055,-0.00127409,0.0034383,0.0566534,0.105086,0,-0.0545241,0.00380482,9.562,1.901,-4.551,-0.116,0.459,-0.009,1.008,29.358,-1.54,-4.137,-0.305753,0.080313
18:51:53:880174,-0.000925025,-0.565923,1.21538,-0.00010472,1.34033,-0.00125664,0.00371755,0.0599346,0.111858,0,-0.0469145,0.00649262,9.598,1.967,-4.891,-0.12,0.465,-0.005,1.057,28.028,-2.002,-3.598,-0.291663,0.102857
18:51:53:885312,-0.000907571,-0.565591,1.21595,-0.00010472,1.34015,-0.00122173,0.00464258,0.0625701,0.110985,0,-0.0398633,0.00692896,9.406,1.939,-5.214,-0.115,0.452,-0.002,1.407,27.769,-2.674,-4.074,-0.36634,0.083131
18:51:53:890238,-0.000890118,-0.565277,1.21648,-0.00010472,1.33998,-0.00118682,0.00434587,0.0623083,0.106692,0,-0.0360411,0.00682424,9.234,1.846,-5.164,-0.107,0.436,-0.002,1.659,28.756,-1.561,-3.745,-0.476242,0.269119
18:51:53:895421,-0.000855211,-0.564998,1.217,-0.00010472,1.33982,-0.00115192,0.00485202,0.0592365,0.104947,0,-0.0331787,0.00642281,9.069,1.765,-4.825,-0.098,0.417,-0.004,0.756,29.12,-1.449,-3.892,-0.553737,0.209941
18:51:53:900422,-0.000820305,-0.564701,1.21756,-0.00010472,1.33966,-0.00111701,0.00670206,0.0584162,0.107809,0,-0.0319395,0.00638791,9.087,1.928,-4.511,-0.108,0.413,-0.003,1.596,30.142,-1.344,-3.577,-0.469197,0.131037
18:51:53:905430,-0.000785398,-0.564387,1.21812,-0.00010472,1.33951,-0.0010821,0.00708604,0.0603186,0.111108,0,-0.0313636,0.00738274,9.21,2.113,-4.386,-0.122,0.419,-0.001,2.093,29.68,-1.393,-4.032,-0.81722,0.377612
18:51:53:910562,-0.000733038,-0.564038,1.21871,-0.00010472,1.33935,-0.0010472,0.00829031,0.0653102,0.114528,0,-0.0314508,0.0074002,9.522,2.271,-4.252,-0.134,0.439,0.001,1.218,29.946,-1.372,-3.78,-0.829901,0.23953
18:51:53:915564,-0.000680678,-0.563672,1.21932,-0.00010472,1.33916,-0.000994838,0.00912807,0.0697259,0.118787,0,-0.0342957,0.00811578,9.727,2.245,-4.203,-0.133,0.454,0.002,1.442,28.735,-1.848,-3.997,-0.877807,0.4227
18:51:53:920708,-0.000628319,-0.563305,1.21992,-0.00010472,1.33891,-0.000959931,0.00911062,0.0714538,0.117269,0,-0.0431271,0.00734784,9.834,2.152,-4.284,-0.124,0.465,0.004,1.106,28.637,-1.008,-3.626,-0.762269,0.552328
18:51:53:925701,-0.000575959,-0.562939,1.22049,-0.00010472,1.33865,-0.000925025,0.0103323,0.0713491,0.114808,0,-0.0490961,0.00801106,9.716,2.158,-4.435,-0.121,0.457,0.005,2.149,28.56,-1.253,-3.906,-0.784813,0.428336
18:51:53:930808,-0.000541052,-0.562572,1.22107,-0.00010472,1.33835,-0.000890118,0.0105243,0.0712443,0.114441,0,-0.0568977,0.00802851,9.34,2.323,-4.631,-0.127,0.426,0.007,1.127,28.777,-1.694,-3.605,-0.598825,0.526966
18:51:53:935795,-0.000488692,-0.562205,1.22166,-0.00010472,1.33799,-0.000837758,0.0106814,0.0727977,0.117007,0,-0.066148,0.00966912,9.069,2.512,-4.647,-0.137,0.401,0.007,0.973,28.749,-1.666,-4.151,-0.401565,0.459334
18:51:53:940921,-0.000436332,-0.561804,1.22225,-0.00010472,1.3376,-0.000785398,0.00986111,0.0759567,0.118002,0,-0.0707382,0.0092677,8.802,2.836,-4.508,-0.158,0.375,0.006,1.54,27.909,-1.547,-3.78,-0.21135,0.46497
18:51:53:945920,-0.000383972,-0.561403,1.2229,-0.00010472,1.33731,-0.000750492,0.0101229,0.0779464,0.121649,0,-0.062954,0.00872665,8.751,3.018,-4.381,-0.172,0.369,0.005,1.785,27.804,-0.903,-3.906,-0.207123,0.474833
18:51:53:951044,-0.000331613,-0.561001,1.22353,-0.00010472,1.3371,-0.000698132,0.00965167,0.0789761,0.124372,0,-0.0497593,0.00942478,8.796,3.135,-4.243,-0.182,0.372,0.004,1.967,26.796,-1.652,-3.815,-0.273346,0.514285
18:51:53:955986,-0.000279253,-0.560582,1.22412,-0.00010472,1.3369,-0.000628319,0.0102102,0.080896,0.119154,0,-0.0425511,0.0113621,8.823,3.105,-4.215,-0.181,0.375,0.004,2.205,26.117,-1.344,-4.333,-0.381839,0.510058
18:51:53:961045,-0.000226893,-0.560163,1.22471,-0.00010472,1.33673,-0.000575959,0.0103847,0.0830428,0.116291,0,-0.0374548,0.0120253,8.747,3.014,-4.273,-0.176,0.373,0.003,1.708,26.509,-0.714,-3.766,-0.576281,0.677729
18:51:53:966169,-0.000174533,-0.55971,1.22529,-0.00010472,1.33657,-0.000488692,0.011205,0.0852593,0.117984,0,-0.0352207,0.0138405,8.625,2.999,-4.352,-0.175,0.365,0.003,2.954,25.424,-1.834,-4.046,-0.636868,0.52133
18:51:53:971174,-0.00010472,-0.559308,1.22588,-0.00010472,1.3364,-0.000436332,0.0126362,0.0830602,0.118176,0,-0.0346448,0.0128456,8.452,3.072,-4.439,-0.179,0.351,0.002,1.897,24.388,-1.596,-4.172,-0.687592,0.543874
18:51:53:976292,-3.49066e-05,-0.558924,1.22651,-0.00010472,1.33624,-0.000349066,0.0126711,0.0800408,0.119956,0,-0.0311367,0.0154636,8.422,3.148,-4.437,-0.185,0.348,0.001,2.247,25.27,-1.701,-4.018,-0.865126,0.525557
18:51:53:981245,1.74533e-05,-0.55854,1.22714,-0.00010472,1.33608,-0.000279253,0.0118508,0.0764803,0.124425,0,-0.0312763,0.01494,8.583,3.243,-4.39,-0.193,0.36,0,3.591,25.263,-1.673,-4.466,-0.922895,0.5636
18:51:53:986415,5.23599e-05,-0.558156,1.22773,-0.00010472,1.33591,-0.000174533,0.0107338,0.075119,0.118211,0,-0.0331438,0.0174184,8.98,3.309,-4.441,-0.198,0.393,0,3.808,26.544,-2.135,-4.032,-0.998981,0.615733
18:51:53:991537,0.00010472,-0.557807,1.22828,-0.00010472,1.33572,-6.98132e-05,0.0103149,0.0722915,0.110794,0,-0.0359363,0.0198269,9.3,3.348,-4.593,-0.199,0.419,0.001,3.71,25.172,-1.12,-4.186,-1.0483,0.569236
18:51:53:996557,0.000139626,-0.557458,1.22885,-0.00010472,1.33549,3.49066e-05,0.00881391,0.0693245,0.111719,0,-0.042237,0.0227591,9.639,3.409,-4.962,-0.2,0.448,0.003,4.606,25.746,-1.316,-4.046,-0.865126,0.519921
18:51:54:1506,0.000191986,-0.557109,1.22943,-0.00010472,1.33519,0.000174533,0.00818559,0.0681551,0.113726,0,-0.0524122,0.0241903,9.654,3.453,-5.219,-0.2,0.45,0.004,5.572,25.816,-0.763,-3.815,-0.843991,0.315616
18:51:54:6692,0.000226893,-0.556743,1.23,-0.00010472,1.33483,0.000314159,0.00877901,0.0720821,0.114947,0,-0.0651706,0.0286409,9.349,3.526,-5.442,-0.203,0.427,0.003,5.369,26.453,-0.875,-4.221,-0.714363,0.331115
18:51:54:11666,0.000296706,-0.556341,1.23061,-0.00010472,1.33443,0.000488692,0.0106465,0.0768643,0.118682,0,-0.0748572,0.031573,9.063,3.57,-5.425,-0.206,0.403,0.001,5.691,26.005,-1.267,-3.731,-0.371976,0.178943
18:51:54:16666,0.000349066,-0.55594,1.23126,-0.00010472,1.33409,0.000663225,0.0119381,0.079046,0.123901,0,-0.0662003,0.0339816,8.829,3.601,-5.229,-0.209,0.381,-0.002,5.691,24.913,-0.994,-3.934,-0.304344,0.050724
18:51:54:21793,0.000418879,-0.555538,1.23184,-0.00010472,1.3339,0.000820305,0.0127584,0.0779115,0.11863,0,-0.0480489,0.0329344,8.907,3.587,-5.122,-0.209,0.385,-0.004,5.873,24.934,-1.036,-3.92,-0.376203,0.040861
18:51:54:26912,0.000488692,-0.555189,1.23243,-0.00010472,1.33375,0.000959931,0.01309,0.0729548,0.116134,0,-0.0376991,0.0279427,9.268,3.539,-5.197,-0.208,0.414,-0.002,6.3,25.41,-0.7,-4.158,-0.419882,-0.066223
18:51:54:31931,0.000558505,-0.55484,1.23304,-0.00010472,1.33355,0.0010821,0.0130725,0.0695339,0.118805,0,-0.0374548,0.0259356,9.5,3.513,-5.391,-0.208,0.436,0,6.517,26.089,-1.743,-3.934,-0.680547,0.022544
18:51:54:36916,0.000628319,-0.554491,1.23365,-0.00010472,1.33336,0.00120428,0.0138056,0.0696037,0.119642,0,-0.0387463,0.0249408,9.638,3.48,-5.651,-0.208,0.452,0.001,6.762,26.313,-1.673,-4.074,-0.572054,-0.153581
18:51:54:42040,0.000698132,-0.554125,1.23426,-0.00010472,1.33317,0.0013439,0.0145386,0.0716632,0.121562,0,-0.0365297,0.0267559,9.634,3.431,-5.659,-0.206,0.453,0,6.398,26.782,-1.162,-4.564,-0.641095,-0.011272
18:51:54:46983,0.000785398,-0.553758,1.23491,-0.00010472,1.333,0.00146608,0.015132,0.0715236,0.12528,0,-0.0363552,0.0243473,9.761,3.293,-5.438,-0.199,0.456,-0.004,7.175,26.649,-1.869,-3.878,-0.808766,-0.07045
18:51:54:52180,0.000855211,-0.553409,1.23554,-0.00010472,1.33282,0.00158825,0.0161967,0.0716632,0.123517,0,-0.0363028,0.0231082,10.058,3.196,-5.307,-0.192,0.473,-0.006,6.909,26.579,-1.582,-3.542,-0.779177,-0.045088
18:51:54:57184,0.000959931,-0.553042,1.23613,-0.00010472,1.33263,0.00169297,0.017942,0.0712967,0.1187,0,-0.0370359,0.0218864,10.794,3.152,-5.432,-0.188,0.525,-0.005,7.665,26.908,-1.078,-3.64,-0.856672,0.066223
18:51:54:62290,0.00106465,-0.552676,1.23672,-0.00010472,1.3324,0.00179769,0.0191812,0.0741939,0.11959,0,-0.0413119,0.0212581,11.329,3.213,-5.75,-0.192,0.568,-0.002,6.748,26.481,-1.008,-3.724,-0.815811,0.083131
