srisadhan/powerball/bin/HRI_project/2021/Collision_admittance/Admittance_LowDamping_collision.csv
TimeStamp , Q1, Q2, Q3, Q4, Q5, Q6, dQ1, dQ2, dQ3, dQ4, dQ5, dQ6, Fx, Fy, Fz, Mx, My, Mz, Joint1_torque, Joint2_torque, Joint3_torque, Joint4_torque, Joint5_torque, Joint6_torque 
18:10:56:325359,-5.23599e-05,-0.523808,1.57038,-3.49066e-05,1.04741,-0.000314159,0,0,0,0,-0.00232129,0,0,0,0,0,0,0,2.611,28.637,-4.193,-3.535,-0.190215,0.534011
18:10:56:330353,-5.23599e-05,-0.523808,1.57038,-3.49066e-05,1.04741,-0.000314159,0,0,0,0,0,0,0,0,0,0,0,0,2.611,28.777,-4.137,-4.501,-0.226849,0.459334
18:10:56:335300,-5.23599e-05,-0.523808,1.57038,-3.49066e-05,1.04741,-0.000314159,0,0,0,0,0,0,0,0,0,0,0,0,2.128,28.161,-3.969,-4.109,-0.208532,0.315616
18:10:56:340479,-5.23599e-05,-0.523808,1.57038,-3.49066e-05,1.04741,-0.000314159,0,0,0,0,0,0,0,0,0,0,0,0,2.947,28.672,-4.025,-4.242,-0.16908,0.431154
18:10:56:345497,-5.23599e-05,-0.523808,1.57038,-3.49066e-05,1.04741,-0.000314159,0,0,0,0,0,0,0,0,0,0,0,0,2.954,28.644,-4.095,-3.787,-0.228258,0.526966
18:10:56:350622,-5.23599e-05,-0.523808,1.57038,-3.49066e-05,1.04741,-0.000314159,0,0,0,0,0,0,0,0,0,0,0,0,2.828,28.343,-3.822,-4.557,-0.224031,0.411428
18:10:56:355606,-5.23599e-05,-0.523808,1.57038,-3.49066e-05,1.04741,-0.000314159,0,0,0,0,0,0,0,0,0,0,0,0,2.751,29.302,-4.095,-3.913,-0.226849,0.467788
18:10:56:360753,-5.23599e-05,-0.523808,1.57038,-3.49066e-05,1.04741,-0.000314159,0,0,0,0,0,0,0,0,0,0,0,0,3.038,28.616,-4.494,-3.899,-0.232485,0.565009
18:10:56:365738,-5.23599e-05,-0.523808,1.57038,-3.49066e-05,1.04741,-0.000314159,0,0,0,0,0,0,0,0,0,0,0,0,2.919,28.875,-3.906,-4.046,-0.164853,0.546692
18:10:56:370743,-5.23599e-05,-0.523808,1.57038,-3.49066e-05,1.04741,-0.000314159,0,0,0,0,0,0,0,0,0,0,0,0,2.45,28.938,-4.13,-4.249,-0.266301,0.425518
18:10:56:375871,-5.23599e-05,-0.523808,1.57038,-3.49066e-05,1.04741,-0.000314159,0,0,0,0,0,0,0,0,0,0,0,0,2.639,28.588,-3.836,-4.249,-0.243757,0.398747
18:10:56:380805,-5.23599e-05,-0.523808,1.57038,-3.49066e-05,1.04741,-0.000314159,0,0,0,0,0,0,0,0,0,0,0,0,2.807,28.532,-4.487,-4.221,-0.207123,0.518512
18:10:56:385977,-5.23599e-05,-0.523808,1.57038,-3.49066e-05,1.04741,-0.000314159,0,0,0,0,0,0,0,0,0,0,0,0,2.513,28.14,-3.549,-4.277,-0.326888,0.426927
18:10:56:390978,-5.23599e-05,-0.523808,1.57038,-3.49066e-05,1.04741,-0.000314159,0,0,0,0,0,0,0,0,0,0,0,0,2.401,27.664,-3.731,-4.536,-0.209941,0.505831
18:10:56:396124,-5.23599e-05,-0.523808,1.57038,-3.49066e-05,1.04741,-0.000314159,0,0,0,0,0,0,0,0,0,0,0,0,3.458,28.812,-3.409,-4.648,-0.16908,0.38043
18:10:56:401102,-5.23599e-05,-0.523808,1.57038,-3.49066e-05,1.04741,-0.000314159,0,0,0,0,0,0,0,0,0,0,0,0,2.751,28.784,-4.354,-4.466,-0.329706,0.583326
18:10:56:406230,-5.23599e-05,-0.523808,1.57038,-3.49066e-05,1.04741,-0.000314159,0,0,0,0,0,0,0,0,0,0,0,0,2.576,27.797,-3.983,-4.431,-0.287436,0.390293
18:10:56:411233,-5.23599e-05,-0.523808,1.57038,-3.49066e-05,1.04741,-0.000314159,0,0,0,0,0,0,0,0,0,0,0,0,2.527,27.93,-4.305,-4.473,-0.333933,0.371976
18:10:56:416387,-5.23599e-05,-0.523808,1.57038,-3.49066e-05,1.04741,-0.000314159,0,0,0,0,0,0,0,0,0,0,0,0,2.863,29.211,-4.424,-4.557,-0.291663,0.455107
18:10:56:421380,-5.23599e-05,-0.523808,1.57038,-3.49066e-05,1.04741,-0.000314159,0,0,0,0,0,0,0,0,0,0,0,0,2.366,28.875,-4.228,-4.088,-0.160626,0.355068
18:10:56:426481,-5.23599e-05,-0.523808,1.57038,-3.49066e-05,1.04741,-0.000314159,0,0,0,0,0,0,0,0,0,0,0,0,2.919,28.469,-4.2,-4.536,-0.209941,0.443835
18:10:56:431472,-5.23599e-05,-0.523808,1.57038,-3.49066e-05,1.04741,-0.000314159,0,0,0,0,0,0,0,0,0,0,0,0,2.926,28.637,-3.787,-3.815,-0.249393,0.442426
18:10:56:436504,-5.23599e-05,-0.523808,1.57038,-3.49066e-05,1.04741,-0.000314159,0,0,0,0,0,0,0,0,0,0,0,0,3.073,28.483,-3.843,-4.081,-0.263483,0.469197
18:10:56:441616,-3.49066e-05,-0.523808,1.57038,-3.49066e-05,1.04741,-0.000314159,0,0,0,0,0,0,0,0,0,0,0,0,2.429,28.273,-3.976,-2.646,-0.247984,0.349432
18:10:56:446591,-3.49066e-05,-0.523808,1.57038,-3.49066e-05,1.04741,-0.000314159,0,0,0,0,0,0,0,0,0,0,0,0,2.142,28.371,-3.787,-3.913,-0.184579,0.511467
18:10:56:451547,-3.49066e-05,-0.523808,1.57038,-3.49066e-05,1.04741,-0.000314159,0,0,0,0,0,0,0,0,0,0,0,0,3.43,28.637,-4.2,-3.563,-0.249393,0.390293
18:10:56:456687,-3.49066e-05,-0.523808,1.57038,-3.49066e-05,1.04741,-0.000314159,0,0,0,0,0,0,0,0,0,0,0,0,2.926,28.336,-4.081,-4.221,-0.246575,0.349432
18:10:56:461769,-3.49066e-05,-0.523808,1.57038,-3.49066e-05,1.04741,-0.000314159,0,0,0,0,0,0,0,0,0,0,0,0,2.926,27.734,-3.444,-2.996,-0.205714,0.555146
18:10:56:466810,-3.49066e-05,-0.523808,1.57038,-3.49066e-05,1.04741,-0.000314159,0,0,0,0,0,0,0,0,0,0,0,0,2.324,28.63,-3.948,-6.734,-0.228258,0.431154
18:10:56:471862,-3.49066e-05,-0.523808,1.57038,-3.49066e-05,1.04741,-0.000314159,0,0,0,0,0,0,0,0,0,0,0,0,2.513,28.518,-3.682,-3.878,-0.287436,0.425518
18:10:56:476994,-3.49066e-05,-0.523808,1.57038,-3.49066e-05,1.04741,-0.000314159,0,0,0,0,0,0,0,0,0,0,0,0,2.807,28.735,-4.067,-3.955,-0.139491,0.387475
18:10:56:481990,-3.49066e-05,-0.523808,1.57038,-3.49066e-05,1.04741,-0.000314159,0,0,0,0,0,0,0,0,0,0,0,0,2.681,28.805,-3.843,-3.941,-0.249393,0.429745
18:10:56:487099,-3.49066e-05,-0.523808,1.57038,-3.49066e-05,1.04741,-0.000314159,0,0,0,0,0,0,0,0,0,0,0,0,2.912,28.336,-3.654,-3.85,-0.307162,0.442426
18:10:56:492101,-3.49066e-05,-0.523808,1.57038,-3.49066e-05,1.04741,-0.000314159,0,0,0,0,0,0,0,0,0,0,0,0,2.03,28.595,-3.969,-4.193,-0.263483,0.514285
18:10:56:497242,-3.49066e-05,-0.523808,1.57038,-3.49066e-05,1.04741,-0.000314159,0,0,0,0,0,0,0,0,0,0,0,0,2.415,28.665,-3.78,-3.983,-0.284618,0.462152
18:10:56:502226,-3.49066e-05,-0.523808,1.57038,-3.49066e-05,1.04741,-0.000314159,0,0,0,0,0,0,0,0,0,0,0,0,2.751,28.21,-4.137,-3.801,-0.308571,0.433972
18:10:56:507221,-3.49066e-05,-0.523808,1.57038,-3.49066e-05,1.04741,-0.000314159,0,0,0,0,0,0,0,0,0,0,0,0,2.639,29.162,-3.969,-4.242,-0.22544,0.49315
18:10:56:512294,-3.49066e-05,-0.523808,1.57038,-3.49066e-05,1.04741,-0.000314159,0,0,0,0,0,0,0,0,0,0,0,0,2.8,28.448,-4.018,-4.585,-0.188806,0.421291
18:10:56:517366,-3.49066e-05,-0.523808,1.57038,-3.49066e-05,1.04741,-0.000314159,0,0,0,0,0,0,0,0,0,0,0,0,2.975,29.092,-4.613,-4.13,-0.252211,0.531193
18:10:56:522472,-3.49066e-05,-0.523808,1.57038,-3.49066e-05,1.04741,-0.000314159,0,0,0,0,0,0,0,0,0,0,0,0,2.604,28.714,-3.675,-3.829,-0.162035,0.400156
18:10:56:527479,-3.49066e-05,-0.523808,1.57038,-3.49066e-05,1.04741,-0.000314159,0,0,0,0,0,0,0,0,0,0,0,0,2.352,28.196,-4.137,-4.207,-0.343796,0.318434
18:10:56:532610,-3.49066e-05,-0.523808,1.57038,-3.49066e-05,1.04741,-0.000314159,0,0,0,0,0,0,0,0,0,0,0,0,2.24,27.979,-4.186,-4.431,-0.245166,0.345205
18:10:56:537549,-3.49066e-05,-0.523808,1.57038,-3.49066e-05,1.04741,-0.000314159,0,0,0,0,0,0,0,0,0,0,0,0,3.199,28.875,-3.906,-4.179,-0.139491,0.421291
18:10:56:542729,-3.49066e-05,-0.523808,1.57038,-3.49066e-05,1.04741,-0.000314159,0,0,0,0,0,0,0,0,0,0,0,0,2.338,28.287,-3.906,-4.081,-0.208532,0.418473
18:10:56:547689,-3.49066e-05,-0.523808,1.57038,-3.49066e-05,1.04741,-0.000314159,0,0,0,0,0,0,0,0,0,0,0,0,3.178,28.714,-3.787,-3.92,-0.229667,0.452289
18:10:56:552848,-3.49066e-05,-0.523808,1.57038,-3.49066e-05,1.04741,-0.000314159,0,0,0,0,0,0,0,0,0,0,0,0,2.387,28.847,-4.256,-4.13,-0.247984,0.433972
18:10:56:557795,-3.49066e-05,-0.523808,1.57038,-3.49066e-05,1.04741,-0.000314159,0,0,0,0,0,0,0,0,0,0,0,0,2.499,28.735,-4.27,-4.046,-0.190215,0.411428
18:10:56:562846,-3.49066e-05,-0.523808,1.57038,-3.49066e-05,1.04741,-0.000314159,0,0,0,0,0,0,0,0,0,0,0,0,3.199,28.994,-3.304,-3.815,-0.162035,0.539647
18:10:56:567971,-3.49066e-05,-0.523808,1.57038,-3.49066e-05,1.04741,-0.000314159,0,0,0,0,0,0,0,0,0,0,0,0,2.954,28.763,-3.906,-3.983,-0.164853,0.395929
18:10:56:573121,-3.49066e-05,-0.523808,1.57038,-3.49066e-05,1.04741,-0.000314159,0,0,0,0,0,0,-0.032,0.045,-0.122,0,-0.001,0,2.499,28.504,-4.088,-3.696,-0.242348,0.462152
18:10:56:578107,-3.49066e-05,-0.523808,1.57038,-3.49066e-05,1.04741,-0.000314159,0,0,0,0,0,0,-0.068,0.091,-0.08,0,-0.001,0,2.387,28.973,-3.955,-3.829,-0.224031,0.405792
18:10:56:583110,-3.49066e-05,-0.523808,1.57038,-3.49066e-05,1.04741,-0.000314159,0,0,0,0,0,0,-0.05,0.133,-0.142,0,0,0.001,2.436,27.916,-4.039,-3.983,-0.188806,0.400156
18:10:56:588216,-3.49066e-05,-0.523808,1.57038,-3.49066e-05,1.04741,-0.000314159,0,0,0,0,0,0,-0.01,0.12,-0.229,0,0,0.001,2.814,28.077,-4.018,-3.955,-0.190215,0.486105
18:10:56:593167,-3.49066e-05,-0.523808,1.57038,-3.49066e-05,1.04741,-0.000314159,0,0,0,0,0,0,0.02,0.041,-0.247,0,0.001,0.002,2.436,28.665,-4.088,-4.543,-0.208532,0.414246
18:10:56:598344,-3.49066e-05,-0.523808,1.57038,-3.49066e-05,1.04741,-0.000314159,0,0,0,0,0,0,0.005,-0.013,-0.17,0,0,0.001,2.156,28.399,-3.892,-3.941,-0.201487,0.503013
18:10:56:603295,-3.49066e-05,-0.523808,1.57038,-3.49066e-05,1.04741,-0.000314159,0,0,0,0,0,0,-0.035,-0.036,-0.056,0,0,0,2.856,28.273,-3.962,-4.109,-0.266301,0.428336
18:10:56:608292,-3.49066e-05,-0.523808,1.57038,-3.49066e-05,1.04741,-0.000314159,0,0,0,0,0,0,-0.046,-0.016,-0.029,0,-0.001,0,2.737,28.784,-4.123,-3.857,-0.22544,0.452289
18:10:56:613484,-3.49066e-05,-0.523808,1.57038,-3.49066e-05,1.04741,-0.000314159,0,0,0,0,0,0,-0.025,0,-0.029,0.001,-0.001,0,2.555,28.483,-4.382,-3.864,-0.287436,0.414246
18:10:56:618435,-3.49066e-05,-0.523808,1.57038,-3.49066e-05,1.04741,-0.000314159,0,0,0,0,0,0,0.001,-0.013,-0.036,0.002,-0.001,0,2.639,28.609,-4.277,-3.577,-0.231076,0.425518
18:10:56:623614,-3.49066e-05,-0.523808,1.57038,-3.49066e-05,1.04741,-0.000314159,0,0,0,0,0,0,0.028,-0.045,-0.067,0.002,0,0,2.863,28.518,-4.375,-3.962,-0.345205,0.431154
18:10:56:628614,-3.49066e-05,-0.523808,1.57038,-3.49066e-05,1.04741,-0.000314159,0,0,0,0,0,0,0.024,-0.054,-0.101,0.002,0,0.001,2.779,28.385,-4.102,-4.48,-0.190215,0.472015
18:10:56:633549,-3.49066e-05,-0.523808,1.57038,-3.49066e-05,1.04741,-0.000314159,0,0,0,0,0,0,-0.005,-0.054,-0.153,0.001,0,0.001,2.688,28.497,-4.207,-4.27,-0.249393,0.636868
18:10:56:638735,-3.49066e-05,-0.523808,1.57038,-3.49066e-05,1.04741,-0.000314159,0,0,0,0,0,0,-0.028,-0.054,-0.167,0,0,0.001,2.429,28.889,-4.27,-3.941,-0.283209,0.54951
18:10:56:643682,-3.49066e-05,-0.523808,1.57038,-3.49066e-05,1.04741,-0.000314159,0,0,0,0,0,0,-0.049,-0.053,-0.106,0,-0.001,0,2.436,28.504,-4.333,-3.969,-0.224031,0.40861
18:10:56:648849,-3.49066e-05,-0.523808,1.57038,-3.49066e-05,1.04741,-0.000314159,0,0,0,0,0,0,-0.057,-0.043,0.004,0,-0.001,0,2.401,28.371,-3.612,-4.172,-0.245166,0.362113
18:10:56:653791,-3.49066e-05,-0.523808,1.57038,-3.49066e-05,1.04741,-0.000314159,0,0,0,0,0,0,-0.066,-0.009,0.21,0,0,-0.001,2.464,28.399,-3.78,-4.081,-0.209941,0.424109
18:10:56:658984,-3.49066e-05,-0.523791,1.57038,-3.49066e-05,1.04741,-0.000314159,0,0,0,0,0,0,-0.066,0.033,0.307,0,0,-0.002,2.415,28.63,-4.088,-4.242,-0.209941,0.480469
18:10:56:663990,-3.49066e-05,-0.523791,1.57038,-3.49066e-05,1.04741,-0.000314159,0,0,0,0,0,0,-0.055,0.048,0.265,0,0,-0.002,2.03,28.224,-3.724,-4.214,-0.22544,0.459334
18:10:56:669081,-3.49066e-05,-0.523791,1.57038,-3.49066e-05,1.04741,-0.000314159,0,0,0,0,0,0,-0.023,0.031,0.098,0,-0.001,-0.001,3.122,28.728,-3.913,-4.347,-0.146536,0.390293
18:10:56:674107,-3.49066e-05,-0.523791,1.57038,-3.49066e-05,1.04739,-0.000314159,0,0,0,0,0,0,-0.001,0.003,-0.01,0,-0.001,0,2.954,28.371,-4.018,-4.053,-0.163444,0.541056
18:10:56:679215,-3.49066e-05,-0.523791,1.57038,-3.49066e-05,1.04739,-0.000314159,0,0,0,0,0,0,0.006,-0.03,-0.061,0,-0.001,0,2.051,28.056,-4.067,-3.969,-0.226849,0.503013
18:10:56:684233,-3.49066e-05,-0.523791,1.57038,-3.49066e-05,1.04739,-0.000314159,0,0,0,0,0,0,-0.007,-0.031,-0.009,0,0,0,2.338,28.434,-3.906,-3.892,-0.224031,0.404383
18:10:56:689368,-3.49066e-05,-0.523791,1.57038,-3.49066e-05,1.04739,-0.000314159,0,0,0,0,0,0,-0.041,-0.008,0.104,0,0,-0.001,2.499,28.287,-4.137,-4.109,-0.087358,0.526966
18:10:56:694340,-3.49066e-05,-0.523791,1.57038,-3.49066e-05,1.04739,-0.000314159,0,0,0,0,0,0,-0.053,0.008,0.118,0,0,-0.001,2.639,28.14,-3.962,-4.004,-0.229667,0.411428
18:10:56:699460,-3.49066e-05,-0.523791,1.57038,-3.49066e-05,1.04739,-0.000314159,0,0,0,0,0,0,-0.044,0.022,0.003,0,0,0,2.891,28.651,-4.032,-4.095,-0.22544,0.49315
18:10:56:704481,-3.49066e-05,-0.523791,1.57038,-3.49066e-05,1.04739,-0.000314159,0,0,0,0,0,0,-0.03,0.021,-0.092,0,0,0,2.779,27.846,-4.081,-4.214,-0.143718,0.393111
18:10:56:709491,-3.49066e-05,-0.523791,1.57038,-3.49066e-05,1.04739,-0.000314159,0,0,0,0,0,0,-0.024,0.001,-0.107,0,0,0,2.051,28.385,-4.326,-3.654,-0.125401,0.508649
18:10:56:714588,-3.49066e-05,-0.523791,1.57038,-3.49066e-05,1.04739,-0.000314159,0,0,0,0,0,0,-0.036,-0.021,-0.022,0.001,0,0,2.254,27.972,-4.151,-3.577,-0.246575,0.283209
18:10:56:719589,-3.49066e-05,-0.523791,1.57038,-3.49066e-05,1.04739,-0.000314159,0,0,0,0,0,0,-0.064,-0.051,0.115,0,0,-0.001,2.324,28.252,-4.018,-4.025,-0.167671,0.393111
18:10:56:724731,-3.49066e-05,-0.523791,1.57038,-3.49066e-05,1.04739,-0.000314159,0,0,0,0,0,0,-0.08,-0.055,0.15,0,0,-0.001,2.499,28.581,-4.2,-4.095,-0.187397,0.362113
18:10:56:729712,-3.49066e-05,-0.523791,1.57038,-3.49066e-05,1.04739,-0.000314159,0,0,0,0,0,0,-0.081,-0.036,0.124,0,0,-0.001,2.912,29.323,-4.431,-3.654,-0.266301,0.433972
18:10:56:734657,-3.49066e-05,-0.523791,1.57038,-3.49066e-05,1.04739,-0.000314159,0,0,0,0,0,0,-0.066,-0.018,0.08,0,0,-0.001,2.212,27.748,-4.2,-4.312,-0.242348,0.425518
18:10:56:739786,-3.49066e-05,-0.523791,1.57038,-3.49066e-05,1.04739,-0.000314159,0,0,0,0,0,0,-0.035,0.001,-0.002,0,0,0,2.002,27.447,-3.787,-4.354,-0.204305,0.46497
18:10:56:744963,-3.49066e-05,-0.523791,1.57038,-3.49066e-05,1.04739,-0.000314159,0,0,0,0,0,0,-0.019,0.007,-0.052,0,0,0,2.366,28.252,-4.221,-3.927,-0.143718,0.402974
18:10:56:749988,-3.49066e-05,-0.523791,1.57038,-3.49066e-05,1.04739,-0.000314159,0,0,0,0,0,0,-0.023,0.007,-0.026,0,0,0,2.667,28.567,-3.78,-4.193,-0.226849,0.52133
18:10:56:754962,-3.49066e-05,-0.523791,1.57038,-3.49066e-05,1.04739,-0.000314159,0,0,0,0,0,0,-0.033,0.012,0.07,0,0,0,2.863,28.154,-4.256,-3.934,-0.207123,0.32407
18:10:56:760104,-3.49066e-05,-0.523791,1.57038,-3.49066e-05,1.04739,-0.000314159,0,0,0,0,0,0,-0.033,0.013,0.112,0,0,0,2.604,28.273,-4.081,-3.906,-0.205714,0.470606
18:10:56:765055,-3.49066e-05,-0.523791,1.57038,-3.49066e-05,1.04739,-0.000314159,0,0,0,0,0,0,-0.018,-0.003,0.113,0,0,-0.001,3.087,28.546,-4.025,-4.487,-0.187397,0.445244
18:10:56:770245,-3.49066e-05,-0.523791,1.57038,-3.49066e-05,1.04739,-0.000314159,0,0,0,0,0,0,-0.009,-0.028,0.124,0,0,-0.001,2.842,28.602,-3.843,-4.235,-0.270528,0.421291
18:10:56:775159,-3.49066e-05,-0.523791,1.57038,-3.49066e-05,1.04739,-0.000314159,0,0,0,0,0,0,-0.016,-0.059,0.19,0,0,-0.001,2.59,28.798,-3.962,-4.242,-0.18317,0.345205
18:10:56:780337,-3.49066e-05,-0.523791,1.57038,-3.49066e-05,1.04739,-0.000314159,0,0,0,0,0,0,-0.032,-0.056,0.202,0,0,-0.001,2.954,28.602,-4.088,-4.347,-0.147945,0.326888
18:10:56:785303,-3.49066e-05,-0.523791,1.57038,-3.49066e-05,1.04739,-0.000314159,0,0,0,0,0,0,-0.049,-0.02,0.081,0,0,0,2.569,27.972,-4.2,-3.885,-0.107084,0.46497
18:10:56:790481,-3.49066e-05,-0.523791,1.57038,-3.49066e-05,1.04739,-0.000314159,0,0,0,0,0,0,-0.038,0.001,-0.037,0,0,0,2.527,28.203,-3.773,-3.598,-0.187397,0.446653
18:10:56:795463,-3.49066e-05,-0.523791,1.57038,-5.23599e-05,1.04739,-0.000314159,0,0,0,0,0,0,0.013,0.004,-0.1,0.001,0,0,2.527,28.371,-4.13,-3.892,-0.226849,0.43679
18:10:56:800494,-3.49066e-05,-0.523791,1.57038,-5.23599e-05,1.04739,-0.000314159,0,0,0,0,0,0,0.054,-0.003,-0.051,0.001,-0.001,0,2.45,28.763,-4.62,-3.864,-0.204305,0.439608
18:10:56:805584,-3.49066e-05,-0.523791,1.57038,-5.23599e-05,1.04739,-0.000314159,0,0,0,0,0,0,0.084,0.003,0.024,0.001,-0.001,0,2.128,28.301,-4.319,-3.976,-0.326888,0.418473
18:10:56:810581,-3.49066e-05,-0.523791,1.57038,-5.23599e-05,1.04739,-0.000314159,0,0,0,0,0,0,0.069,0.019,0.012,0,-0.001,0,2.24,28.35,-3.535,-4.116,-0.245166,0.480469
18:10:56:815741,-3.49066e-05,-0.523791,1.57038,-5.23599e-05,1.04739,-0.000314159,0,0,0,0,0,0,0.016,0.026,-0.072,0,0,0,2.478,28.189,-4.011,-3.696,-0.143718,0.421291
18:10:56:820735,-3.49066e-05,-0.523791,1.57038,-5.23599e-05,1.04739,-0.000314159,0,0,0,0,0,0,-0.011,0.016,-0.136,0,0,0,2.289,28.042,-3.85,-4.403,-0.205714,0.462152
18:10:56:825852,-3.49066e-05,-0.523791,1.57038,-5.23599e-05,1.04739,-0.000314159,0,0,0,0,0,0,-0.011,0.005,-0.232,0,0,0.001,2.464,28.434,-4.375,-4.214,-0.205714,0.311389
18:10:56:830850,-3.49066e-05,-0.523791,1.57038,-5.23599e-05,1.04739,-0.000314159,0,0,0,0,0,0,0.013,0.017,-0.292,0.001,0,0.002,2.366,28.448,-4.081,-3.745,-0.270528,0.424109
18:10:56:835971,-3.49066e-05,-0.523791,1.57038,-5.23599e-05,1.04739,-0.000314159,0,0,0,0,0,0,0.016,0.018,-0.24,0,0,0.001,2.317,28.224,-3.913,-3.612,-0.22544,0.395929
18:10:56:840977,-3.49066e-05,-0.523791,1.57038,-5.23599e-05,1.04739,-0.000314159,0,0,0,0,0,0,-0.013,-0.021,0.03,0,0,0,3.367,28.7,-4.326,-3.983,-0.269119,0.387475
18:10:56:846103,-3.49066e-05,-0.523791,1.57038,-5.23599e-05,1.04739,-0.000314159,0,0,0,0,0,0,-0.036,-0.061,0.255,0,0,-0.002,2.814,28.336,-4.305,-3.829,-0.123992,0.46497
18:10:56:851085,-3.49066e-05,-0.523791,1.57038,-5.23599e-05,1.04739,-0.000314159,0,0,0,0,0,0,-0.045,-0.085,0.405,0,0,-0.002,2.842,29.092,-4.508,-4.235,-0.26771,0.367749
18:10:56:856211,-3.49066e-05,-0.523791,1.57038,-5.23599e-05,1.04739,-0.000314159,0,0,0,0,0,0,-0.039,-0.064,0.32,0,0,-0.001,2.212,28.42,-4.326,-4.039,-0.208532,0.495968
18:10:56:861212,-3.49066e-05,-0.523791,1.57038,-5.23599e-05,1.04739,-0.000314159,0,0,0,0,0,0,-0.052,-0.018,0.089,0,0,0,2.464,28.021,-4.13,-4.319,-0.308571,0.393111
18:10:56:866212,-3.49066e-05,-0.523791,1.57038,-5.23599e-05,1.04739,-0.000314159,0,0,0,0,0,0,-0.085,-0.013,0.016,0,0,0,3.066,28.126,-4.55,-4.228,-0.26771,0.43679
18:10:56:871336,-3.49066e-05,-0.523791,1.57038,-5.23599e-05,1.04739,-0.000314159,0,0,0,0,0,0,-0.136,-0.045,0.07,0,0,-0.001,2.275,28.189,-4.2,-3.696,-0.167671,0.486105
18:10:56:876342,-3.49066e-05,-0.523791,1.57038,-5.23599e-05,1.04739,-0.000314159,0,0,0,0,0,0,-0.137,-0.063,0.108,0,0,-0.002,2.464,28.252,-4.326,-4.004,-0.187397,0.43679
18:10:56:881475,-3.49066e-05,-0.523791,1.57038,-5.23599e-05,1.04739,-0.000314159,0,0,0,0,0,0,-0.078,-0.04,0.037,0,0,0,2.436,28.021,-4.319,-4.144,-0.222622,0.49315
18:10:56:886461,-3.49066e-05,-0.523791,1.57038,-5.23599e-05,1.04739,-0.000314159,0,0,0,0,0,0,-0.025,-0.005,-0.05,0,0,0,2.317,28.056,-4.018,-3.948,-0.287436,0.383248
18:10:56:891585,-3.49066e-05,-0.523791,1.57038,-5.23599e-05,1.04739,-0.000314159,0,0,0,0,0,0,0.018,0.022,-0.107,0,-0.001,0.001,2.576,28.777,-4.256,-4.06,-0.207123,0.383248
18:10:56:896588,-3.49066e-05,-0.523791,1.57038,-5.23599e-05,1.04739,-0.000314159,0,0,0,0,0,0,0.018,0.012,-0.088,0,-0.001,0,3.304,28.777,-3.857,-3.773,-0.146536,0.393111
18:10:56:901557,-3.49066e-05,-0.523791,1.57038,-5.23599e-05,1.04739,-0.000314159,0,0,0,0,0,0,0.006,-0.018,-0.045,0,0,0,2.716,28.679,-4.256,-4.123,-0.266301,0.448062
18:10:56:906705,-3.49066e-05,-0.523791,1.57038,-5.23599e-05,1.04739,-0.000314159,0,0,0,0,0,0,0.009,-0.028,-0.028,0,0,0,2.464,27.643,-4.137,-4.403,-0.187397,0.445244
18:10:56:911651,-3.49066e-05,-0.523791,1.57038,-5.23599e-05,1.04739,-0.000314159,0,0,0,0,0,0,0.031,-0.017,-0.025,0,0,0,2.275,28.371,-4.249,-3.948,-0.209941,0.355068
18:10:56:916864,-3.49066e-05,-0.523791,1.57038,-5.23599e-05,1.04739,-0.000314159,0,0,0,0,0,0,0.043,0.002,-0.062,0,0,0,2.639,28.189,-4.137,-3.199,-0.185988,0.402974
18:10:56:921833,-3.49066e-05,-0.523791,1.57038,-5.23599e-05,1.04739,-0.000314159,0,0,0,0,0,0,0.033,0.009,-0.104,0,0,0,2.548,27.643,-3.962,-4.158,-0.170489,0.477651
18:10:56:926955,-3.49066e-05,-0.523791,1.57038,-5.23599e-05,1.04739,-0.000314159,0,0,0,0,0,0,-0.001,0.009,-0.136,0,0,0,2.303,28.322,-3.955,-4.102,-0.229667,0.40861
18:10:56:931974,-3.49066e-05,-0.523791,1.57038,-5.23599e-05,1.04739,-0.000314159,0,0,0,0,0,0,-0.024,0.005,-0.11,0,0,0,2.765,28.301,-4.256,-3.752,-0.205714,0.452289
18:10:56:937094,-3.49066e-05,-0.523791,1.57038,-5.23599e-05,1.04739,-0.000314159,0,0,0,0,0,0,-0.038,-0.008,-0.001,0,0,0,2.541,28.224,-4.151,-4.151,-0.122583,0.373385
18:10:56:942098,-3.49066e-05,-0.523791,1.57038,-5.23599e-05,1.04739,-0.000314159,0,0,0,0,0,0,-0.037,-0.026,0.085,0,0,0,2.352,28.616,-4.2,-4.095,-0.188806,0.393111
18:10:56:947215,-3.49066e-05,-0.523791,1.57038,-5.23599e-05,1.04739,-0.000314159,0,0,0,0,0,0,-0.033,-0.059,0.157,0,0,-0.001,2.863,28.203,-4.221,-3.885,-0.083131,0.469197
18:10:56:952208,-3.49066e-05,-0.523791,1.57038,-5.23599e-05,1.04739,-0.000314159,0,0,0,0,0,0,-0.027,-0.072,0.138,0,0,-0.001,2.401,28.385,-4.634,-4.158,-0.208532,0.404383
18:10:56:957167,-3.49066e-05,-0.523791,1.57038,-5.23599e-05,1.04739,-0.000314159,0,0,0,0,0,0,-0.008,-0.076,0.047,0,0,-0.001,2.436,28.238,-4.018,-4.123,-0.188806,0.541056
18:10:56:962272,-3.49066e-05,-0.523791,1.57038,-5.23599e-05,1.04739,-0.000314159,0,0,0,0,0,0,0.003,-0.072,0.003,0,0,-0.001,2.667,28.021,-4.326,-4.235,-0.121174,0.480469
18:10:56:967326,-3.49066e-05,-0.523791,1.57038,-5.23599e-05,1.04739,-0.000314159,0,0,0,0,0,0,0.008,-0.059,0.014,0,0,0,2.415,27.629,-4.389,-3.717,-0.284618,0.494559
18:10:56:972455,-3.49066e-05,-0.523791,1.57038,-5.23599e-05,1.04739,-0.000314159,0,0,0,0,0,0,0,-0.046,0.058,0,0,0,2.499,28.434,-3.85,-4.123,-0.247984,0.46497
18:10:56:977407,-3.49066e-05,-0.523791,1.57038,-5.23599e-05,1.04739,-0.000314159,0,0,0,0,0,0,-0.015,-0.023,0.121,0,0,0,2.73,28.63,-4.081,-4.095,-0.245166,0.414246
18:10:56:982578,-3.49066e-05,-0.523791,1.57038,-5.23599e-05,1.04739,-0.000314159,0,0,0,0,0,0,-0.02,-0.015,0.126,0,0,0,2.24,29.043,-4.382,-4.144,-0.207123,0.360704
18:10:56:987585,-3.49066e-05,-0.523791,1.57038,-5.23599e-05,1.04739,-0.000314159,0,0,0,0,0,0,-0.021,-0.023,0.035,0,0,0.001,2.681,28.154,-4.508,-3.78,-0.226849,0.446653
18:10:56:992720,-3.49066e-05,-0.523791,1.57038,-5.23599e-05,1.04739,-0.000314159,0,0,0,0,0,0,-0.031,-0.032,-0.082,0,0,0.001,2.702,27.86,-4.088,-3.745,-0.264892,0.388884
18:10:56:997716,-3.49066e-05,-0.523791,1.57038,-5.23599e-05,1.04739,-0.000314159,0,0,0,0,0,0,-0.076,-0.024,-0.247,0,0,0.001,2.765,27.846,-4.256,-3.864,-0.208532,0.398747
18:10:57:2717,-3.49066e-05,-0.523791,1.57038,-5.23599e-05,1.04739,-0.000314159,0,0,0,0,0,0,-0.114,-0.004,-0.29,0,0,0,2.989,28.189,-4.34,-3.892,-0.247984,0.455107
18:10:57:7791,-3.49066e-05,-0.523791,1.57038,-5.23599e-05,1.04739,-0.000314159,0,0,0,0,0,0,-0.125,0.02,-0.256,0,0,0,2.716,27.86,-4.508,-3.899,-0.229667,0.497377
18:10:57:12841,-3.49066e-05,-0.523791,1.57038,-5.23599e-05,1.04739,-0.000314159,0,0,0,0,0,0,-0.085,0.022,-0.223,0,0,0,2.387,28.616,-4.081,-4.627,-0.247984,0.336751
18:10:57:17912,-3.49066e-05,-0.523791,1.57038,-5.23599e-05,1.04739,-0.000314159,0,0,0,0,0,0,-0.012,0.014,-0.21,0,0,0.001,2.758,28.287,-4.256,-3.969,-0.18317,0.49315
18:10:57:23074,-3.49066e-05,-0.523791,1.57038,-5.23599e-05,1.04739,-0.000314159,0,0,0,0,0,0,-0.028,0.018,-0.2,0,0,0.001,2.814,28.434,-3.661,-4.06,-0.104266,0.511467
18:10:57:28078,-3.49066e-05,-0.523791,1.57038,-5.23599e-05,1.04739,-0.000314159,0,0,0,0,0,0,-0.094,0.02,-0.166,0,0,0,2.051,28.336,-4.011,-4.179,-0.287436,0.424109
18:10:57:33034,-3.49066e-05,-0.523791,1.57038,-5.23599e-05,1.04739,-0.000314159,0,0,0,0,0,0,-0.196,-0.006,-0.076,0,0,0,2.73,28.448,-4.151,-3.864,-0.181761,0.370567
18:10:57:38035,-3.49066e-05,-0.523791,1.57038,-5.23599e-05,1.04739,-0.000314159,0,0,0,0,0,0,-0.226,-0.036,-0.008,0,0,-0.001,2.541,28.189,-4.606,-3.983,-0.246575,0.469197
18:10:57:43202,-3.49066e-05,-0.523791,1.57038,-5.23599e-05,1.04739,-0.000314159,0,0,0,0,0,0,-0.218,-0.058,0.085,0,0,-0.002,2.289,28.091,-4.501,-4.011,-0.204305,0.421291
18:10:57:48336,-3.49066e-05,-0.523791,1.57038,-5.23599e-05,1.04739,-0.000314159,0,0,0,0,0,0,-0.201,-0.047,0.132,0,0,-0.002,2.751,28.812,-3.913,-4.13,-0.187397,0.484696
18:10:57:53324,-3.49066e-05,-0.523791,1.57038,-5.23599e-05,1.04739,-0.000314159,0,0,0,0,0,0,-0.178,-0.026,0.174,0,0,-0.002,2.639,28.469,-4.249,-4.284,-0.208532,0.46497
18:10:57:58454,-3.49066e-05,-0.523791,1.57038,-5.23599e-05,1.04741,-0.000314159,0,0,0,0,0,0,-0.158,-0.027,0.198,0,0,-0.002,2.268,28.042,-4.27,-4.067,-0.245166,0.345205
18:10:57:63395,-3.49066e-05,-0.523791,1.57038,-5.23599e-05,1.04741,-0.000314159,0,0,0,0,0,0,-0.114,-0.043,0.228,0,0,-0.002,2.548,28.616,-4.438,-4.004,-0.204305,0.446653
18:10:57:68410,-3.49066e-05,-0.523791,1.57038,-5.23599e-05,1.04741,-0.000314159,0,0,0,0,0,0,-0.078,-0.046,0.217,0,0,-0.001,2.751,28.399,-4.739,-4.025,-0.269119,0.469197
18:10:57:73517,-3.49066e-05,-0.523791,1.57038,-5.23599e-05,1.04741,-0.000314159,0,0,0,0,0,0,-0.023,-0.03,0.106,0,0,0,2.548,28.077,-4.067,-3.493,-0.180352,0.421291
18:10:57:78712,-3.49066e-05,-0.523791,1.57038,-5.23599e-05,1.04741,-0.000314159,0,0,0,0,0,0,0.006,-0.016,-0.006,0,0,0.001,2.45,28.553,-3.857,-4.543,-0.284618,0.411428
18:10:57:83739,-3.49066e-05,-0.523791,1.57038,-5.23599e-05,1.04741,-0.000314159,0,0,0,0,0,0,0.03,-0.001,-0.126,0,0,0.001,3.08,28.203,-3.717,-3.633,-0.22544,0.429745
18:10:57:88719,-3.49066e-05,-0.523791,1.57038,-5.23599e-05,1.04741,-0.000314159,0,0,0,0,0,0,0.028,0.006,-0.136,0,0,0.001,2.618,28.469,-4.424,-3.864,-0.166262,0.401565
18:10:57:93838,-3.49066e-05,-0.523791,1.57038,-5.23599e-05,1.04741,-0.000314159,0,0,0,0,0,0,0.001,0.02,-0.101,0,0,0,2.163,28.203,-4.326,-4.403,-0.286027,0.433972
18:10:57:98772,-3.49066e-05,-0.523791,1.57038,-5.23599e-05,1.04741,-0.000314159,0,0,0,0,0,0,-0.019,0.024,-0.109,0,0,0,2.45,27.993,-4.438,-4.403,-0.181761,0.487514
18:10:57:103788,-3.49066e-05,-0.523791,1.57038,-5.23599e-05,1.04741,-0.000314159,0,0,0,0,0,0,-0.022,0.008,-0.189,0,0,0,2.373,28.322,-4.438,-4.494,-0.166262,0.363522
18:10:57:108947,-3.49066e-05,-0.523791,1.57038,-5.23599e-05,1.04741,-0.000314159,0,0,0,0,0,0,0.015,-0.02,-0.228,0,0,0.001,2.289,28.581,-4.389,-4.144,-0.235303,0.433972
18:10:57:113893,-3.49066e-05,-0.523791,1.57038,-5.23599e-05,1.04741,-0.000314159,0,0,0,0,0,0,0.039,-0.033,-0.173,0,0,0.001,2.765,28.399,-4.13,-4.025,-0.232485,0.455107
18:10:57:119088,-3.49066e-05,-0.523791,1.57038,-5.23599e-05,1.04741,-0.000314159,0,0,0,0,0,0,0.027,-0.03,-0.032,0,0,0,3.017,28.385,-4.207,-3.871,-0.202896,0.421291
18:10:57:124205,-3.49066e-05,-0.523791,1.57038,-5.23599e-05,1.04741,-0.000314159,0,0,0,0,0,0,-0.01,-0.021,0.017,0,0,0,2.513,28.189,-4.732,-4.522,-0.146536,0.449471
18:10:57:129143,-3.49066e-05,-0.523791,1.57038,-5.23599e-05,1.04741,-0.000314159,0,0,0,0,0,0,-0.059,-0.01,-0.031,0,0,0,2.373,27.944,-4.319,-3.766,-0.205714,0.525557
18:10:57:134198,-3.49066e-05,-0.523791,1.57038,-5.23599e-05,1.04741,-0.000314159,0,0,0,0,0,0,-0.068,-0.004,-0.115,0,0,0.001,3.038,28.021,-4.48,-3.941,-0.242348,0.474833
18:10:57:139320,-3.49066e-05,-0.523791,1.57038,-5.23599e-05,1.04739,-0.000314159,0,0,0,0,0,0,-0.052,0.021,-0.239,0,0,0.001,1.799,28.602,-4.326,-4.032,-0.188806,0.449471
18:10:57:144323,-3.49066e-05,-0.523791,1.57038,-5.23599e-05,1.04739,-0.000314159,0,0,0,0,0,0,-0.037,0.046,-0.291,0,0,0.001,2.464,28.336,-4.494,-4.123,-0.202896,0.377612
18:10:57:149463,-3.49066e-05,-0.523791,1.57038,-5.23599e-05,1.04739,-0.000314159,0,0,0,0,0,0,-0.016,0.059,-0.281,0,0,0.001,2.527,28.007,-4.193,-4.095,-0.166262,0.433972
18:10:57:154462,-3.49066e-05,-0.523791,1.57038,-5.23599e-05,1.04739,-0.000314159,0,0,0,0,0,0,-0.003,0.034,-0.207,0.001,0,0.001,2.604,28.448,-4.2,-4.095,-0.122583,0.426927
18:10:57:159569,-3.49066e-05,-0.523791,1.57038,-5.23599e-05,1.04739,-0.000314159,0,0,0,0,0,0,0.016,-0.032,-0.057,0.001,0,0,2.681,28.126,-4.487,-4.06,-0.147945,0.43679
18:10:57:164569,-3.49066e-05,-0.523791,1.57038,-5.23599e-05,1.04739,-0.000314159,0,0,0,0,0,0,0.031,-0.061,-0.007,0,0,0,2.387,28.483,-4.326,-4.361,-0.22544,0.512876
18:10:57:169699,-3.49066e-05,-0.523791,1.57038,-5.23599e-05,1.04739,-0.000314159,0,0,0,0,0,0,0.058,-0.045,-0.079,0,-0.001,0.001,2.744,28.567,-4.151,-3.696,-0.263483,0.480469
18:10:57:174695,-3.49066e-05,-0.523791,1.57038,-5.23599e-05,1.04739,-0.000314159,0,0,0,0,0,0,0.071,-0.01,-0.177,0,-0.001,0.001,3.304,27.314,-4.746,-4.291,-0.266301,0.263483
18:10:57:179639,-3.49066e-05,-0.523791,1.57038,-5.23599e-05,1.04739,-0.000314159,0,0,0,0,0,0,0.062,0.031,-0.243,0,-0.001,0.001,2.989,28.679,-4.081,-4.235,-0.226849,0.429745
18:10:57:184836,-3.49066e-05,-0.523791,1.57038,-5.23599e-05,1.04739,-0.000314159,0,0,0,0,0,0,0.036,0.033,-0.19,0,0,0,2.639,28.581,-4.2,-3.92,-0.269119,0.421291
18:10:57:189792,-3.49066e-05,-0.523791,1.57038,-5.23599e-05,1.04739,-0.000314159,0,0,0,0,0,0,-0.005,0.008,-0.057,0,0,0,1.988,28.301,-4.074,-4.431,-0.087358,0.487514
18:10:57:194960,-3.49066e-05,-0.523791,1.57038,-5.23599e-05,1.04739,-0.000314159,0,0,0,0,0,0,-0.022,-0.002,-0.03,0,0,0,2.877,28.483,-4.2,-3.633,-0.263483,0.439608
18:10:57:199906,-3.49066e-05,-0.523791,1.57038,-5.23599e-05,1.04739,-0.000314159,0,0,0,0,0,0,-0.022,0.012,-0.09,0,0,0.001,2.576,28.385,-4.011,-4.466,-0.250802,0.443835
18:10:57:205073,-3.49066e-05,-0.523791,1.57038,-5.23599e-05,1.04739,-0.000314159,0,0,0,0,0,0,-0.016,0.055,-0.188,0,0,0.001,2.478,28.399,-4.396,-4.333,-0.146536,0.480469
18:10:57:210016,-3.49066e-05,-0.523791,1.57038,-5.23599e-05,1.04739,-0.000314159,0,0,0,0,0,0,-0.007,0.07,-0.201,0,0,0,2.59,28.714,-4.431,-4.06,-0.122583,0.424109
18:10:57:215209,-3.49066e-05,-0.523791,1.57038,-5.23599e-05,1.04739,-0.000314159,0,0,0,0,0,0,0.007,0.038,-0.124,0,0,0,2.863,28.301,-4.375,-3.983,-0.184579,0.449471
18:10:57:220204,-3.49066e-05,-0.523791,1.57038,-5.23599e-05,1.04739,-0.000314159,0,0,0,0,0,0,0.002,-0.008,-0.035,0,0,0,2.485,28.371,-4.256,-4.263,-0.266301,0.503013
18:10:57:225343,-3.49066e-05,-0.523791,1.57038,-5.23599e-05,1.04739,-0.000314159,0,0,0,0,0,0,-0.038,-0.067,0.088,0,0,-0.001,2.254,27.713,-4.487,-4.053,-0.18317,0.43679
18:10:57:230317,-3.49066e-05,-0.523791,1.57038,-5.23599e-05,1.04739,-0.000314159,0,0,0,0,0,0,-0.069,-0.074,0.111,0,0,-0.001,2.338,28.35,-4.319,-4.144,-0.266301,0.43679
18:10:57:235440,-3.49066e-05,-0.523791,1.57038,-5.23599e-05,1.04739,-0.000314159,0,0,0,0,0,0,-0.079,-0.044,0.023,0,0,0,3.199,28.301,-4.375,-4.494,-0.204305,0.480469
18:10:57:240441,-3.49066e-05,-0.523791,1.57038,-5.23599e-05,1.04739,-0.000314159,0,0,0,0,0,0,-0.061,-0.023,-0.055,0,0,0,2.73,28.336,-4.2,-4.102,-0.208532,0.477651
18:10:57:245423,-3.49066e-05,-0.523791,1.57038,-5.23599e-05,1.04739,-0.000314159,0,0,0,0,0,0,-0.036,-0.022,-0.052,0,0,0,2.212,28.455,-4.333,-3.766,-0.078904,0.462152
18:10:57:250526,-3.49066e-05,-0.523791,1.57038,-5.23599e-05,1.04739,-0.000314159,0,0,0,0,0,0,-0.033,-0.038,0.036,0,0,0,2.513,28.301,-4.431,-4.207,-0.187397,0.395929
18:10:57:255545,-3.49066e-05,-0.523791,1.57038,-5.23599e-05,1.04739,-0.000314159,0,0,0,0,0,0,-0.038,-0.052,0.128,0,0,-0.001,2.541,28.63,-4.382,-4.116,-0.18317,0.421291
18:10:57:260722,-3.49066e-05,-0.523791,1.57038,-5.23599e-05,1.04739,-0.000314159,0,0,0,0,0,0,-0.036,-0.043,0.093,0,0,-0.001,2.639,28.252,-4.2,-3.696,-0.246575,0.474833
18:10:57:265703,-3.49066e-05,-0.523791,1.57038,-5.23599e-05,1.04739,-0.000314159,0,0,0,0,0,0,-0.035,-0.022,0.001,0,0,0,2.303,28.007,-4.599,-4.291,-0.222622,0.439608
18:10:57:270653,-3.49066e-05,-0.523791,1.57038,-5.23599e-05,1.04739,-0.000314159,0,0,0,0,0,0,-0.043,-0.023,0.024,0,0,0,2.324,28.224,-4.431,-4.319,-0.122583,0.541056
18:10:57:275758,-3.49066e-05,-0.523791,1.57038,-5.23599e-05,1.04739,-0.000314159,0,0,0,0,0,0,-0.057,-0.053,0.199,0,0,-0.002,2.149,27.923,-4.319,-3.948,-0.145127,0.490332
18:10:57:280936,-3.49066e-05,-0.523791,1.57038,-5.23599e-05,1.04739,-0.000314159,0,0,0,0,0,0,-0.052,-0.08,0.331,0,-0.001,-0.003,2.212,28.861,-4.249,-4.088,-0.224031,0.367749
18:10:57:285883,-3.49066e-05,-0.523791,1.57038,-5.23599e-05,1.04739,-0.000314159,0,0,0,0,0,0,-0.038,-0.074,0.305,0,0,-0.003,2.275,28.665,-4.27,-3.78,-0.101448,0.35225
18:10:57:291063,-3.49066e-05,-0.523791,1.57038,-5.23599e-05,1.04739,-0.000314159,0,0,0,0,0,0,-0.023,-0.033,0.15,0,0,-0.001,2.653,27.972,-4.655,-3.892,-0.302935,0.345205
18:10:57:296063,-3.49066e-05,-0.523791,1.57038,-5.23599e-05,1.04741,-0.000314159,0,0,0,0,0,0,-0.026,-0.005,0.063,0,0,0,1.841,28.35,-4.382,-4.235,-0.145127,0.373385
18:10:57:301063,-3.49066e-05,-0.523791,1.57038,-5.23599e-05,1.04741,-0.000314159,0,0,0,0,0,0,-0.04,0.014,0.018,0,0,0,2.779,28.763,-4.627,-4.088,-0.108493,0.411428
18:10:57:306190,-3.49066e-05,-0.523791,1.57038,-5.23599e-05,1.04741,-0.000314159,0,0,0,0,0,0,-0.038,0.014,-0.013,0,0,0,2.037,28.714,-4.711,-4.403,-0.207123,0.474833
18:10:57:311187,-3.49066e-05,-0.523791,1.57038,-5.23599e-05,1.04741,-0.000314159,0,0,0,0,0,0,0,0.009,-0.165,0,0,0.001,2.527,28.203,-4.627,-3.864,-0.269119,0.503013
18:10:57:316311,-3.49066e-05,-0.523791,1.57038,-5.23599e-05,1.04741,-0.000314159,0,0,0,0,0,0,0.036,0.007,-0.286,0.001,0,0.002,2.702,28.056,-4.375,-3.948,-0.252211,0.362113
18:10:57:321312,-3.49066e-05,-0.523791,1.57038,-5.23599e-05,1.04741,-0.000314159,0,0,0,0,0,0,0.067,0.005,-0.298,0,0,0.003,1.764,28.336,-4.368,-3.92,-0.287436,0.421291
18:10:57:326312,-3.49066e-05,-0.523791,1.57038,-5.23599e-05,1.04741,-0.000314159,0,0,0,0,0,0,0.06,0.004,-0.168,0,0,0.002,2.59,28.056,-4.676,-4.235,-0.167671,0.35225
18:10:57:331436,-3.49066e-05,-0.523791,1.57038,-5.23599e-05,1.04741,-0.000314159,0,0,0,0,0,0,0.038,0.008,0.055,0,0,0,2.464,27.958,-4.375,-4.032,-0.243757,0.404383
18:10:57:336386,-3.49066e-05,-0.523791,1.57038,-5.23599e-05,1.04741,-0.000314159,0,0,0,0,0,0,0.036,0.007,0.124,0,0,0,2.45,27.629,-4.375,-3.92,-0.167671,0.393111
18:10:57:341577,-3.49066e-05,-0.523791,1.57038,-5.23599e-05,1.04741,-0.000314159,0,0,0,0,0,0,0.028,-0.013,0.127,0,0,0,2.191,28.994,-4.557,-4.039,-0.188806,0.487514
18:10:57:346561,-3.49066e-05,-0.523791,1.57038,-5.23599e-05,1.04741,-0.000314159,0,0,0,0,0,0,-0.004,-0.035,0.115,0,0,0,2.681,28.287,-4.319,-4.088,-0.18317,0.459334
18:10:57:351685,-3.49066e-05,-0.523791,1.57038,-5.23599e-05,1.04741,-0.000314159,0,0,0,0,0,0,-0.086,-0.044,0.085,0,0,-0.001,1.666,28.14,-4.298,-4.235,-0.329706,0.452289
18:10:57:356630,-3.49066e-05,-0.523791,1.57038,-5.23599e-05,1.04741,-0.000314159,0,0,0,0,0,0,-0.119,-0.022,0.055,0,0,-0.001,2.898,27.594,-4.067,-3.633,-0.204305,0.332524
18:10:57:361833,-3.49066e-05,-0.523791,1.57038,-5.23599e-05,1.04741,-0.000314159,0,0,0,0,0,0,-0.087,0.024,0.057,0,0,-0.001,2.863,28.238,-4.326,-4.151,-0.266301,0.525557
18:10:57:366829,-3.49066e-05,-0.523791,1.57038,-5.23599e-05,1.04741,-0.000314159,0,0,0,0,0,0,-0.034,0.038,0.105,0,0,-0.001,2.59,27.762,-4.312,-4.515,-0.224031,0.429745
18:10:57:371775,-3.49066e-05,-0.523791,1.57038,-5.23599e-05,1.04741,-0.000314159,0,0,0,0,0,0,0.025,0.022,0.159,0,0,-0.001,2.436,28.896,-4.431,-4.207,-0.143718,0.43679
18:10:57:376948,-3.49066e-05,-0.523791,1.57038,-5.23599e-05,1.04741,-0.000314159,0,0,0,0,0,0,0.034,-0.006,0.11,0,0,0,2.289,28.056,-4.305,-3.948,-0.312798,0.490332
18:10:57:382059,-3.49066e-05,-0.523791,1.57038,-5.23599e-05,1.04739,-0.000314159,0,0,0,0,0,0,0.028,-0.017,0.068,0,0,0,2.324,27.86,-4.606,-3.864,-0.224031,0.431154
18:10:57:387007,-3.49066e-05,-0.523791,1.57038,-5.23599e-05,1.04739,-0.000314159,0,0,0,0,0,0,0.019,-0.019,0.059,0,0,0,2.702,27.58,-3.899,-4.263,-0.129628,0.449471
18:10:57:392006,-3.49066e-05,-0.523791,1.57038,-5.23599e-05,1.04739,-0.000314159,0,0,0,0,0,0,0.015,-0.016,0.05,0,0,0,2.387,28.091,-4.746,-3.976,-0.163444,0.370567
18:10:57:397197,-3.49066e-05,-0.523791,1.57038,-5.23599e-05,1.04739,-0.000314159,0,0,0,0,0,0,0.006,-0.012,-0.029,0,0,0,1.736,28.07,-4.795,-4.004,-0.246575,0.581917
18:10:57:402200,-3.49066e-05,-0.523791,1.57038,-5.23599e-05,1.04739,-0.000314159,0,0,0,0,0,0,-0.004,-0.012,-0.082,0,0,0,2.324,27.629,-4.277,-4.179,-0.284618,0.357886
18:10:57:407309,-3.49066e-05,-0.523791,1.57038,-5.23599e-05,1.04739,-0.000314159,0,0,0,0,0,0,-0.027,-0.02,-0.041,0,0,0,2.891,28.98,-4.487,-3.612,-0.205714,0.477651
18:10:57:412434,-3.49066e-05,-0.523791,1.57038,-5.23599e-05,1.04739,-0.000314159,0,0,0,0,0,0,-0.035,-0.025,0.05,0,0,0,2.485,28.896,-4.557,-4.032,-0.245166,0.528375
18:10:57:417398,-3.49066e-05,-0.523791,1.57038,-5.23599e-05,1.04739,-0.000314159,0,0,0,0,0,0,-0.02,-0.019,0.142,0,0,0,2.954,28.434,-4.487,-4.375,-0.063405,0.445244
18:10:57:422574,-3.49066e-05,-0.523791,1.57038,-5.23599e-05,1.04739,-0.000314159,0,0,0,0,0,0,-0.002,-0.011,0.136,0,0,0,2.576,28.224,-4.445,-4.375,-0.077495,0.556555
18:10:57:427560,-3.49066e-05,-0.523791,1.57038,-5.23599e-05,1.04739,-0.000314159,0,0,0,0,0,0,-0.012,-0.023,0.128,0,0,0,2.1,27.895,-4.389,-3.696,-0.204305,0.484696
18:10:57:432501,-3.49066e-05,-0.523791,1.57038,-5.23599e-05,1.04739,-0.000314159,0,0,0,0,0,0,-0.059,-0.053,0.182,0,0,-0.001,2.793,28.567,-4.27,-4.207,-0.247984,0.528375
18:10:57:437697,-3.49066e-05,-0.523791,1.57038,-5.23599e-05,1.04739,-0.000314159,0,0,0,0,0,0,-0.146,-0.09,0.273,0,0,-0.004,2.975,28.469,-4.256,-4.578,-0.224031,0.541056
18:10:57:442695,-3.49066e-05,-0.523791,1.57038,-5.23599e-05,1.04739,-0.000314159,0,0,0,0,0,0,-0.166,-0.078,0.234,0,0,-0.004,2.324,27.909,-4.333,-3.92,-0.167671,0.538238
18:10:57:447822,-3.49066e-05,-0.523791,1.57038,-5.23599e-05,1.04739,-0.000314159,0,0,0,0,0,0,-0.099,-0.011,-0.03,0,0,-0.001,2.212,28.777,-4.627,-4.319,-0.190215,0.395929
18:10:57:452768,-3.49066e-05,-0.523791,1.57038,-5.23599e-05,1.04739,-0.000314159,0,0,0,0,0,0,-0.018,0.027,-0.241,0,0,0.001,2.499,28.749,-4.368,-4.207,-0.22544,0.497377
18:10:57:457810,-3.49066e-05,-0.523791,1.57038,-5.23599e-05,1.04739,-0.000314159,0,0,0,0,0,0,0.068,0.031,-0.38,0,0,0.002,2.03,28.14,-4.312,-4.004,-0.22544,0.472015
18:10:57:462950,-3.49066e-05,-0.523791,1.57038,-5.23599e-05,1.04739,-0.000314159,0,0,0,0,0,0,0.057,-0.006,-0.26,0,0,0.001,2.366,28.7,-4.683,-3.92,-0.250802,0.474833
18:10:57:468072,-3.49066e-05,-0.523791,1.57038,-5.23599e-05,1.04739,-0.000314159,0,0,0,0,0,0,0.017,-0.022,-0.124,0,0,0,2.128,28.448,-4.599,-4.459,-0.22544,0.607279
18:10:57:473021,-3.49066e-05,-0.523791,1.57038,-5.23599e-05,1.04739,-0.000314159,0,0,0,0,0,0,-0.022,-0.02,0.031,0,0,0,2.086,28.959,-4.193,-3.808,-0.181761,0.418473
18:10:57:478049,-3.49066e-05,-0.523791,1.57038,-5.23599e-05,1.04739,-0.000314159,0,0,0,0,0,0,-0.015,-0.015,0.083,0,0,0,2.338,28.154,-4.613,-4.123,-0.302935,0.487514
18:10:57:483196,-3.49066e-05,-0.523791,1.57038,-5.23599e-05,1.04741,-0.000314159,0,0,0,0,0,0,0.017,-0.014,0.072,0,0,0,3.367,28.483,-4.067,-4.095,-0.146536,0.411428
18:10:57:488180,-3.49066e-05,-0.523791,1.57038,-5.23599e-05,1.04741,-0.000314159,0,0,0,0,0,0,0.028,-0.014,0.009,0,0,0,1.876,28.021,-4.431,-4.032,-0.21135,0.388884
18:10:57:493304,-3.49066e-05,-0.523791,1.57038,-5.23599e-05,1.04741,-0.000314159,0,0,0,0,0,0,0.006,-0.014,-0.093,0,0,0,2.989,27.797,-4.844,-3.892,-0.188806,0.40861
18:10:57:498280,-3.49066e-05,-0.523791,1.57038,-5.23599e-05,1.04741,-0.000314159,0,0,0,0,0,0,-0.021,-0.02,-0.102,0,0,0,2.898,28.714,-4.27,-3.892,-0.246575,0.443835
18:10:57:503428,-3.49066e-05,-0.523791,1.57038,-5.23599e-05,1.04741,-0.000314159,0,0,0,0,0,0,-0.044,-0.035,-0.01,0,0,0,1.939,28.175,-4.305,-3.892,-0.201487,0.495968
18:10:57:508435,-3.49066e-05,-0.523791,1.57038,-5.23599e-05,1.04741,-0.000314159,0,0,0,0,0,0,-0.036,-0.036,0.055,0,0,0,2.415,27.629,-4.137,-4.039,-0.224031,0.38043
18:10:57:513563,-3.49066e-05,-0.523791,1.57038,-5.23599e-05,1.04741,-0.000314159,0,0,0,0,0,0,0,-0.013,0.049,0,0,0,2.541,28.504,-4.214,-3.836,-0.145127,0.339569
18:10:57:518502,-3.49066e-05,-0.523791,1.57038,-5.23599e-05,1.04741,-0.000314159,0,0,0,0,0,0,0.024,0.008,-0.015,0,0,0,2.548,28.42,-4.557,-4.263,-0.166262,0.439608
18:10:57:523569,-3.49066e-05,-0.523791,1.57038,-5.23599e-05,1.04741,-0.000314159,0,0,0,0,0,0,0.044,0.023,-0.101,0,0,0,2.73,27.713,-4.48,-4.235,-0.266301,0.297299
18:10:57:528624,-3.49066e-05,-0.523791,1.57038,-5.23599e-05,1.04741,-0.000314159,0,0,0,0,0,0,0.045,0.021,-0.105,0,0,0,2.352,28.532,-4.263,-4.263,-0.247984,0.393111
18:10:57:533803,-3.49066e-05,-0.523791,1.57038,-5.23599e-05,1.04741,-0.000314159,0,0,0,0,0,0,0.029,0.022,-0.033,0,0,0,2.667,28.126,-4.9,-4.459,-0.184579,0.484696
18:10:57:538800,-3.49066e-05,-0.523791,1.57038,-5.23599e-05,1.04741,-0.000314159,0,0,0,0,0,0,0.01,0.032,0.028,0,0,0,2.436,28.777,-4.557,-4.06,-0.181761,0.515694
18:10:57:543822,-3.49066e-05,-0.523791,1.57038,-5.23599e-05,1.04741,-0.000314159,0,0,0,0,0,0,-0.011,0.044,0.067,0,0,0,2.093,28.301,-3.738,-3.976,-0.202896,0.418473
18:10:57:548944,-3.49066e-05,-0.523791,1.57038,-5.23599e-05,1.04741,-0.000314159,0,0,0,0,0,0,0.007,0.031,-0.005,0,0,0,2.366,27.972,-3.843,-3.409,-0.12681,0.363522
18:10:57:553926,-3.49066e-05,-0.523791,1.57038,-5.23599e-05,1.04741,-0.000314159,0,0,0,0,0,0,0.034,0.013,-0.095,0,0,0.001,2.667,28.602,-4.032,-4.123,-0.224031,0.64814
18:10:57:559053,-3.49066e-05,-0.523791,1.57038,-5.23599e-05,1.04741,-0.000314159,0,0,0,0,0,0,0.051,-0.003,-0.209,0,0,0.002,2.499,28.126,-4.27,-3.661,-0.188806,0.278982
18:10:57:564056,-3.49066e-05,-0.523791,1.57038,-5.23599e-05,1.04741,-0.000314159,0,0,0,0,0,0,0.04,-0.006,-0.239,0,0,0.002,2.212,27.58,-4.326,-3.976,-0.259256,0.470606
18:10:57:569190,-3.49066e-05,-0.523791,1.57038,-5.23599e-05,1.04741,-0.000314159,0,0,0,0,0,0,0.021,-0.012,-0.209,0,0,0.002,2.128,28.224,-4.977,-4.718,-0.185988,0.452289
18:10:57:574193,-3.49066e-05,-0.523791,1.57038,-5.23599e-05,1.04741,-0.000314159,0,0,0,0,0,0,0.023,-0.022,-0.146,0,0,0.001,2.576,28.616,-4.431,-4.123,-0.164853,0.421291
18:10:57:579316,-3.49066e-05,-0.523791,1.57038,-5.23599e-05,1.04741,-0.000314159,0,0,0,0,0,0,0.03,-0.04,-0.021,0,0,0,1.862,28.105,-4.501,-4.032,-0.125401,0.373385
18:10:57:584299,-3.49066e-05,-0.523791,1.57038,-5.23599e-05,1.04741,-0.000314159,0,0,0,0,0,0,0.025,-0.044,0.033,0,0,0,3.122,28.301,-4.242,-3.808,-0.302935,0.326888
18:10:57:589427,-3.49066e-05,-0.523791,1.57038,-5.23599e-05,1.04741,-0.000314159,0,0,0,0,0,0,0.011,-0.028,0,0,0,0,2.401,27.993,-4.564,-4.375,-0.142309,0.355068
18:10:57:594428,-3.49066e-05,-0.523791,1.57038,-5.23599e-05,1.04741,-0.000314159,0,0,0,0,0,0,0.01,-0.009,-0.078,0,0,0,3.178,28.273,-4.382,-4.032,-0.184579,0.345205
18:10:57:599371,-3.49066e-05,-0.523791,1.57038,-5.23599e-05,1.04741,-0.000314159,0,0,0,0,0,0,0.009,-0.003,-0.146,0,0,0.001,2.618,28.385,-4.207,-4.578,-0.167671,0.393111
18:10:57:604552,-3.49066e-05,-0.523791,1.57038,-5.23599e-05,1.04741,-0.000314159,0,0,0,0,0,0,-0.003,-0.025,-0.101,0,0,0,2.639,27.713,-4.669,-3.976,-0.270528,0.604461
18:10:57:609493,-3.49066e-05,-0.523791,1.57038,-5.23599e-05,1.04741,-0.000314159,0,0,0,0,0,0,-0.03,-0.072,0.051,0,0,-0.001,2.037,28.119,-4.312,-3.094,-0.167671,0.505831
18:10:57:614680,-3.49066e-05,-0.523791,1.57038,-5.23599e-05,1.04741,-0.000314159,0,0,0,0,0,0,-0.036,-0.081,0.121,0,0,-0.001,2.653,28.077,-4.571,-4.179,-0.187397,0.477651
18:10:57:619672,-3.49066e-05,-0.523791,1.57038,-5.23599e-05,1.04741,-0.000314159,0,0,0,0,0,0,-0.029,-0.042,0.098,0,0,-0.001,2.443,28.189,-4.606,-4.515,-0.185988,0.414246
18:10:57:624810,-3.49066e-05,-0.523791,1.57038,-5.23599e-05,1.04741,-0.000314159,0,0,0,0,0,0,-0.025,0.001,0.041,0,0,0,2.639,27.993,-4.326,-4.263,-0.226849,0.411428
18:10:57:629814,-3.49066e-05,-0.523791,1.57038,-5.23599e-05,1.04741,-0.000314159,0,0,0,0,0,0,-0.012,0.046,0.015,0,0,0,2.093,28.371,-4.97,-3.948,-0.245166,0.443835
18:10:57:634923,-3.49066e-05,-0.523791,1.57038,-5.23599e-05,1.04741,-0.000314159,0,0,0,0,0,0,0.025,0.046,0.067,0,0,0,1.925,27.846,-4.487,-4.459,-0.205714,0.393111
18:10:57:639939,-3.49066e-05,-0.523791,1.57038,-5.23599e-05,1.04741,-0.000314159,0,0,0,0,0,0,0.052,0.032,0.079,0,0,0,2.702,28.14,-3.857,-4.123,-0.160626,0.487514
18:10:57:644925,-3.49066e-05,-0.523791,1.57038,-5.23599e-05,1.04741,-0.000314159,0,0,0,0,0,0,0.059,0.01,-0.009,0,-0.001,0.001,1.911,28.154,-4.263,-3.808,-0.201487,0.429745
18:10:57:650076,-3.49066e-05,-0.523791,1.57038,-5.23599e-05,1.04741,-0.000314159,0,0,0,0,0,0,0.043,0,-0.109,0,0,0.002,2.548,27.496,-4.508,-4.487,-0.188806,0.426927
18:10:57:655193,-3.49066e-05,-0.523791,1.57038,-5.23599e-05,1.04741,-0.000314159,0,0,0,0,0,0,0.018,-0.008,-0.2,0,0,0.002,2.639,28.63,-4.851,-3.325,-0.22544,0.311389
18:10:57:660190,-3.49066e-05,-0.523791,1.57038,-5.23599e-05,1.04741,-0.000314159,0,0,0,0,0,0,0.009,-0.011,-0.173,0,0,0.001,2.373,28.189,-4.69,-4.403,-0.143718,0.377612
18:10:57:665178,-3.49066e-05,-0.523791,1.57038,-5.23599e-05,1.04741,-0.000314159,0,0,0,0,0,0,-0.005,-0.018,-0.032,0,0,0,2.163,27.895,-4.879,-4.347,-0.164853,0.405792
18:10:57:670319,-3.49066e-05,-0.523791,1.57038,-5.23599e-05,1.04741,-0.000314159,0,0,0,0,0,0,-0.017,-0.027,0.06,0,0,-0.001,2.751,28.105,-4.501,-4.263,-0.160626,0.388884
18:10:57:675295,-3.49066e-05,-0.523791,1.57038,-5.23599e-05,1.04741,-0.000314159,0,0,0,0,0,0,-0.02,-0.037,0.113,0,0,-0.001,2.604,28.469,-4.9,-3.864,-0.166262,0.439608
18:10:57:680424,-3.49066e-05,-0.523791,1.57038,-5.23599e-05,1.04741,-0.000314159,0,0,0,0,0,0,-0.006,-0.036,0.089,0,0,0,1.988,28.504,-4.62,-4.291,-0.207123,0.418473
18:10:57:685441,-3.49066e-05,-0.523791,1.57038,-5.23599e-05,1.04741,-0.000314159,0,0,0,0,0,0,0.023,-0.022,-0.002,0,0,0,2.317,27.874,-4.501,-4.459,-0.204305,0.431154
18:10:57:690371,-3.49066e-05,-0.523791,1.57038,-5.23599e-05,1.04741,-0.000314159,0,0,0,0,0,0,0.033,-0.009,-0.073,0,0,0,2.156,28.042,-4.893,-3.605,-0.12681,0.469197
18:10:57:695511,-3.49066e-05,-0.523791,1.57038,-5.23599e-05,1.04741,-0.000314159,0,0,0,0,0,0,0.026,0.007,-0.117,0,0,0.001,1.813,28.455,-4.032,-4.179,-0.188806,0.472015
18:10:57:700497,-3.49066e-05,-0.523791,1.57038,-5.23599e-05,1.04741,-0.000314159,0,0,0,0,0,0,0.008,0.009,-0.069,0,0,0,2.842,28.679,-4.2,-4.487,-0.209941,0.367749
18:10:57:705690,-3.49066e-05,-0.523791,1.57038,-5.23599e-05,1.04741,-0.000314159,0,0,0,0,0,0,-0.031,-0.006,0.065,0,0,0,2.366,28.931,-4.438,-3.836,-0.222622,0.52133
18:10:57:710615,-3.49066e-05,-0.523791,1.57038,-5.23599e-05,1.04741,-0.000314159,0,0,0,0,0,0,-0.06,-0.02,0.104,0,0,-0.001,2.436,27.825,-4.676,-3.381,-0.22544,0.395929
18:10:57:715795,-3.49066e-05,-0.523791,1.57038,-5.23599e-05,1.04741,-0.000314159,0,0,0,0,0,0,-0.084,-0.021,-0.005,0,0,0,2.548,27.762,-4.424,-3.864,-0.181761,0.348023
18:10:57:720760,-3.49066e-05,-0.523791,1.57038,-5.23599e-05,1.04741,-0.000314159,0,0,0,0,0,0,-0.074,-0.005,-0.136,0,0,0,2.639,28.203,-4.557,-4.263,-0.159217,0.398747
18:10:57:725917,-3.49066e-05,-0.523791,1.57038,-5.23599e-05,1.04741,-0.000314159,0,0,0,0,0,0,-0.019,0.013,-0.232,0,0,0.001,2.352,28.175,-4.256,-3.864,-0.129628,0.424109
18:10:57:730925,-3.49066e-05,-0.523791,1.57038,-5.23599e-05,1.04741,-0.000314159,0,0,0,0,0,0,0.044,0.008,-0.141,0.001,0,0.001,2.037,27.895,-4.102,-3.948,-0.205714,0.484696
18:10:57:736065,-3.49066e-05,-0.523791,1.57038,-5.23599e-05,1.04741,-0.000314159,0,0,0,0,0,0,0.063,0.004,-0.061,0,0,0.001,2.45,27.664,-4.851,-4.207,-0.181761,0.429745
18:10:57:741017,-3.49066e-05,-0.523791,1.57038,-5.23599e-05,1.04741,-0.000314159,0,0,0,0,0,0,0.04,0.01,-0.033,0,0,0.001,1.953,28.14,-4.788,-3.948,-0.228258,0.388884
18:10:57:746169,-3.49066e-05,-0.523791,1.57038,-5.23599e-05,1.04741,-0.000314159,0,0,0,0,0,0,0.005,0.007,-0.046,0,0,0.001,2.863,28.091,-4.725,-4.116,-0.243757,0.370567
18:10:57:751171,-3.49066e-05,-0.523791,1.57038,-5.23599e-05,1.04741,-0.000314159,0,0,0,0,0,0,-0.042,-0.028,0.019,0,0,0,2.079,28.602,-4.424,-3.577,-0.128219,0.494559
18:10:57:756297,-3.49066e-05,-0.523791,1.57038,-5.23599e-05,1.04741,-0.000314159,0,0,0,0,0,0,-0.062,-0.059,0.13,0,0,-0.001,2.114,28.238,-4.739,-4.235,-0.188806,0.433972
18:10:57:761310,-3.49066e-05,-0.523791,1.57038,-5.23599e-05,1.04741,-0.000314159,0,0,0,0,0,0,-0.073,-0.074,0.257,0,0,-0.002,2.303,28.056,-4.97,-4.347,-0.1409,0.326888
18:10:57:766384,-3.49066e-05,-0.523791,1.57038,-5.23599e-05,1.04741,-0.000314159,0,0,0,0,0,0,-0.062,-0.054,0.248,0,0,-0.001,2.128,27.86,-4.858,-4.179,-0.286027,0.357886
18:10:57:771381,-3.49066e-05,-0.523791,1.57038,-5.23599e-05,1.04741,-0.000314159,0,0,0,0,0,0,-0.015,-0.013,0.12,0,0,0,1.288,28.336,-4.508,-3.836,-0.164853,0.46497
18:10:57:776565,-3.49066e-05,-0.523791,1.57038,-5.23599e-05,1.04741,-0.000314159,0,0,0,0,0,0,0.016,0.004,0.008,0,-0.001,0,2.576,28.385,-4.746,-3.948,-0.108493,0.377612
18:10:57:781509,-3.49066e-05,-0.523791,1.57038,-5.23599e-05,1.04741,-0.000314159,0,0,0,0,0,0,0.005,0.005,-0.126,0,-0.001,0,2.275,28.385,-4.368,-4.06,-0.160626,0.46497
18:10:57:786619,-3.49066e-05,-0.523791,1.57038,-5.23599e-05,1.04741,-0.000314159,0,0,0,0,0,0,-0.045,-0.009,-0.153,0,0,0,2.968,28.651,-5.145,-4.067,-0.142309,0.459334
18:10:57:791622,-3.49066e-05,-0.523791,1.57038,-5.23599e-05,1.04741,-0.000314159,0,0,0,0,0,0,-0.116,-0.045,-0.053,0,0,0,2.142,27.741,-4.662,-4.319,-0.319843,0.428336
18:10:57:796681,-3.49066e-05,-0.523791,1.57038,-5.23599e-05,1.04741,-0.000314159,0,0,0,0,0,0,-0.115,-0.065,0.052,0,0,0,2.366,28.602,-4.312,-3.836,-0.188806,0.414246
18:10:57:801810,-3.49066e-05,-0.523791,1.57038,-5.23599e-05,1.04741,-0.000314159,0,0,0,0,0,0,-0.04,-0.067,0.087,0,0,0,1.89,28.616,-4.809,-4.431,-0.157808,0.377612
18:10:57:806793,-3.49066e-05,-0.523791,1.57038,-5.23599e-05,1.04741,-0.000314159,0,0,0,0,0,0,0.016,-0.048,-0.009,0,0,0,2.142,27.664,-4.781,-4.55,-0.18317,0.263483
18:10:57:811938,-3.49066e-05,-0.523791,1.57038,-5.23599e-05,1.04741,-0.000314159,0,0,0,0,0,0,0.044,-0.007,-0.181,0,0,0.001,3.08,28.371,-4.431,-3.836,-0.160626,0.43679
18:10:57:816945,-3.49066e-05,-0.523791,1.57038,-5.23599e-05,1.04741,-0.000314159,0,0,0,0,0,0,-0.003,0.008,-0.178,0,0,0,2.436,27.713,-4.963,-4.095,-0.224031,0.424109
18:10:57:822057,-3.49066e-05,-0.523791,1.57038,-5.23599e-05,1.04741,-0.000314159,0,0,0,0,0,0,-0.051,-0.004,-0.084,0,0,0,2.317,28.105,-4.256,-3.948,-0.222622,0.414246
18:10:57:826988,-3.49066e-05,-0.523791,1.57038,-5.23599e-05,1.04741,-0.000314159,0,0,0,0,0,0,-0.089,-0.042,0.071,0,0,-0.001,2.947,27.972,-4.312,-4.291,-0.181761,0.455107
18:10:57:831991,-3.49066e-05,-0.523791,1.57038,-5.23599e-05,1.04741,-0.000314159,0,0,0,0,0,0,-0.082,-0.061,0.147,0,0,0,2.366,28.273,-5.012,-3.808,-0.229667,0.373385
18:10:57:837182,-3.49066e-05,-0.523791,1.57038,-5.23599e-05,1.04741,-0.000314159,0,0,0,0,0,0,-0.05,-0.066,0.205,0,0,0,2.401,29.141,-4.613,-4.123,-0.166262,0.446653
18:10:57:842176,-3.49066e-05,-0.523791,1.57038,-5.23599e-05,1.04741,-0.000314159,0,0,0,0,0,0,-0.037,-0.056,0.175,0,0,0,2.324,28.581,-5.033,-3.78,-0.185988,0.467788
18:10:57:847233,-3.49066e-05,-0.523791,1.57038,-5.23599e-05,1.04741,-0.000314159,0,0,0,0,0,0,-0.029,-0.026,-0.024,0,0,0,2.205,27.958,-4.851,-3.864,-0.284618,0.270528
18:10:57:852305,-3.49066e-05,-0.523791,1.57038,-5.23599e-05,1.04741,-0.000314159,0,0,0,0,0,0,-0.016,0.002,-0.215,0.001,0,0.001,1.575,28.042,-4.55,-4.004,-0.22544,0.411428
18:10:57:857375,-3.49066e-05,-0.523791,1.57038,-5.23599e-05,1.04741,-0.000314159,0,0,0,0,0,0,0.019,0.039,-0.377,0.001,0,0.003,2.527,28.35,-4.382,-3.92,-0.221213,0.43679
18:10:57:862428,-3.49066e-05,-0.523791,1.57038,-5.23599e-05,1.04741,-0.000314159,0,0,0,0,0,0,0.039,0.042,-0.311,0.001,0,0.003,2.667,27.797,-4.263,-4.319,-0.270528,0.335342
18:10:57:867537,-3.49066e-05,-0.523791,1.57038,-5.23599e-05,1.04741,-0.000314159,0,0,0,0,0,0,0.039,0.007,-0.028,0,-0.001,0,2.688,27.713,-4.683,-3.808,-0.22544,0.395929
18:10:57:872561,-3.49066e-05,-0.523791,1.57038,-5.23599e-05,1.04741,-0.000314159,0,0,0,0,0,0,0.021,-0.027,0.146,0,-0.001,0,2.688,27.909,-4.606,-4.032,-0.209941,0.455107
18:10:57:877668,-3.49066e-05,-0.523791,1.57038,-5.23599e-05,1.04741,-0.000314159,0,0,0,0,0,0,-0.011,-0.058,0.219,0,0,-0.001,2.653,27.944,-4.62,-3.976,-0.139491,0.607279
18:10:57:882642,-3.49066e-05,-0.523791,1.57038,-5.23599e-05,1.04741,-0.000314159,0,0,0,0,0,0,-0.025,-0.054,0.14,0,0,-0.001,2.975,28.091,-4.452,-4.291,-0.204305,0.477651
18:10:57:887625,-3.49066e-05,-0.523791,1.57038,-5.23599e-05,1.04741,-0.000314159,0,0,0,0,0,0,-0.022,-0.011,-0.077,0,0,0,2.604,28.518,-4.914,-3.92,-0.123992,0.462152
18:10:57:892791,-3.49066e-05,-0.523791,1.57038,-5.23599e-05,1.04741,-0.000314159,0,0,0,0,0,0,-0.003,0.03,-0.222,0,0,0.001,2.366,28.056,-4.382,-4.032,-0.142309,0.43679
18:10:57:897804,-3.49066e-05,-0.523791,1.57038,-5.23599e-05,1.04741,-0.000314159,0,0,0,0,0,0,0.034,0.076,-0.334,0.001,0,0.001,2.163,27.384,-4.494,-3.605,-0.164853,0.541056
18:10:57:902907,-3.49066e-05,-0.523791,1.57038,-5.23599e-05,1.04741,-0.000314159,0,0,0,0,0,0,0.051,0.079,-0.314,0.001,0,0.001,3.087,27.993,-4.795,-3.948,-0.122583,0.46497
18:10:57:907874,-3.49066e-05,-0.523791,1.57038,-5.23599e-05,1.04741,-0.000314159,0,0,0,0,0,0,0.045,0.044,-0.205,0,0,0.001,1.939,27.727,-4.795,-4.151,-0.202896,0.388884
18:10:57:913035,-3.49066e-05,-0.523791,1.57038,-5.23599e-05,1.04741,-0.000314159,0,0,0,0,0,0,0.009,-0.001,-0.114,0,0,0,2.765,28.14,-4.382,-4.011,-0.263483,0.414246
18:10:57:918037,-3.49066e-05,-0.523791,1.57038,-5.23599e-05,1.04741,-0.000314159,0,0,0,0,0,0,-0.011,-0.021,-0.1,0,0,0,1.953,28.301,-4.795,-4.067,-0.245166,0.386066
18:10:57:923168,-3.49066e-05,-0.523791,1.57038,-5.23599e-05,1.04741,-0.000314159,0,0,0,0,0,0,-0.014,-0.027,-0.153,0,0,0.001,1.953,27.37,-4.739,-4.263,-0.204305,0.525557
18:10:57:928108,-3.49066e-05,-0.523791,1.57038,-5.23599e-05,1.04741,-0.000314159,0,0,0,0,0,0,-0.002,-0.02,-0.22,0,0,0.001,2.765,28.273,-4.676,-4.151,-0.181761,0.395929
18:10:57:933312,-3.49066e-05,-0.523791,1.57038,-5.23599e-05,1.04741,-0.000314159,0,0,0,0,0,0,0.003,-0.008,-0.27,0,0,0.002,2.275,28.616,-4.725,-3.64,-0.263483,0.52133
18:10:57:938283,-3.49066e-05,-0.523791,1.57038,-5.23599e-05,1.04741,-0.000314159,0,0,0,0,0,0,-0.01,-0.009,-0.213,0,0,0.001,2.03,28.679,-4.676,-4.263,-0.222622,0.433972
18:10:57:943408,-3.49066e-05,-0.523791,1.57038,-5.23599e-05,1.04741,-0.000314159,0,0,0,0,0,0,-0.031,-0.03,-0.021,0,0,0,2.576,27.909,-4.571,-3.976,-0.301526,0.456516
18:10:57:948360,-3.49066e-05,-0.523791,1.57038,-5.23599e-05,1.04741,-0.000314159,0,0,0,0,0,0,-0.025,-0.047,0.08,0,0,-0.001,2.037,28.483,-4.676,-3.724,-0.188806,0.421291
18:10:57:953364,-3.49066e-05,-0.523791,1.57038,-5.23599e-05,1.04741,-0.000314159,0,0,0,0,0,0,0.012,-0.053,0.08,0,0,0,2.324,27.741,-5.019,-4.347,-0.288845,0.503013
18:10:57:958533,-3.49066e-05,-0.523791,1.57038,-5.23599e-05,1.04741,-0.000314159,0,0,0,0,0,0,0.034,-0.044,0.015,0,0,0,2.114,28.532,-4.788,-4.088,-0.266301,0.428336
18:10:57:963498,-3.49066e-05,-0.523791,1.57038,-5.23599e-05,1.04741,-0.000314159,0,0,0,0,0,0,0.032,-0.03,-0.043,0,0,0,3.115,28.224,-4.746,-3.633,-0.245166,0.383248
18:10:57:968678,-3.49066e-05,-0.523791,1.57038,-5.23599e-05,1.04741,-0.000314159,0,0,0,0,0,0,0.008,-0.031,-0.017,0,0,0,2.618,27.811,-4.62,-4.263,-0.264892,0.35225
18:10:57:973620,-3.49066e-05,-0.523791,1.57038,-5.23599e-05,1.04741,-0.000314159,0,0,0,0,0,0,-0.028,-0.043,0.089,0,0,-0.001,2.562,27.776,-4.795,-3.78,-0.228258,0.414246
18:10:57:978782,-3.49066e-05,-0.523791,1.57038,-5.23599e-05,1.04741,-0.000314159,0,0,0,0,0,0,-0.033,-0.045,0.16,0,0,-0.001,2.401,28.455,-4.613,-3.78,-0.229667,0.411428
18:10:57:983801,-3.49066e-05,-0.523791,1.57038,-5.23599e-05,1.04741,-0.000314159,0,0,0,0,0,0,0.001,-0.027,0.181,0,0,-0.001,2.527,28.021,-4.501,-3.976,-0.249393,0.395929
18:10:57:988926,-3.49066e-05,-0.523791,1.57038,-5.23599e-05,1.04741,-0.000314159,0,0,0,0,0,0,0.038,0.006,0.071,0,-0.001,0,2.324,28.056,-4.739,-4.431,-0.228258,0.467788
18:10:57:993910,-3.49066e-05,-0.523791,1.57038,-5.23599e-05,1.04741,-0.000314159,0,0,0,0,0,0,0.019,0.021,-0.012,0,-0.001,0,2.149,27.797,-4.487,-3.92,-0.242348,0.342387
18:10:57:999028,-3.49066e-05,-0.523791,1.57038,-5.23599e-05,1.04741,-0.000314159,0,0,0,0,0,0,-0.069,0.008,-0.045,0,0,0,2.051,27.797,-4.494,-3.633,-0.187397,0.49315
18:10:58:4032,-3.49066e-05,-0.523791,1.57038,-5.23599e-05,1.04741,-0.000314159,0,0,0,0,0,0,-0.118,-0.021,-0.022,0,0,0,2.94,27.643,-4.375,-3.78,-0.266301,0.505831
18:10:58:9036,-3.49066e-05,-0.523791,1.57038,-5.23599e-05,1.04741,-0.000314159,0,0,0,0,0,0,-0.1,-0.058,-0.054,0,0,0,2.079,27.468,-4.739,-4.088,-0.207123,0.446653
18:10:58:14106,-3.49066e-05,-0.523791,1.57038,-5.23599e-05,1.04741,-0.000314159,0,0,0,0,0,0,-0.04,-0.056,-0.135,0,0,0,3.01,28.154,-4.676,-3.836,-0.224031,0.424109
18:10:58:19157,-3.49066e-05,-0.523791,1.57038,-5.23599e-05,1.04741,-0.000314159,0,0,0,0,0,0,0.027,-0.02,-0.221,0.001,0,0,2.163,28.14,-4.151,-4.095,-0.164853,0.370567
18:10:58:24231,-3.49066e-05,-0.523791,1.57038,-5.23599e-05,1.04741,-0.000314159,0,0,0,0,0,0,0.031,0,-0.196,0.001,0,0.001,2.149,28.301,-4.34,-3.892,-0.147945,0.314207
18:10:58:29247,-3.49066e-05,-0.523791,1.57038,-5.23599e-05,1.04741,-0.000314159,0,0,0,0,0,0,0.006,-0.006,-0.085,0,0,0,2.667,27.727,-4.914,-4.123,-0.170489,0.401565
18:10:58:34422,-3.49066e-05,-0.523791,1.57038,-5.23599e-05,1.04741,-0.000314159,0,0,0,0,0,0,-0.001,-0.026,-0.014,0,0,0,2.45,27.727,-4.984,-4.487,-0.264892,0.500195
18:10:58:39421,-3.49066e-05,-0.523791,1.57038,-5.23599e-05,1.04741,-0.000314159,0,0,0,0,0,0,0.003,-0.047,0.072,0.001,0,0,2.142,27.419,-4.445,-4.263,-0.184579,0.433972
18:10:58:44411,-3.49066e-05,-0.523791,1.57038,-5.23599e-05,1.04741,-0.000314159,0,0,0,0,0,0,0.006,-0.045,0.115,0.002,0,-0.001,2.485,28.602,-4.991,-4.83,-0.16908,0.456516
18:10:58:49530,-3.49066e-05,-0.523791,1.57038,-5.23599e-05,1.04741,-0.000314159,0,0,0,0,0,0,0.011,-0.032,0.098,0.003,0,-0.001,2.149,27.993,-4.613,-4.207,-0.263483,0.452289
18:10:58:54473,-3.49066e-05,-0.523791,1.57038,-5.23599e-05,1.04741,-0.000314159,0,0,0,0,0,0,0.019,-0.034,0.025,0.004,0,0,2.254,28.301,-4.914,-4.116,-0.208532,0.326888
18:10:58:59671,-3.49066e-05,-0.523791,1.57038,-5.23599e-05,1.04741,-0.000314159,0,0,0,0,0,0,0.03,-0.063,-0.057,0.006,0,0,3.087,28.553,-4.501,-4.004,-0.221213,0.500195
18:10:58:64619,-3.49066e-05,-0.523791,1.57038,-5.23599e-05,1.04741,-0.000314159,0,0,0,0,0,0,0.032,-0.089,-0.045,0.007,0.001,0.001,2.1,27.797,-4.326,-4.319,-0.109902,0.395929
18:10:58:69793,-3.49066e-05,-0.523791,1.57038,-5.23599e-05,1.04741,-0.000314159,0,0,0,0,0,0,0.043,-0.112,-0.024,0.009,0.002,0.001,2.051,27.846,-5.278,-3.976,-0.18317,0.433972
18:10:58:74796,-3.49066e-05,-0.523791,1.57038,-5.23599e-05,1.04741,-0.000314159,0,0,0,0,0,0,0.068,-0.121,-0.087,0.011,0.003,0.001,2.576,28.189,-4.557,-4.095,-0.329706,0.38043
18:10:58:79788,-3.49066e-05,-0.523791,1.57038,-5.23599e-05,1.04741,-0.000314159,0,0,0,0,0,0,0.111,-0.162,-0.206,0.014,0.004,0.001,2.198,27.699,-4.97,-4.06,-0.246575,0.317025
18:10:58:84922,-3.49066e-05,-0.523791,1.57038,-5.23599e-05,1.04741,-0.000314159,0,0,0,0,0,0,0.108,-0.25,-0.092,0.017,0.006,0,2.324,27.797,-4.431,-4.431,-0.164853,0.345205
18:10:58:89910,-3.49066e-05,-0.523791,1.57038,-5.23599e-05,1.04741,-0.000314159,0,0,0,0,0,0,0.083,-0.31,0.1,0.019,0.007,-0.001,2.037,27.762,-5.264,-4.263,-0.231076,0.291663
18:10:58:95031,-3.49066e-05,-0.523791,1.57038,-5.23599e-05,1.04741,-0.000314159,0,0,0,0,0,0,0.08,-0.361,0.246,0.023,0.009,-0.002,2.401,28.126,-4.62,-3.612,-0.107084,0.433972
18:10:58:100026,-3.49066e-05,-0.523791,1.57038,-5.23599e-05,1.04741,-0.000314159,0,0,0,0,0,0,0.127,-0.367,0.129,0.025,0.01,-0.001,1.813,27.349,-5.257,-3.864,-0.224031,0.503013
18:10:58:105032,-3.49066e-05,-0.523791,1.57038,-5.23599e-05,1.04741,-0.000314159,0,0,0,0,0,0,0.223,-0.371,-0.18,0.028,0.012,0,2.275,28.203,-4.326,-4.347,-0.221213,0.322661
18:10:58:110106,-3.49066e-05,-0.523791,1.57038,-5.23599e-05,1.04741,-0.000314159,0,0,0,0,0,0,0.255,-0.384,-0.268,0.029,0.014,0,2.037,27.692,-4.676,-3.808,-0.224031,0.238121
18:10:58:115160,-3.49066e-05,-0.523791,1.57038,-5.23599e-05,1.04741,-0.000314159,0,0,0,0,0,0,0.234,-0.418,-0.107,0.03,0.016,-0.001,1.953,27.909,-4.2,-3.892,-0.22544,0.35225
18:10:58:120231,-3.49066e-05,-0.523791,1.57038,-5.23599e-05,1.04741,-0.000314159,0,0,0,0,0,0,0.205,-0.446,0.071,0.031,0.017,-0.003,2.016,27.748,-4.557,-3.948,-0.164853,0.357886
18:10:58:125412,-3.49066e-05,-0.523791,1.57038,-5.23599e-05,1.04741,-0.000331613,0,0,0,0,0,0,0.199,-0.486,0.189,0.031,0.016,-0.003,1.722,28.385,-4.452,-4.095,-0.16908,0.311389
18:10:58:130350,-3.49066e-05,-0.523791,1.57038,-5.23599e-05,1.04741,-0.000331613,0,0,0,0,0,0,0.218,-0.509,0.149,0.032,0.015,-0.003,2.037,27.846,-4.606,-4.459,-0.228258,0.405792
18:10:58:135535,-3.49066e-05,-0.523791,1.57038,-5.23599e-05,1.04741,-0.000331613,0,0,0,0,0,0,0.237,-0.535,0.095,0.033,0.016,-0.003,1.54,28.203,-4.445,-3.78,-0.263483,0.418473
18:10:58:140531,-3.49066e-05,-0.523791,1.57038,-5.23599e-05,1.04741,-0.000331613,0,0,0,0,0,0,0.235,-0.547,0.145,0.033,0.018,-0.003,1.799,28.175,-4.088,-3.976,-0.125401,0.336751
18:10:58:145473,-3.49066e-05,-0.523791,1.57038,-5.23599e-05,1.04741,-0.000349066,0,0,0,0,0,0,0.238,-0.553,0.248,0.034,0.02,-0.004,0.784,29.519,-3.962,-4.634,-0.22544,0.262074
18:10:58:150653,-3.49066e-05,-0.523791,1.57039,-5.23599e-05,1.04741,-0.000349066,0,0,0,0,0,0,0.26,-0.546,0.197,0.035,0.02,-0.004,1.477,28.581,-3.843,-4.004,-0.228258,0.188806
18:10:58:155653,-3.49066e-05,-0.523791,1.57039,-5.23599e-05,1.04739,-0.000366519,0,0,0,0,0,0,0.307,-0.516,-0.093,0.035,0.019,-0.002,1.288,28.763,-3.794,-4.207,-0.184579,0.322661
18:10:58:160793,-3.49066e-05,-0.523791,1.57039,-5.23599e-05,1.04739,-0.000366519,0,0,0,0,0,0,0.323,-0.493,-0.269,0.034,0.018,0,0.7,29.603,-3.493,-4.263,-0.228258,0.350841
18:10:58:165792,-3.49066e-05,-0.523791,1.57039,-5.23599e-05,1.04739,-0.000383972,0,0,0,0,0,0,0.305,-0.476,-0.223,0.032,0.017,0,-0.21,28.322,-3.43,-4.431,-0.286027,0.270528
18:10:58:170913,-3.49066e-05,-0.523791,1.57039,-5.23599e-05,1.04739,-0.000383972,0,0,0,0,0,0,0.259,-0.47,0.07,0.029,0.016,-0.002,-0.322,29.029,-3.374,-4.263,-0.249393,0.362113
18:10:58:175916,-5.23599e-05,-0.523791,1.57039,-5.23599e-05,1.04739,-0.000418879,0,0,0,0,0,-0.00335103,0.233,-0.451,0.16,0.027,0.015,-0.002,0.378,28.966,-3.192,-3.78,-0.209941,0.216986
18:10:58:180847,-5.23599e-05,-0.523791,1.57039,-5.23599e-05,1.04739,-0.000418879,0,0,0,0,0,-0.00263545,0.217,-0.414,0.066,0.026,0.014,-0.001,0.672,28.532,-2.779,-3.577,-0.209941,0.274755
18:10:58:186023,-5.23599e-05,-0.523791,1.57039,-5.23599e-05,1.04739,-0.000436332,0,0,0,0,0,-0.00366519,0.208,-0.342,-0.24,0.024,0.014,0,-0.273,29.141,-2.772,-4.116,-0.246575,0.177534
18:10:58:191028,-5.23599e-05,-0.523791,1.57039,-5.23599e-05,1.04739,-0.000453786,0,0,0,0,0,-0.00268781,0.199,-0.293,-0.355,0.022,0.012,0.001,-0.112,29.183,-2.772,-4.403,-0.371976,0.142309
18:10:58:196165,-5.23599e-05,-0.523791,1.57039,-5.23599e-05,1.04739,-0.000471239,0,0,0,0,0,-0.00342085,0.18,-0.275,-0.273,0.02,0.011,0,-0.56,29.274,-2.604,-4.151,-0.229667,-0.001409
18:10:58:201166,-5.23599e-05,-0.523773,1.57039,-5.23599e-05,1.04737,-0.000488692,0,0,0,0,0,-0.00432842,0.124,-0.246,-0.121,0.016,0.008,0,-0.539,29.722,-2.478,-4.004,-0.288845,0.085949
18:10:58:206289,-5.23599e-05,-0.523773,1.57039,-5.23599e-05,1.04737,-0.000523599,0,0,0,0,0,-0.00490437,0.071,-0.219,-0.086,0.014,0.007,0,-0.056,28.938,-1.827,-4.207,-0.26771,0.218395
18:10:58:211292,-5.23599e-05,-0.523773,1.57039,-5.23599e-05,1.04735,-0.000541052,0,0,0,0,0,-0.00488692,-0.008,-0.185,-0.065,0.012,0.006,-0.001,-0.791,28.952,-2.072,-3.661,-0.288845,0.242348
18:10:58:216272,-5.23599e-05,-0.523773,1.57039,-5.23599e-05,1.04735,-0.000558505,0,0,0,0,0,-0.00438078,-0.042,-0.175,-0.006,0.011,0.005,-0.001,-1.477,28.623,-1.533,-3.696,-0.329706,0.302935
18:10:58:221418,-6.98132e-05,-0.523773,1.57039,-5.23599e-05,1.04735,-0.000575959,0,0,0,0,0,-0.00432842,-0.042,-0.167,0.108,0.009,0.003,-0.001,-1.134,29.694,-1.596,-4.235,-0.287436,0.059178
18:10:58:226538,-6.98132e-05,-0.523773,1.57039,-6.98132e-05,1.04735,-0.000593412,0,0,0,0,0,-0.00301942,-0.015,-0.153,0.134,0.008,0.002,-0.001,-1.596,29.708,-1.827,-3.724,-0.350841,0.1409
18:10:58:231539,-6.98132e-05,-0.523773,1.57039,-6.98132e-05,1.04735,-0.000610865,0,0,0,0,0,-0.00349066,0.023,-0.119,0.08,0.006,0.001,0,-1.61,29.995,-1.778,-3.633,-0.30998,0.088767
18:10:58:236534,-6.98132e-05,-0.523773,1.57041,-6.98132e-05,1.04734,-0.000645772,0,0,0,0,0,-0.00364774,0.033,-0.097,0.027,0.005,0.001,0,-2.093,30.338,-1.407,-3.64,-0.453698,0.133855
18:10:58:241678,-6.98132e-05,-0.523756,1.57041,-6.98132e-05,1.04734,-0.000663225,0,0,0,0,0,-0.00466003,0.038,-0.082,-0.025,0.004,0.001,0,-2.38,30.149,-1.589,-3.724,-0.371976,0.01409
18:10:58:246650,-6.98132e-05,-0.523756,1.57041,-6.98132e-05,1.04734,-0.000680678,0,0,0,0,0,-0.0045204,0.042,-0.081,-0.053,0.004,0,0.001,-1.701,30.345,-1.176,-3.808,-0.367749,0.131037
18:10:58:251803,-8.72665e-05,-0.523756,1.57041,-6.98132e-05,1.04734,-0.000698132,0,0,0,0,0,-0.00303687,0.036,-0.077,-0.104,0.004,0,0,-1.673,30.506,-0.952,-3.808,-0.373385,0.083131
18:10:58:256787,-8.72665e-05,-0.523756,1.57041,-6.98132e-05,1.04732,-0.000715585,0,0,0,0,0,-0.00378736,0.019,-0.064,-0.14,0.003,0,0,-1.911,30.24,-1.022,-4.116,-0.247984,0.190215
18:10:58:261737,-0.00010472,-0.523738,1.57041,-6.98132e-05,1.04732,-0.000733038,0,0,0,0,0,-0.0039619,-0.002,-0.032,-0.157,0.003,0,0,-2.471,31.311,-0.77,-3.689,-0.308571,0.095812
18:10:58:266924,-0.00010472,-0.523738,1.57043,-6.98132e-05,1.04732,-0.000750492,-0.00158825,0,0,0,0,-0.00363028,0.001,-0.018,-0.085,0.002,0,0,-2.289,31.003,-0.427,-4.039,-0.284618,0.083131
18:10:58:271911,-0.00010472,-0.523738,1.57043,-6.98132e-05,1.04732,-0.000785398,-0.00165806,0,0,0,0,-0.00387463,0.011,-0.037,0.003,0.002,0,0,-2.016,30.583,-0.651,-4.403,-0.390293,0.091585
18:10:58:277034,-0.00010472,-0.523721,1.57045,-6.98132e-05,1.0473,-0.000785398,0,0,0,0,0,-0.00272271,0.016,-0.089,0.097,0.001,0,0,-2.667,30.128,-0.462,-4.312,-0.332524,0.05636
18:10:58:282171,-0.000122173,-0.523721,1.57045,-6.98132e-05,1.04728,-0.000802851,0,0,0.00176278,0,0,-0.00390954,0.013,-0.108,0.093,0.001,0,0,-2.555,30.786,-0.539,-4.459,-0.376203,0.245166
18:10:58:287144,-0.000122173,-0.523721,1.57045,-6.98132e-05,1.04728,-0.000820305,0,0,0.00162316,0,0,-0.00251327,0.007,-0.085,0.044,0.001,0,0,-3.528,30.037,-0.161,-4.151,-0.371976,0.088767
18:10:58:292146,-0.000122173,-0.523704,1.57046,-6.98132e-05,1.04728,-0.000837758,0,0.00202458,0,0,0,-0.00321141,0.005,-0.056,0.048,0.001,0,0,-3.409,30.541,-0.133,-3.948,-0.353659,0.026771
18:10:58:297273,-0.000139626,-0.523704,1.57046,-6.98132e-05,1.04727,-0.000855211,0,0,0.0018675,0,0,-0.0039619,0.002,-0.035,0.099,0.001,0,0,-3.864,30.037,-0.091,-4.487,-0.456516,0.047906
18:10:58:302283,-0.000139626,-0.523686,1.57048,-6.98132e-05,1.04727,-0.000890118,0,0.00197222,0.00216421,0,0,-0.00429351,0,-0.043,0.094,0,0,0,-3.29,31.556,-0.35,-4.067,-0.397338,0.108493
18:10:58:307393,-0.00015708,-0.523686,1.5705,-6.98132e-05,1.04727,-0.000907571,-0.00226893,0.00176278,0.00232129,0,0,-0.00455531,-0.001,-0.06,0.004,0,-0.001,0,-2.87,30.114,-0.504,-4.347,-0.419882,-0.01409
18:10:58:312401,-0.000174533,-0.523669,1.57052,-6.98132e-05,1.04725,-0.000925025,-0.00267035,0.00167552,0.00233874,0,0,-0.00490437,-0.001,-0.064,-0.034,0,-0.001,0,-3.598,30.737,-0.189,-4.116,-0.201487,-0.060587
18:10:58:317523,-0.000174533,-0.523669,1.57052,-6.98132e-05,1.04723,-0.000942478,-0.00279253,0,0.00235619,0,-0.0023911,-0.00462512,0,-0.06,0.04,0,0,0,-3.164,30.485,-0.343,-4.123,-0.398747,0.145127
18:10:58:322536,-0.000191986,-0.523669,1.57053,-6.98132e-05,1.04723,-0.000959931,-0.00172788,0,0.00249582,0,-0.00233874,-0.00321141,0,-0.055,0.142,0,0,-0.001,-3.752,31.003,-0.182,-3.668,-0.367749,-0.08454
18:10:58:327662,-0.00020944,-0.523651,1.57055,-6.98132e-05,1.04723,-0.000959931,-0.00233874,0.00214676,0.00274017,0,0,-0.00251327,-0.012,-0.042,0.236,0,0,-0.002,-3.143,30.667,-0.42,-4.207,-0.332524,-0.005636
18:10:58:332673,-0.00020944,-0.523651,1.57055,-6.98132e-05,1.04721,-0.000977384,-0.00190241,0.0018675,0.00181514,0,0,-0.00230383,-0.028,-0.028,0.219,0,0,-0.002,-3.682,30.842,-0.245,-4.004,-0.402974,-0.131037
18:10:58:337786,-0.00020944,-0.523634,1.57057,-6.98132e-05,1.04721,-0.000994838,0,0.00171042,0.00225147,0,0,-0.00378736,-0.049,0.004,0.09,0,0,0,-3.563,30.905,-0.392,-4.067,-0.391702,0.016908
18:10:58:342768,-0.000226893,-0.523634,1.57057,-6.98132e-05,1.04721,-0.00101229,0,0,0.00158825,0,0,-0.00274017,-0.047,0.027,-0.026,0,0,0,-3.549,30.618,0.21,-4.207,-0.314207,-0.132446
18:10:58:347785,-0.000226893,-0.523616,1.57059,-6.98132e-05,1.04721,-0.00102974,-0.00164061,0,0,0,0,-0.00308923,-0.016,0.038,-0.149,0.001,0,0.001,-4.613,30.373,0.511,-3.92,-0.495968,-0.035225
18:10:58:352895,-0.000226893,-0.523616,1.57059,-6.98132e-05,1.0472,-0.0010472,0,0,0,0,0,-0.00242601,0.024,0.017,-0.125,0,-0.001,0.001,-4.025,31.059,-0.077,-4.088,-0.369158,-0.071859
18:10:58:357852,-0.000244346,-0.523616,1.57059,-6.98132e-05,1.0472,-0.0010472,-0.00181514,0,0,0,0,0,0.036,0.005,-0.058,-0.002,-0.001,0,-3.962,29.869,0.378,-3.864,-0.445244,-0.107084
18:10:58:363015,-0.000244346,-0.523599,1.5706,-6.98132e-05,1.04718,-0.0010472,-0.0015708,0,0,0,0,0,0.017,0.033,-0.001,-0.008,-0.002,0,-4.081,30.296,1.001,-4.291,-0.386066,-0.049315
18:10:58:368031,-0.000244346,-0.523599,1.57062,-6.98132e-05,1.04718,-0.00106465,0,0,0.00218166,0,0,-0.00312414,-0.014,0.084,-0.015,-0.013,-0.002,0,-4.627,31.115,0.735,-3.843,-0.404383,-0.007045
18:10:58:373154,-0.000261799,-0.523581,1.57062,-6.98132e-05,1.04718,-0.0010821,-0.00232129,0.00226893,0.00202458,0,0,-0.00267035,-0.061,0.166,-0.05,-0.017,-0.003,0,-4.949,30.59,0.252,-4.123,-0.391702,-0.107084
18:10:58:378138,-0.000279253,-0.523581,1.57062,-6.98132e-05,1.04718,-0.00109956,-0.00172788,0.00197222,0.00178024,0,0,-0.0026529,-0.079,0.195,-0.045,-0.017,-0.003,0,-4.067,31.073,0.217,-4.011,-0.32407,-0.005636
18:10:58:383265,-0.000279253,-0.523564,1.57064,-6.98132e-05,1.04716,-0.00109956,-0.00246091,0.00179769,0,0,0,-0.00293215,-0.088,0.191,-0.005,-0.016,-0.004,0,-3.486,30.345,0.231,-3.836,-0.132446,-0.16908
18:10:58:388264,-0.000296706,-0.523564,1.57064,-6.98132e-05,1.04716,-0.00111701,-0.0018326,0,0,0,0,-0.00287979,-0.094,0.166,0.016,-0.014,-0.005,0,-4.417,30.674,0.875,-4.375,-0.363522,-0.091585
18:10:58:393406,-0.000296706,-0.523546,1.57064,-6.98132e-05,1.04716,-0.00111701,-0.00233874,0.00230383,0,0,0,-0.0023911,-0.107,0.117,0.045,-0.012,-0.007,0,-4.186,30.408,0.252,-3.297,-0.332524,-0.21135
18:10:58:398405,-0.000314159,-0.523546,1.57066,-6.98132e-05,1.04716,-0.00113446,-0.00198968,0.00167552,0,0,0,0,-0.112,0.084,0.094,-0.012,-0.006,0,-4.683,31.353,0.931,-4.634,-0.460743,-0.105675
18:10:58:403389,-0.000314159,-0.523529,1.57066,-6.98132e-05,1.04716,-0.00115192,0,0.00233874,0,0,0,-0.00247837,-0.094,0.054,0.215,-0.014,-0.004,0,-3.948,30.499,1.064,-3.885,-0.322661,-0.202896
18:10:58:408528,-0.000314159,-0.523529,1.57066,-6.98132e-05,1.04715,-0.00115192,0,0.00169297,0,0,0,0,-0.065,0.067,0.269,-0.017,-0.002,0,-4.13,30.499,1.288,-3.899,-0.449471,-0.095812
18:10:58:413655,-0.000331613,-0.523512,1.57067,-6.98132e-05,1.04715,-0.00115192,0,0,0,0,0,0,-0.017,0.15,0.195,-0.023,0,0.001,-4.613,30.345,0.567,-4.235,-0.297299,-0.190215
18:10:58:418654,-0.000331613,-0.523512,1.57067,-6.98132e-05,1.04713,-0.00116937,0,0.0021293,0,0,0,-0.00235619,-0.008,0.231,0.062,-0.027,-0.001,0.002,-4.697,30.618,0.854,-3.92,-0.343796,-0.081722
18:10:58:423580,-0.000331613,-0.523494,1.57067,-6.98132e-05,1.04713,-0.00116937,0,0.0018326,0,0,0,0,-0.057,0.338,-0.081,-0.034,-0.004,0.003,-4.193,31.143,1.19,-3.976,-0.400156,-0.204305
18:10:58:428776,-0.000349066,-0.523494,1.57067,-6.98132e-05,1.04713,-0.00116937,0,0,0,0,0,0,-0.129,0.375,-0.062,-0.038,-0.007,0.003,-4.949,30.408,1.022,-3.612,-0.284618,-0.121174
18:10:58:433778,-0.000349066,-0.523494,1.57067,-6.98132e-05,1.04713,-0.00118682,0,0,0,0,0,0,-0.253,0.389,0.051,-0.042,-0.011,0.002,-5.229,30.128,0.826,-4.004,-0.388884,-0.369158
18:10:58:438707,-0.000349066,-0.523494,1.57067,-6.98132e-05,1.04713,-0.00118682,0,0,0,0,0,0,-0.315,0.395,0.062,-0.043,-0.013,0.002,-4.102,30.576,1.148,-4.088,-0.36634,-0.188806
18:10:58:443886,-0.000349066,-0.523477,1.57067,-6.98132e-05,1.04713,-0.00120428,0,0,0,0,0,0,-0.342,0.437,-0.092,-0.042,-0.017,0.003,-3.913,30.653,1.414,-4.144,-0.45088,-0.021135
18:10:58:448837,-0.000349066,-0.523477,1.57067,-6.98132e-05,1.04711,-0.00120428,0,0,0,0,0,0,-0.32,0.481,-0.227,-0.041,-0.019,0.004,-3.794,31.339,0.791,-4.004,-0.342387,-0.083131
18:10:58:453971,-0.000349066,-0.523477,1.57069,-6.98132e-05,1.04711,-0.00120428,0,0,0,0,0,0,-0.283,0.532,-0.297,-0.04,-0.024,0.006,-4.34,29.659,1.33,-4.347,-0.457925,-0.061996
18:10:58:459006,-0.000349066,-0.523477,1.57069,-6.98132e-05,1.04711,-0.00120428,0,0,0,0,0,0,-0.316,0.533,-0.219,-0.041,-0.029,0.006,-4.536,30.625,0.707,-4.494,-0.424109,-0.160626
18:10:58:464141,-0.000349066,-0.523477,1.57069,-6.98132e-05,1.04711,-0.00120428,0,0,0,0,0,0,-0.388,0.509,-0.168,-0.042,-0.033,0.006,-4.879,30.625,0.539,-4.004,-0.388884,-0.039452
18:10:58:469136,-0.000349066,-0.523459,1.57069,-6.98132e-05,1.04711,-0.00120428,0,0,0,0,0,0,-0.518,0.474,-0.132,-0.043,-0.039,0.006,-4.102,30.142,1.547,-4.382,-0.336751,-0.143718
18:10:58:474303,-0.000349066,-0.523459,1.57069,-6.98132e-05,1.04711,-0.00120428,0,0,0,0,0,0,-0.586,0.474,-0.109,-0.044,-0.044,0.006,-3.752,29.918,0.511,-3.836,-0.348023,-0.080313
18:10:58:479263,-0.000349066,-0.523459,1.57069,-6.98132e-05,1.04711,-0.00120428,0,0,0,0,0,0,-0.642,0.512,-0.094,-0.045,-0.051,0.007,-4.067,30.051,0.728,-3.899,-0.36634,-0.081722
18:10:58:484392,-0.000349066,-0.523459,1.57069,-6.98132e-05,1.04711,-0.00120428,0,0,0,0,0,0,-0.661,0.547,-0.143,-0.046,-0.055,0.008,-3.759,29.771,0.406,-3.871,-0.342387,-0.061996
18:10:58:489382,-0.000349066,-0.523459,1.57069,-6.98132e-05,1.04711,-0.00120428,0,0,0,0,0,0,-0.681,0.568,-0.288,-0.046,-0.059,0.01,-3.64,30.604,-0.049,-4.032,-0.424109,0.018317
18:10:58:494385,-0.000349066,-0.523459,1.57069,-6.98132e-05,1.04711,-0.00120428,0,0,0,0,0,0,-0.695,0.556,-0.361,-0.045,-0.061,0.011,-2.947,29.715,0.707,-3.717,-0.19726,-0.021135
18:10:58:499522,-0.000349066,-0.523459,1.57069,-6.98132e-05,1.04711,-0.00118682,0,0,0,0,0,0,-0.722,0.53,-0.372,-0.044,-0.061,0.012,-3.409,29.575,-0.273,-3.892,-0.312798,-0.122583
18:10:58:504525,-0.000349066,-0.523459,1.57069,-6.98132e-05,1.04711,-0.00118682,0,0,0,0,0,0,-0.738,0.526,-0.346,-0.042,-0.06,0.011,-3.752,29.778,0.196,-4.403,-0.370567,0.021135
18:10:58:509650,-0.000349066,-0.523459,1.57069,-6.98132e-05,1.04711,-0.00116937,0,0,0,0,0,0,-0.737,0.53,-0.329,-0.04,-0.056,0.011,-2.436,28.952,-1.225,-3.864,-0.388884,0.118356
18:10:58:514633,-0.000349066,-0.523459,1.57069,-6.98132e-05,1.04713,-0.00116937,0,0,0,0,0,0,-0.705,0.521,-0.339,-0.038,-0.053,0.011,-2.828,29.064,-1.526,-4.179,-0.228258,0.021135
18:10:58:519780,-0.000349066,-0.523459,1.57069,-6.98132e-05,1.04713,-0.00116937,0,0,0,0,0,0,-0.615,0.487,-0.383,-0.035,-0.047,0.01,-2.94,28.742,-1.946,-4.207,-0.233894,-0.004227
18:10:58:524774,-0.000349066,-0.523459,1.57069,-6.98132e-05,1.04713,-0.00115192,0,0,0,0,0,0.00209439,-0.546,0.46,-0.417,-0.033,-0.043,0.01,-1.589,28.07,-1.736,-3.92,-0.302935,0.122583
18:10:58:529908,-0.000349066,-0.523459,1.57069,-6.98132e-05,1.04713,-0.00113446,0,0,0,0,0,0.00387463,-0.458,0.413,-0.385,-0.029,-0.036,0.009,-1.701,28.812,-2.66,-4.123,-0.297299,0.207123
18:10:58:534884,-0.000349066,-0.523459,1.57069,-6.98132e-05,1.04713,-0.00113446,0,0,0,0,0,0,-0.384,0.321,-0.156,-0.023,-0.028,0.005,-0.966,27.755,-3.073,-3.885,-0.359295,0.083131
18:10:58:540033,-0.000349066,-0.523459,1.57067,-6.98132e-05,1.04715,-0.00111701,0,0,0,0,0,0,-0.326,0.238,0.037,-0.018,-0.023,0.002,-1.316,27.356,-4.053,-3.871,-0.266301,0.190215
18:10:58:545023,-0.000349066,-0.523459,1.57067,-6.98132e-05,1.04716,-0.00109956,0,0,0,0,0,0.00263545,-0.213,0.137,0.128,-0.011,-0.015,0,-0.889,27.552,-3.913,-4.123,-0.180352,0.125401
18:10:58:550025,-0.000349066,-0.523459,1.57067,-6.98132e-05,1.04716,-0.0010821,0,0,0,0,0.00258309,0.00310669,-0.131,0.116,-0.015,-0.008,-0.01,0,-1.092,26.81,-3.724,-4.088,-0.238121,0.121174
18:10:58:555136,-0.000349066,-0.523459,1.57067,-6.98132e-05,1.04718,-0.00106465,0,0,0,0,0.00289725,0.00383972,-0.026,0.144,-0.352,-0.007,-0.004,0.003,-1.001,27.699,-4.725,-4.088,-0.071859,0.229667
18:10:58:560135,-0.000331613,-0.523459,1.57067,-6.98132e-05,1.04718,-0.0010472,0,0,0,0,0,0.00315905,0.021,0.178,-0.464,-0.008,0,0.004,-1.218,27.356,-4.83,-3.78,-0.071859,0.301526
18:10:58:565253,-0.000331613,-0.523459,1.57067,-6.98132e-05,1.04718,-0.0010472,0,0,0,0,0,0.00275762,0.071,0.244,-0.329,-0.015,0.005,0.004,-0.462,26.621,-5.173,-4.179,-0.173307,0.224031
18:10:58:570271,-0.000331613,-0.523459,1.57067,-6.98132e-05,1.0472,-0.00101229,0,0,0,0,0,0.00352557,0.106,0.316,-0.14,-0.021,0.009,0.002,-0.126,25.788,-6.118,-4.179,-0.200078,0.231076
18:10:58:575395,-0.000331613,-0.523459,1.57067,-6.98132e-05,1.04721,-0.000994838,0,0,0,0,0.00314159,0.00429351,0.191,0.482,-0.002,-0.032,0.015,0.001,-0.756,26.082,-6.517,-4.256,-0.032407,0.331115
18:10:58:580417,-0.000331613,-0.523459,1.57067,-6.98132e-05,1.04723,-0.000977384,0,0,0,0,0,0.00471239,0.273,0.606,-0.081,-0.038,0.02,0.002,0.756,26.012,-5.838,-4.34,-0.143718,0.387475
18:10:58:585394,-0.000314159,-0.523459,1.57066,-6.98132e-05,1.04723,-0.000959931,0,0,0,0,0,0.00308923,0.412,0.734,-0.303,-0.044,0.028,0.004,-0.658,25.648,-6.426,-4.27,0.022544,0.256438
18:10:58:590537,-0.000314159,-0.523459,1.57066,-6.98132e-05,1.04723,-0.000942478,0,0,0,0,0,0.00392699,0.503,0.762,-0.387,-0.046,0.034,0.004,0.371,26.222,-6.671,-4.235,-0.108493,0.438199
18:10:58:595524,-0.000314159,-0.523459,1.57064,-6.98132e-05,1.04725,-0.000942478,0,0,0,0,0,0.00286234,0.649,0.793,-0.395,-0.054,0.047,0.004,0.091,25.683,-7.007,-3.409,-0.087358,0.359295
18:10:58:600655,-0.000296706,-0.523459,1.57064,-6.98132e-05,1.04727,-0.000907571,0.00179769,0,0,0,0,0.0044855,0.766,0.886,-0.429,-0.066,0.056,0.004,0.679,25.683,-7.315,-3.864,-0.122583,0.335342
18:10:58:605631,-0.000296706,-0.523477,1.57064,-6.98132e-05,1.04727,-0.000890118,0,0,0,0,0.00247837,0.00408407,0.957,1.163,-0.628,-0.092,0.071,0.006,0.889,25.823,-6.874,-4.151,-0.016908,0.280391
18:10:58:610752,-0.000279253,-0.523477,1.57064,-6.98132e-05,1.04728,-0.000855211,0.0023911,0,0,0,0.00270526,0.00499164,1.058,1.354,-0.785,-0.108,0.077,0.007,1.092,25.592,-7.315,-4.039,0.021135,0.311389
18:10:58:615769,-0.000279253,-0.523477,1.57062,-6.98132e-05,1.04728,-0.000820305,0.00174533,0,0,0,0,0.00567232,1.106,1.461,-0.895,-0.112,0.079,0.008,0.812,26.306,-6.79,-4.032,-0.030998,0.278982
18:10:58:620894,-0.000244346,-0.523477,1.57062,-6.98132e-05,1.04728,-0.000785398,0.00282743,0,0,0,0,0.00563741,1.069,1.39,-0.901,-0.103,0.076,0.008,1.841,25.221,-6.461,-4.039,-0.033816,0.369158
18:10:58:625878,-0.000226893,-0.523477,1.57062,-6.98132e-05,1.04728,-0.000750492,0.00326377,0,0,0,0,0.00596903,0.977,1.199,-0.936,-0.083,0.07,0.007,1.596,25.564,-6.671,-3.927,-0.067632,0.418473
18:10:58:630825,-0.00020944,-0.523477,1.57062,-6.98132e-05,1.04728,-0.000698132,0.00434587,0,0,0,0,0.00860447,0.934,1.094,-0.986,-0.074,0.066,0.007,2.534,26.075,-6.608,-3.78,0.111311,0.487514
18:10:58:636002,-0.000174533,-0.523477,1.57062,-6.98132e-05,1.04728,-0.000663225,0.00492183,0,0,0,0,0.00870919,0.911,0.994,-1.001,-0.069,0.06,0.007,2.254,25.249,-6.776,-4.116,-0.05636,0.47906
18:10:58:640967,-0.00015708,-0.523477,1.57062,-6.98132e-05,1.04728,-0.000610865,0.0060912,0,0,0,0,0.00998328,0.887,0.91,-0.926,-0.066,0.053,0.006,2.261,25.452,-6.055,-3.927,0.025362,0.359295
18:10:58:646122,-0.000122173,-0.523477,1.57062,-6.98132e-05,1.04728,-0.000558505,0.00644026,0,0,0,0,0.00883137,0.844,0.845,-0.888,-0.063,0.049,0.005,2.751,26.131,-5.908,-3.955,-0.043679,0.610097
18:10:58:651129,-8.72665e-05,-0.523477,1.57062,-6.98132e-05,1.04728,-0.000523599,0.00575959,0,0,0,0,0.00909317,0.744,0.743,-0.905,-0.057,0.043,0.004,2.569,26.362,-6.111,-4.004,-0.083131,0.474833
18:10:58:656255,-6.98132e-05,-0.523477,1.57062,-6.98132e-05,1.04728,-0.000471239,0.00532325,0,0,0,0,0.00977384,0.681,0.674,-0.941,-0.053,0.04,0.004,3.465,26.957,-5.593,-4.347,-0.009863,0.402974
18:10:58:661252,-3.49066e-05,-0.523477,1.57062,-6.98132e-05,1.04728,-0.000383972,0.00523599,0,0,0,0,0.0110828,0.632,0.571,-0.972,-0.049,0.036,0.005,3.892,26.418,-5.376,-4.207,-0.050724,0.674911
18:10:58:666381,-1.74533e-05,-0.523477,1.57062,-6.98132e-05,1.04728,-0.000331613,0.00507891,0,0,0,0,0.0130551,0.624,0.509,-0.969,-0.046,0.033,0.005,3.752,26.558,-5.089,-3.521,-0.104266,0.474833
18:10:58:671380,0,-0.523459,1.57062,-6.98132e-05,1.04728,-0.000261799,0.00514872,0,0,0,0,0.0136136,0.6,0.425,-0.934,-0.041,0.028,0.005,4.263,26.649,-5.047,-4.011,-0.123992,0.665048
18:10:58:676507,3.49066e-05,-0.523459,1.57062,-6.98132e-05,1.04728,-0.000174533,0.00621337,0,0,0,0,0.0140499,0.547,0.374,-0.901,-0.038,0.023,0.005,5.159,26.845,-4.599,-4.095,-0.167671,0.556555
18:10:58:681528,6.98132e-05,-0.523459,1.57062,-6.98132e-05,1.04728,-0.00010472,0.00659734,0,0,0,0,0.015865,0.422,0.299,-0.869,-0.032,0.014,0.004,4.816,27.818,-3.92,-4.207,-0.108493,0.593189
18:10:58:686448,0.00010472,-0.523459,1.57062,-6.98132e-05,1.04728,0,0.00755728,0,0,0,0,0.0179943,0.34,0.25,-0.858,-0.028,0.008,0.004,5.334,27.3,-3.731,-4.032,-0.121174,0.548101
18:10:58:691631,0.000139626,-0.523459,1.57062,-6.98132e-05,1.04728,8.72665e-05,0.00673697,0,0,0,0,0.020944,0.27,0.176,-0.786,-0.02,0.001,0.003,5.397,28.217,-3.29,-4.375,-0.157808,0.52133
18:10:58:696631,0.000174533,-0.523459,1.57062,-6.98132e-05,1.04727,0.000191986,0.00736529,0,0,0,0,0.0209963,0.264,0.125,-0.676,-0.015,0,0.003,5.635,27.636,-3.192,-4.403,-0.081722,0.387475
18:10:58:701757,0.00020944,-0.523459,1.57062,-6.98132e-05,1.04727,0.000331613,0.00675442,0,0,0,0,0.0232478,0.293,0.043,-0.503,-0.008,0,0.002,5.95,27.069,-3.374,-3.549,-0.171898,0.238121
18:10:58:706758,0.000244346,-0.523459,1.57062,-6.98132e-05,1.04727,0.000453786,0.00729548,0,0,0,0,0.0256214,0.319,-0.014,-0.458,-0.005,0,0.002,6.139,28.553,-3.192,-4.655,-0.228258,0.226849
18:10:58:711770,0.000279253,-0.523459,1.57062,-6.98132e-05,1.04727,0.000593412,0.007662,0,0,0,0,0.0249408,0.334,-0.096,-0.489,-0.002,0.002,0.002,6.195,27.727,-2.387,-4.067,-0.201487,0.046497
18:10:58:716880,0.000314159,-0.523459,1.57062,-6.98132e-05,1.04727,0.000715585,0.0074351,0,0,0,0,0.0236841,0.316,-0.132,-0.507,-0.001,0.003,0.002,6.552,28.07,-2.324,-4.123,-0.243757,0.05636
18:10:58:721880,0.000349066,-0.523459,1.57064,-6.98132e-05,1.04727,0.000820305,0.00671952,0,0,0,0,0.0216595,0.275,-0.133,-0.499,-0.002,0.004,0.001,6.538,27.902,-2.576,-3.633,-0.26771,-0.015499
18:10:58:726999,0.000383972,-0.523459,1.57064,-6.98132e-05,1.04725,0.000907571,0.00649262,0,0,0,0,0.0183609,0.275,-0.072,-0.559,-0.004,0.006,0,6.916,28.385,-2.534,-4.067,-0.270528,0.019726
18:10:58:732129,0.000418879,-0.523459,1.57064,-6.98132e-05,1.04725,0.000977384,0.00745256,0,0,0,0,0.0169995,0.301,-0.022,-0.668,-0.006,0.005,0.001,7.252,28.238,-0.56,-3.892,-0.288845,0.002818
18:10:58:737137,0.000471239,-0.523459,1.57064,-6.98132e-05,1.04723,0.0010821,0.00759218,0,0,0,0,0.01775,0.331,0.054,-0.869,-0.011,0.002,0.002,7.273,28.581,-0.98,-4.032,-0.25362,-0.043679
18:10:58:742131,0.000506145,-0.523459,1.57064,-6.98132e-05,1.04723,0.00116937,0.00750492,0,0,0,0,0.0175406,0.325,0.12,-0.996,-0.016,-0.001,0.004,7.252,29.491,-1.673,-4.011,-0.329706,-0.123992
18:10:58:747250,0.000541052,-0.523459,1.57064,-6.98132e-05,1.04723,0.00123918,0.00736529,0,0,0,0,0.0172962,0.31,0.269,-1.196,-0.025,-0.005,0.006,7.259,28.462,-1.344,-3.724,-0.314207,-0.108493
18:10:58:752251,0.000575959,-0.523459,1.57064,-6.98132e-05,1.04723,0.00132645,0.00645772,0,0,0,0,0.0173835,0.332,0.39,-1.35,-0.032,-0.004,0.007,7.791,28.861,-1.673,-4.172,-0.19726,-0.01409
18:10:58:757207,0.000610865,-0.523459,1.57064,-6.98132e-05,1.04721,0.00139626,0.00638791,0,0,0,0,0.0159523,0.429,0.532,-1.58,-0.04,0,0.009,7.714,28.896,-0.931,-3.808,-0.300117,-0.032407
18:10:58:762380,0.000645772,-0.523459,1.57064,-6.98132e-05,1.04721,0.00146608,0.00649262,0,0,0,0,0.0140674,0.518,0.564,-1.716,-0.042,0.003,0.011,8.491,28.819,-0.812,-4.515,-0.38043,-0.142309
18:10:58:767501,0.000663225,-0.523459,1.57064,-6.98132e-05,1.04721,0.00153589,0.00568977,0,0,0,0,0.0127933,0.657,0.501,-1.905,-0.036,0.009,0.013,8.715,28.462,-0.497,-3.479,-0.343796,-0.016908
18:10:58:772503,0.000698132,-0.523459,1.57064,-6.98132e-05,1.04721,0.00158825,0.00607375,0,0,0,0,0.0128456,0.748,0.397,-2.011,-0.027,0.012,0.014,8.813,29.029,-0.28,-4.27,-0.332524,0.046497
18:10:58:777638,0.000733038,-0.523459,1.57066,-6.98132e-05,1.0472,0.00165806,0.00548033,0,0,0,0,0.0131598,0.884,0.162,-2.041,-0.008,0.016,0.016,9.023,29.099,-0.595,-4.039,-0.418473,-0.125401
18:10:58:782621,0.000750492,-0.523459,1.57066,-6.98132e-05,1.0472,0.00171042,0.00555015,0,0,0,0,0.0133169,0.973,-0.048,-1.933,0.008,0.018,0.016,9.961,28.917,-0.021,-3.766,-0.336751,-0.107084
18:10:58:787765,0.000785398,-0.523459,1.57066,-6.98132e-05,1.0472,0.00176278,0.00539307,0,0,0,0,0.0110479,1.108,-0.445,-1.677,0.035,0.02,0.015,9.8,29.722,-0.413,-4.123,-0.460743,0.05636
18:10:58:792753,0.000802851,-0.523459,1.57067,-6.98132e-05,1.04718,0.00181514,0.00527089,0,0.00185005,0,0,0.010664,1.209,-0.744,-1.567,0.054,0.022,0.016,10.192,30.114,-0.378,-4.277,-0.390293,0.08454
18:10:58:797894,0.000820305,-0.523442,1.57067,-6.98132e-05,1.04718,0.0018675,0.00513127,0,0.00171042,0,0,0.0106814,1.386,-1.206,-1.578,0.083,0.027,0.017,10.22,29.876,0.07,-3.892,-0.308571,0.039452
18:10:58:802895,0.000855211,-0.523442,1.57069,-6.98132e-05,1.04718,0.00191986,0.00492183,0,0,0,0,0.00919789,1.574,-1.676,-1.638,0.114,0.037,0.019,10.059,29.505,0.497,-4.102,-0.445244,0.019726
18:10:58:807893,0.000872665,-0.523442,1.57069,-8.72665e-05,1.04718,0.00195477,0.00411898,0,0,0,0,0.00851721,1.691,-2.008,-1.606,0.136,0.044,0.019,10.437,29.939,0.889,-4.102,-0.4227,0.1409
18:10:58:813000,0.000907571,-0.523424,1.57071,-8.72665e-05,1.04718,0.00198968,0.00483456,0.0015708,0.00185005,0,0,0.00708604,1.859,-2.542,-1.487,0.169,0.056,0.018,11.193,30.023,1.414,-3.654,-0.400156,0.146536
18:10:58:817993,0.000907571,-0.523407,1.57073,-8.72665e-05,1.04718,0.00202458,0.00349066,0.00282743,0.00301942,0,0,0.00633555,1.985,-2.913,-1.443,0.192,0.063,0.018,10.976,29.939,0.819,-4.095,-0.404383,0.245166
18:10:58:823139,0.000925025,-0.523389,1.57074,-0.00010472,1.04718,0.00205949,0.00270526,0.0044855,0.00462512,0,0,0.00612611,2.225,-3.482,-1.499,0.228,0.074,0.02,10.731,30.051,0.819,-3.598,-0.404383,0.202896
18:10:58:828243,0.000925025,-0.523354,1.57078,-0.000122173,1.04716,0.00205949,0.0016057,0.00581195,0.00499164,-0.00178024,0,0.00326377,2.424,-3.881,-1.589,0.254,0.083,0.021,11.543,30.709,0.966,-3.059,-0.466379,0.121174
18:10:58:833262,0.000942478,-0.523319,1.57083,-0.000122173,1.04716,0.00207694,0,0.0071384,0.00757473,-0.00205949,0,0.00219911,2.772,-4.547,-1.715,0.295,0.099,0.022,11.361,29.12,1.19,-3.486,-0.472015,0.263483
18:10:58:838388,0.000942478,-0.523267,1.57088,-0.000139626,1.04716,0.00207694,0,0.0093026,0.00914553,-0.00308923,0,0,3.032,-5.05,-1.773,0.324,0.112,0.022,10.934,29.708,0.588,-3.451,-0.566418,0.09863
18:10:58:843388,0.000942478,-0.523215,1.57095,-0.000174533,1.04715,0.00207694,0,0.0102451,0.0123569,-0.003735,0,0,3.467,-5.878,-1.86,0.37,0.136,0.021,9.793,29.631,0.189,-3.451,-0.569236,0.174716
18:10:58:848493,0.000925025,-0.523145,1.57102,-0.000191986,1.04713,0.00207694,0,0.0114494,0.015516,-0.00392699,0,0,3.797,-6.447,-1.963,0.402,0.154,0.021,9.919,29.785,0.476,-3.472,-0.476242,0.088767
18:10:58:853461,0.000925025,-0.523075,1.57113,-0.000191986,1.04711,0.00207694,0,0.0129329,0.0186576,-0.00308923,0,0,4.352,-7.28,-2.217,0.45,0.183,0.019,9.492,29.365,-0.203,-3.08,-0.601643,-0.015499
18:10:58:858441,0.000925025,-0.523005,1.57125,-0.00020944,1.04711,0.00205949,0,0.0138754,0.0206996,-0.00331613,-0.00287979,0,4.739,-7.814,-2.432,0.483,0.203,0.018,8.064,28.602,-0.245,-2.59,-0.590371,0.162035
18:10:58:863639,0.000907571,-0.522918,1.57139,-0.000244346,1.04708,0.00204204,-0.00225147,0.0148702,0.0247313,-0.00441568,-0.00467748,-0.00305433,5.289,-8.6,-2.764,0.533,0.23,0.015,7.707,28.518,-0.616,-2.646,-0.498786,-0.018317
18:10:58:868744,0.000890118,-0.522831,1.57153,-0.000261799,1.04704,0.00197222,-0.00329867,0.0168075,0.0271399,-0.0042237,-0.00719076,-0.00733038,5.619,-9.116,-2.988,0.565,0.247,0.013,6.251,28.532,-0.819,-2.842,-0.73268,-0.163444
18:10:58:873687,0.000855211,-0.522744,1.57169,-0.000279253,1.04699,0.00190241,-0.00685914,0.0180118,0.0305782,-0.00404916,-0.00720821,-0.0129329,6.078,-9.868,-3.375,0.61,0.271,0.011,6.013,28.49,-0.882,-2.933,-0.66223,-0.123992
18:10:58:878689,0.000785398,-0.522639,1.5719,-0.000296706,1.04695,0.00181514,-0.0109258,0.0190066,0.0359538,-0.00329867,-0.00855211,-0.0156905,6.376,-10.354,-3.687,0.64,0.288,0.009,4.76,29.05,-0.693,-2.191,-0.738316,-0.431154
18:10:58:883812,0.000698132,-0.522534,1.57212,-0.000314159,1.04688,0.00171042,-0.0150098,0.0202807,0.0419403,-0.00301942,-0.00984366,-0.0196175,6.813,-11.093,-4.175,0.685,0.316,0.007,4.228,28.987,-1.743,-2.422,-0.769314,-0.381839
18:10:58:888870,0.000593412,-0.522429,1.57238,-0.000314159,1.04683,0.00158825,-0.0183434,0.0207171,0.048014,-0.00286234,-0.0122173,-0.0236841,7.092,-11.621,-4.43,0.718,0.335,0.006,3.871,29.085,-2.499,-2.688,-0.701682,-0.405792
18:10:58:893992,0.000471239,-0.522307,1.57263,-0.000331613,1.04676,0.00143117,-0.0223402,0.0224275,0.0484852,-0.00272271,-0.0138579,-0.0293564,7.496,-12.478,-4.605,0.77,0.359,0.003,2.653,29.596,-2.849,-2.24,-0.738316,-0.687592
18:10:58:898936,0.000331613,-0.522168,1.57287,-0.000349066,1.04669,0.00120428,-0.0261101,0.0256563,0.0472461,-0.00181514,-0.0149051,-0.0386067,7.894,-13.361,-4.616,0.824,0.38,0.001,1.428,29.477,-1.701,-2.947,-1.00321,-0.656594
18:10:58:903942,0.00015708,-0.522011,1.57312,-0.000349066,1.04659,0.000925025,-0.0291295,0.0294437,0.0479267,0,-0.0161792,-0.0503527,8.152,-13.927,-4.653,0.86,0.392,0.002,0.091,30.247,-0.497,-2.59,-0.670684,-0.694637
18:10:58:909119,0,-0.521836,1.5734,-0.000349066,1.0465,0.000558505,-0.0319919,0.0324108,0.0531278,0,-0.017174,-0.0636173,8.507,-14.729,-4.848,0.914,0.41,0.004,-0.784,29.554,-0.595,-2.324,-1.08916,-0.47906
18:10:58:914121,-0.000174533,-0.521661,1.57373,-0.000366519,1.04639,8.72665e-05,-0.0360934,0.0359189,0.0623083,0,-0.0196,-0.0805469,8.71,-15.255,-5.009,0.95,0.419,0.005,-2.961,29.876,-1.05,-2.254,-0.886261,-0.307162
18:10:58:919243,-0.000401426,-0.521417,1.57413,-0.000366519,1.04626,-0.000488692,-0.0421322,0.0407883,0.0709825,0,-0.0256214,-0.104615,8.956,-16.053,-5.118,1.001,0.429,0.007,-4.459,30.156,-1.162,-2.681,-0.869353,0.074677
18:10:58:924243,-0.000680678,-0.52119,1.57453,-0.000366519,1.04606,-0.0010472,-0.0494103,0.0460941,0.0759393,0,-0.0333009,-0.106901,9.096,-16.562,-5.072,1.033,0.433,0.007,-4.921,28.952,-0.63,-2.779,-0.890488,0.080313
18:10:58:929369,-0.00101229,-0.520911,1.57492,-0.000383972,1.0458,-0.00136136,-0.0587827,0.0504749,0.0771959,0,-0.0435983,-0.077353,9.309,-17.194,-4.948,1.072,0.441,0.007,-5.502,28.525,-0.35,-2.653,-0.677729,-0.181761
18:10:58:934369,-0.00143117,-0.520632,1.5753,-0.000383972,1.0455,-0.0016057,-0.0747699,0.053634,0.0755728,0,-0.0529358,-0.0615403,9.453,-17.495,-4.915,1.092,0.449,0.008,-5.852,28.77,0.91,-2.905,-0.383248,-0.724226
18:10:58:939434,-0.00193732,-0.520352,1.57574,-0.000401426,1.04523,-0.00202458,-0.0918741,0.0546812,0.0816465,0,-0.0551,-0.0776846,9.606,-17.794,-4.965,1.114,0.462,0.01,-5.061,29.736,1.008,-2.156,-0.231076,-0.828492
18:10:58:944468,-0.00249582,-0.520056,1.57622,-0.000401426,1.04496,-0.0026529,-0.103463,0.0560425,0.0927468,-0.00172788,-0.0519235,-0.107984,9.631,-17.925,-5.025,1.123,0.467,0.011,-3.374,29.435,0.371,-2.499,-0.326888,-0.686183
18:10:58:949468,-0.00308923,-0.519759,1.57677,-0.000401426,1.04475,-0.00356047,-0.111911,0.0592016,0.101194,0,-0.0457102,-0.151442,9.621,-18.048,-5.078,1.13,0.468,0.013,-4.858,30.478,0.273,-2.415,-0.46497,-0.266301
18:10:58:954621,-0.003735,-0.519427,1.57731,-0.000401426,1.04458,-0.00450295,-0.12233,0.0622733,0.105278,0,-0.0393921,-0.17188,9.685,-18.079,-5.06,1.13,0.47,0.013,-4.753,30.66,1.043,-2.702,-0.417064,-0.188806
18:10:58:959619,-0.00441568,-0.519078,1.5779,-0.000401426,1.0444,-0.00502655,-0.129556,0.0659211,0.11212,0,-0.0361458,-0.126048,9.985,-18.066,-4.957,1.129,0.484,0.015,-6.188,29.659,0.511,-2.359,-0.494559,-0.460743
18:10:58:964746,-0.00511381,-0.518729,1.57853,-0.000418879,1.04421,-0.00535816,-0.133954,0.0688358,0.119712,0,-0.038659,-0.0912633,10.245,-18.047,-4.887,1.128,0.501,0.016,-5.635,30.506,0.406,-1.841,-0.660821,-1.07084
18:10:58:969706,-0.00586431,-0.518363,1.57916,-0.000418879,1.044,-0.00603884,-0.14289,0.0724137,0.123081,0,-0.039811,-0.121754,10.452,-18.045,-4.88,1.131,0.521,0.017,-5.992,30.569,0.616,-2.331,-0.743952,-0.994754
18:10:58:974864,-0.00668461,-0.517961,1.5798,-0.000418879,1.04378,-0.00727802,-0.15605,0.075311,0.126083,0,-0.0435983,-0.19909,10.365,-18.067,-4.932,1.136,0.522,0.017,-4.97,30.912,1.561,-2.527,-0.666457,-0.2818
18:10:58:979887,-0.00757473,-0.517525,1.58052,-0.000418879,1.04351,-0.00849975,-0.168197,0.0818734,0.133954,0,-0.0479093,-0.222215,10.001,-18.137,-4.976,1.144,0.506,0.017,-5.6,31.22,0.49,-2.191,-0.780586,-0.021135
18:10:58:985005,-0.00849975,-0.517054,1.58123,-0.000418879,1.04325,-0.00918043,-0.178041,0.0880693,0.13926,0,-0.0526391,-0.16263,9.704,-18.253,-4.89,1.152,0.486,0.016,-4.634,29.848,0.889,-2.646,-0.822856,-0.614324
18:10:58:990113,-0.00945968,-0.516583,1.58202,-0.000418879,1.0429,-0.00996583,-0.184726,0.0919788,0.147899,0,-0.0591667,-0.163485,9.663,-18.337,-4.787,1.156,0.48,0.016,-4.697,29.533,0.812,-2.387,-0.874989,-0.719999
18:10:58:995112,-0.0104545,-0.516094,1.5828,-0.000418879,1.04252,-0.0111876,-0.192318,0.0939162,0.154741,0,-0.0705288,-0.211429,9.722,-18.397,-4.638,1.157,0.483,0.016,-4.172,30.114,1.036,-2.863,-0.714363,-0.512876
18:10:59:146,-0.0115017,-0.515605,1.58362,-0.000418879,1.04208,-0.0122348,-0.202074,0.0972148,0.157027,0,-0.082205,-0.205129,9.676,-18.345,-4.558,1.154,0.485,0.016,-5.817,30.52,1.001,-2.135,-0.490332,-0.414246
18:10:59:5275,-0.0125838,-0.515064,1.58446,-0.000418879,1.04163,-0.0131947,-0.21005,0.101543,0.163886,0,-0.085015,-0.200189,9.308,-18.107,-4.477,1.141,0.473,0.014,-4.634,29.071,0.14,-1.967,-0.377612,-0.477651
18:10:59:10379,-0.0137183,-0.514541,1.58533,-0.000418879,1.0413,-0.0144513,-0.218131,0.103673,0.167866,0,-0.0718727,-0.227312,8.903,-17.873,-4.455,1.129,0.454,0.013,-4.613,29.421,0.644,-2.478,-0.343796,-0.387475
18:10:59:15377,-0.0148702,-0.514017,1.58623,-0.000418879,1.04105,-0.0156207,-0.225078,0.103166,0.1727,0,-0.0570723,-0.230383,8.286,-17.503,-4.442,1.106,0.418,0.011,-4.711,30.03,1.204,-2.464,-0.494559,-0.360704
18:10:59:20365,-0.0160919,-0.513476,1.58712,-0.000418879,1.04081,-0.0168075,-0.233961,0.10636,0.174655,0,-0.0502131,-0.231588,7.98,-17.289,-4.423,1.09,0.396,0.009,-4.879,29.995,1.085,-2.751,-0.836946,-0.424109
18:10:59:25506,-0.0173137,-0.5129,1.58802,-0.000418879,1.04053,-0.0180118,-0.237522,0.112137,0.177099,0,-0.0555538,-0.237888,7.741,-17.035,-4.379,1.066,0.378,0.007,-5.075,28.735,1.547,-2.324,-0.879216,-0.515694
18:10:59:30490,-0.0185179,-0.512307,1.58893,-0.000418879,1.04016,-0.0192335,-0.24117,0.113673,0.180345,0,-0.0665319,-0.239913,7.709,-16.885,-4.369,1.051,0.377,0.006,-5.159,29.736,1.533,-2.177,-0.849627,-0.503013
18:10:59:35617,-0.019792,-0.511731,1.58989,-0.000418879,1.03971,-0.0205774,-0.247662,0.113586,0.185145,0,-0.0805819,-0.256982,7.781,-16.642,-4.419,1.032,0.385,0.004,-6.468,30.17,2.072,-2.653,-0.639686,-0.297299
18:10:59:40615,-0.0210836,-0.511155,1.59085,-0.000418879,1.0392,-0.0219213,-0.251642,0.114197,0.188653,0,-0.0932704,-0.261171,7.845,-16.476,-4.48,1.02,0.392,0.003,-6.685,30.618,1.526,-2.317,-0.445244,-0.508649
18:10:59:45739,-0.0223926,-0.510579,1.59181,-0.000418879,1.03872,-0.0233351,-0.257262,0.114528,0.18956,0,-0.0944747,-0.272167,7.853,-16.295,-4.558,1.006,0.396,0.001,-5.992,29.834,1.071,-2.163,-0.259256,-0.363522
18:10:59:50757,-0.0237714,-0.510003,1.5928,-0.000418879,1.03831,-0.0245917,-0.264225,0.112958,0.191375,0,-0.0855909,-0.256284,7.771,-16.259,-4.586,1,0.392,0,-7.567,30.8,1.127,-2.317,-0.302935,-0.66223
18:10:59:55862,-0.0251153,-0.509427,1.59378,-0.000418879,1.03798,-0.025953,-0.266616,0.114982,0.195041,0,-0.0725882,-0.269985,7.557,-16.324,-4.642,1,0.379,-0.002,-7.434,30.716,1.225,-2.086,-0.491741,-0.421291
18:10:59:60836,-0.0265116,-0.508798,1.59479,-0.000436332,1.0377,-0.027454,-0.272254,0.121196,0.196035,0,-0.0624479,-0.285065,7.38,-16.393,-4.729,1.004,0.366,-0.003,-7.266,29.372,1.736,-2.394,-0.525557,-0.414246
18:10:59:66001,-0.0279427,-0.508135,1.59577,-0.000436332,1.03739,-0.0288852,-0.279759,0.125088,0.195739,0,-0.0624828,-0.284244,7.056,-16.405,-4.928,1.008,0.342,-0.003,-7.56,29.764,1.715,-1.988,-0.772132,-0.459334
18:10:59:70985,-0.0293913,-0.507507,1.59677,-0.000436332,1.03702,-0.0304211,-0.284698,0.125559,0.19703,0,-0.068574,-0.293669,6.651,-16.184,-5.082,0.999,0.315,-0.002,-7.651,29.659,2.044,-2.499,-0.963756,-0.548101
18:10:59:75944,-0.0308923,-0.506861,1.5978,-0.000436332,1.03655,-0.0317824,-0.291627,0.125699,0.200887,0,-0.0840551,-0.282464,6.387,-15.912,-5.08,0.984,0.298,-0.002,-8.162,29.435,1.925,-2.702,-0.710136,-0.594598
18:10:59:81175,-0.0324108,-0.506233,1.59883,-0.000436332,1.03598,-0.033458,-0.296217,0.12528,0.20258,0,-0.102311,-0.309447,6.126,-15.45,-4.89,0.954,0.283,-0.004,-7.476,29.12,2.184,-2.821,-0.43679,-0.417064
18:10:59:86129,-0.0339292,-0.505622,1.59987,-0.000436332,1.03545,-0.0349764,-0.300354,0.124617,0.20471,0,-0.101875,-0.301698,6.084,-15.191,-4.711,0.936,0.279,-0.006,-7.357,29.036,1.176,-2.345,-0.205714,-0.495968
18:10:59:91187,-0.0355,-0.504959,1.6009,-0.000436332,1.03508,-0.0365996,-0.305415,0.128875,0.205076,0,-0.0832522,-0.319116,6.171,-14.91,-4.587,0.916,0.281,-0.008,-8.603,28.182,0.07,-2.373,-0.412837,-0.531193
18:10:59:96358,-0.0370882,-0.504261,1.60197,-0.000436332,1.03481,-0.0381005,-0.309499,0.132523,0.208026,0,-0.0682249,-0.302151,6.249,-14.763,-4.688,0.909,0.285,-0.008,-8.414,27.986,0.924,-2.576,-0.473424,-0.49315
18:10:59:101359,-0.0386939,-0.503597,1.603,-0.000436332,1.03449,-0.039811,-0.315224,0.132453,0.20642,0,-0.0626573,-0.32409,6.256,-14.556,-5.013,0.903,0.287,-0.007,-7.637,28.679,1.687,-2.681,-0.588962,-0.400156
18:10:59:106360,-0.040352,-0.502952,1.60404,-0.000436332,1.03414,-0.0414167,-0.321175,0.130254,0.205355,0,-0.0671603,-0.322729,6.148,-14.426,-5.197,0.899,0.282,-0.008,-7.658,27.202,0.252,-2.233,-0.598825,-0.528375
18:10:59:111482,-0.0420101,-0.502323,1.60507,-0.000436332,1.03376,-0.0431271,-0.326865,0.125559,0.203575,0,-0.073618,-0.33081,5.852,-14.223,-5.298,0.889,0.267,-0.009,-6.79,28.007,1.197,-1.953,-0.783404,-0.494559
18:10:59:116501,-0.043738,-0.501695,1.60614,-0.000436332,1.03327,-0.0447153,-0.333689,0.124791,0.206385,0,-0.0872839,-0.318558,5.631,-14.052,-5.307,0.88,0.253,-0.01,-6.629,27.559,0.252,-1.925,-0.497377,-0.510058
18:10:59:121568,-0.0454135,-0.501032,1.60715,-0.000436332,1.03269,-0.0464607,-0.335871,0.127461,0.204238,0,-0.104249,-0.335522,5.39,-13.724,-5.35,0.862,0.236,-0.009,-4.893,27.384,0.21,-2.387,-0.22544,-0.472015
18:10:59:126629,-0.0471413,-0.500386,1.60816,-0.000436332,1.03221,-0.0481711,-0.338926,0.129032,0.204238,0,-0.0977908,-0.338175,5.338,-13.496,-5.381,0.848,0.23,-0.009,-7.882,26.992,-0.161,-2.191,-0.159217,-0.498786
18:10:59:131763,-0.0488692,-0.499775,1.60921,-0.000436332,1.03193,-0.0499164,-0.33992,0.125856,0.204518,0,-0.070267,-0.338472,5.411,-13.25,-5.353,0.828,0.234,-0.009,-7.595,27.209,0.042,-2.569,-0.395929,-0.503013
18:10:59:136759,-0.0506146,-0.499182,1.61024,-0.000436332,1.03168,-0.0516094,-0.343079,0.121388,0.203121,0,-0.0574213,-0.341317,5.471,-13.195,-5.3,0.821,0.24,-0.01,-8.092,28.189,0.028,-2.359,-0.579099,-0.315616
18:10:59:141884,-0.0523424,-0.498588,1.61122,-0.000436332,1.03137,-0.0533722,-0.344179,0.118072,0.199037,0,-0.0612436,-0.344336,5.373,-13.272,-5.269,0.821,0.242,-0.011,-7.056,27.692,-0.014,-2.247,-0.696046,-0.483287
18:10:59:146873,-0.0541052,-0.497977,1.61221,-0.000436332,1.03098,-0.0551699,-0.346221,0.118543,0.196035,0,-0.0696037,-0.352487,5.14,-13.365,-5.313,0.827,0.232,-0.011,-6.951,28.147,-0.035,-2.387,-0.4227,-0.488923
18:10:59:151979,-0.0558854,-0.497366,1.61317,-0.000436332,1.03055,-0.0568803,-0.349415,0.120079,0.194238,0,-0.0783827,-0.340514,4.704,-13.393,-5.443,0.831,0.207,-0.009,-6.986,28.077,0.756,-2.611,-0.519921,-0.383248
18:10:59:156999,-0.0576657,-0.496756,1.61417,-0.000436332,1.03008,-0.058678,-0.352783,0.119363,0.192772,0,-0.0867778,-0.352661,4.452,-13.19,-5.564,0.821,0.19,-0.007,-6.517,27.769,0.595,-2.59,-0.524148,-0.449471
18:10:59:162108,-0.0595157,-0.49618,1.61515,-0.000436332,1.02955,-0.0604582,-0.354791,0.117077,0.191724,0,-0.0990823,-0.353028,4.453,-12.995,-5.611,0.809,0.187,-0.006,-6.972,28.378,0.112,-1.638,-0.205714,-0.38043
18:10:59:167124,-0.061296,-0.495586,1.61611,-0.000436332,1.0291,-0.0623257,-0.357304,0.115384,0.192231,0,-0.0937067,-0.358142,4.654,-12.78,-5.652,0.794,0.197,-0.006,-6.762,27.776,0.189,-2.464,-0.228258,-0.529784
18:10:59:172069,-0.0631286,-0.495028,1.61707,-0.000436332,1.02882,-0.0641408,-0.360061,0.11322,0.193016,0,-0.0661829,-0.363762,4.864,-12.71,-5.679,0.788,0.21,-0.006,-7.378,27.818,-0.476,-2.233,-0.435381,-0.410019
18:10:59:177250,-0.0649786,-0.494487,1.61802,-0.000436332,1.02864,-0.0659909,-0.361423,0.109938,0.190555,0,-0.0476649,-0.358944,5.167,-12.617,-5.686,0.781,0.232,-0.007,-7.693,28.175,-0.063,-2.681,-0.625596,-0.456516
18:10:59:182228,-0.0668112,-0.493911,1.61897,-0.000436332,1.02838,-0.0678759,-0.363151,0.111998,0.185808,0,-0.049515,-0.371266,5.287,-12.515,-5.637,0.774,0.242,-0.008,-8.596,28.511,0.336,-2.387,-0.679138,-0.481878
