srisadhan/powerball/bin/HRI_project/2021/admittance/Stiff env/admittance_hg.csv
TimeStamp , Q1, Q2, Q3, Q4, Q5, Q6, dQ1, dQ2, dQ3, dQ4, dQ5, dQ6, Fx, Fy, Fz, Mx, My, Mz, Joint1_torque, Joint2_torque, Joint3_torque, Joint4_torque, Joint5_torque, Joint6_torque 
23:34:50:482142,0.00015708,-0.582102,1.18674,1.74533e-05,1.35197,-3.49066e-05,0,0,0.00164061,0,0,0,0,0,0,0,0,0,-4.095,33.257,-4.102,2.884,-0.350841,-0.026771
23:34:50:487317,0.00015708,-0.582085,1.18674,1.74533e-05,1.35197,-3.49066e-05,0,0,0,0,0,0,0,0,0,0,0,0,-3.78,32.928,-2.506,3.227,-0.374794,0.001409
23:34:50:492443,0.00015708,-0.582085,1.18674,1.74533e-05,1.35197,-5.23599e-05,0,0,0,0,0,0,0,0,0,0,0,0,-4.06,32.984,-3.437,3.199,-0.2818,-0.077495
23:34:50:497441,0.00015708,-0.582085,1.18674,1.74533e-05,1.35197,-5.23599e-05,0,0,0,0,0,0,0,0,0,0,0,0,-4.06,32.585,-2.401,2.758,-0.412837,-0.047906
23:34:50:502380,0.00015708,-0.582085,1.18674,1.74533e-05,1.35197,-5.23599e-05,0,0,0,0,0,0,0,0,0,0,0,0,-4.263,33.607,-2.548,3.409,-0.19726,-0.080313
23:34:50:507579,0.00015708,-0.582085,1.18674,1.74533e-05,1.35197,-5.23599e-05,0,0,0,0,0,0,0,0,0,0,0,0,-4.06,33.264,-2.478,2.786,-0.443835,-0.039452
23:34:50:512512,0.00015708,-0.582085,1.18675,1.74533e-05,1.35197,-5.23599e-05,0,0,0,0,0,0,0,0,0,0,0,0,-3.766,32.41,-3.213,3.164,-0.417064,0.002818
23:34:50:517692,0.00015708,-0.582085,1.18675,1.74533e-05,1.35197,-5.23599e-05,0,0,0,0,0,0,0,0,0,0,0,0,-4.459,32.767,-2.751,3.073,-0.390293,-0.008454
23:34:50:522650,0.00015708,-0.582085,1.18675,1.74533e-05,1.35197,-6.98132e-05,0,0,0,0,0,0,0,0,0,0,0,0,-4.41,33.355,-3.052,2.289,-0.35225,0.026771
23:34:50:527828,0.00015708,-0.582085,1.18675,1.74533e-05,1.35195,-6.98132e-05,0,0,0,0,0,0,0,0,0,0,0,0,-4.06,32.998,-2.863,2.863,-0.333933,-0.012681
23:34:50:532817,0.00015708,-0.582085,1.18675,1.74533e-05,1.35195,-6.98132e-05,0,0,0,0,0,0,0,0,0,0,0,0,-4.368,32.998,-2.821,3.045,-0.293072,-0.076086
23:34:50:537951,0.00015708,-0.582085,1.18675,1.74533e-05,1.35195,-6.98132e-05,0,0,0,0,0,0,0,0,0,0,0,0,-3.5,33.355,-2.324,2.863,-0.329706,-0.125401
23:34:50:542882,0.00015708,-0.582085,1.18675,1.74533e-05,1.35195,-6.98132e-05,0,0,0,0,0,0,0,0,0,0,0,0,-4.074,33.187,-3.059,2.912,-0.328297,0.022544
23:34:50:548077,0.00015708,-0.582085,1.18675,1.74533e-05,1.35195,-6.98132e-05,0,0,0,0,0,0,0,0,0,0,0,0,-4.074,33.166,-2.324,3.087,-0.357886,-0.053542
23:34:50:553059,0.00015708,-0.582067,1.18675,1.74533e-05,1.35195,-6.98132e-05,0,0,0,0,0,0,0,0,0,0,0,0,-4.074,32.977,-2.94,2.926,-0.328297,0.030998
23:34:50:558063,0.00015708,-0.582067,1.18675,1.74533e-05,1.35195,-6.98132e-05,0,0,0,0,0,0,0,0,0,0,0,0,-4.018,32.935,-2.751,3.185,-0.308571,-0.074677
23:34:50:563186,0.00015708,-0.582067,1.18675,1.74533e-05,1.35195,-6.98132e-05,0,0,0,0,0,0,0,0,0,0,0,0,-4.165,32.977,-2.674,3.08,-0.263483,0.021135
23:34:50:568312,0.00015708,-0.582067,1.18675,3.49066e-05,1.35195,-6.98132e-05,0,0,0,0,0,0,0,0,0,0,0,0,-4.018,32.368,-3.409,2.905,-0.298708,0.066223
23:34:50:573308,0.00015708,-0.582067,1.18675,3.49066e-05,1.35195,-6.98132e-05,0,0,0,0,0,0,0,0,0,0,0,0,-3.745,32.102,-3.171,2.968,-0.229667,-0.021135
23:34:50:578314,0.00015708,-0.582067,1.18675,3.49066e-05,1.35195,-6.98132e-05,0,0,0,0,0,0,0,0,0,0,0,0,-3.661,32.788,-2.513,3.178,-0.328297,-0.007045
23:34:50:583451,0.00015708,-0.582067,1.18675,3.49066e-05,1.35195,-6.98132e-05,0,0,0,0,0,0,0,0,0,0,0,0,-3.745,33.215,-2.982,3.059,-0.311389,-0.119765
23:34:50:588380,0.00015708,-0.582067,1.18675,3.49066e-05,1.35195,-6.98132e-05,0,0,0,0,0,0,0,0,0,0,0,0,-4.074,32.445,-2.905,2.737,-0.373385,0.026771
23:34:50:593515,0.00015708,-0.582067,1.18675,3.49066e-05,1.35195,-6.98132e-05,0,0,0,0,0,0,0,0,0,0,0,0,-3.864,33.131,-2.828,3.381,-0.457925,-0.184579
23:34:50:598563,0.00015708,-0.582067,1.18675,3.49066e-05,1.35195,-8.72665e-05,0,0,0,0,0,0,0,0,0,0,0,0,-4.249,33.145,-2.247,3.318,-0.340978,-0.083131
23:34:50:603686,0.00015708,-0.582067,1.18675,3.49066e-05,1.35195,-8.72665e-05,0,0,0,0,0,0,0,0,0,0,0,0,-4.165,33.425,-2.751,2.856,-0.226849,0.007045
23:34:50:608688,0.00015708,-0.582067,1.18675,3.49066e-05,1.35195,-8.72665e-05,0,0,0,0,0,0,0,0,0,0,0,0,-4.452,32.865,-3.136,2.919,-0.379021,-0.174716
23:34:50:613823,0.00015708,-0.582067,1.18675,3.49066e-05,1.35195,-8.72665e-05,0,0,0,0,0,0,0,0,0,0,0,0,-4.235,33.236,-2.478,2.898,-0.333933,-0.047906
23:34:50:618766,0.00015708,-0.582067,1.18675,3.49066e-05,1.35195,-8.72665e-05,0,0,0,0,0,0,0,0,0,0,0,0,-4.326,32.249,-2.982,2.828,-0.30998,-0.08454
23:34:50:623955,0.00015708,-0.582067,1.18675,3.49066e-05,1.35195,-8.72665e-05,0,0,0,0,0,0,0,0,0,0,0,0,-3.934,32.487,-2.632,2.996,-0.353659,0.139491
23:34:50:628879,0.00015708,-0.582067,1.18675,3.49066e-05,1.35195,-8.72665e-05,0,0,0,0,0,0,0,0,0,0,0,0,-4.123,32.431,-3.374,3.031,-0.349432,0.04227
23:34:50:634057,0.00015708,-0.582067,1.18675,3.49066e-05,1.35195,-8.72665e-05,0,0,0,0,0,0,0,0,0,0,0,0,-4.207,32.592,-2.786,3.528,-0.356477,-0.029589
23:34:50:639066,0.00015708,-0.582067,1.18675,3.49066e-05,1.35195,-8.72665e-05,0,0,0,0,0,0,0,0,0,0,0,0,-4.585,32.606,-3.059,3.353,-0.222622,-0.09863
23:34:50:644068,0.00015708,-0.582067,1.18675,3.49066e-05,1.35195,-8.72665e-05,0,0,0,0,0,0,0,0,0,0,0,0,-4.235,32.753,-2.982,2.716,-0.333933,-0.057769
23:34:50:649177,0.00015708,-0.58205,1.18675,3.49066e-05,1.35195,-8.72665e-05,0,0,0,0,0,0,0,0,0,0,0,0,-4.235,33.033,-3.178,2.912,-0.232485,-0.002818
23:34:50:654213,0.00015708,-0.58205,1.18675,3.49066e-05,1.35195,-8.72665e-05,0,0,0,0,0,0,0,0,0,0,0,0,-3.829,33.075,-2.786,3.22,-0.26771,0.07045
23:34:50:659131,0.00015708,-0.58205,1.18675,3.49066e-05,1.35195,-8.72665e-05,0,0,0,0,0,0,0,0,0,0,0,0,-3.906,32.459,-2.401,2.681,-0.329706,0
23:34:50:664324,0.00015708,-0.58205,1.18675,3.49066e-05,1.35195,-8.72665e-05,0,0,0,0,0,0,0,0,0,0,0,0,-3.584,32.753,-2.632,3.094,-0.269119,0.002818
23:34:50:669301,0.00015708,-0.58205,1.18675,3.49066e-05,1.35195,-8.72665e-05,0,0,0,0,0,0,0,0,0,0,0,0,-4.151,32.179,-2.751,3.101,-0.287436,-0.039452
23:34:50:674426,0.00015708,-0.58205,1.18675,3.49066e-05,1.35195,-8.72665e-05,0,0,0,0,0,0,0,0,0,0,0,0,-4.305,32.578,-1.82,3.199,-0.302935,0.032407
23:34:50:679472,0.00015708,-0.58205,1.18675,3.49066e-05,1.35195,-8.72665e-05,0,0,0,0,0,0,0,0,0,0,0,0,-4.438,33.159,-2.863,2.94,-0.360704,-0.011272
23:34:50:684569,0.00015708,-0.58205,1.18675,3.49066e-05,1.35195,-8.72665e-05,0,0,0,0,0,0,0,0,0,0,0,0,-4.557,32.487,-2.429,3.129,-0.22544,-0.076086
23:34:50:689549,0.00015708,-0.58205,1.18675,3.49066e-05,1.35195,-8.72665e-05,0,0,0,0,0,0,0,0,0,0,0,0,-4.326,32.886,-3.521,2.793,-0.374794,0.05636
23:34:50:694560,0.00015708,-0.58205,1.18675,3.49066e-05,1.35195,-8.72665e-05,0,0,0,0,0,0,0,0,0,0,0,0,-3.689,32.753,-1.862,2.996,-0.417064,-0.039452
23:34:50:699654,0.00015708,-0.58205,1.18675,3.49066e-05,1.35195,-8.72665e-05,0,0,0,0,0,0,0,0,0,0,0,0,-4.032,32.578,-2.863,2.562,-0.390293,-0.018317
23:34:50:704681,0.00015708,-0.58205,1.18675,5.23599e-05,1.35195,-0.00010472,0,0,0,0,0,0,0,0,0,0,0,0,-4.109,32.508,-2.94,3.605,-0.35225,-0.09863
23:34:50:709804,0.00015708,-0.58205,1.18677,5.23599e-05,1.35195,-0.00010472,0,0,0,0,0,0,0,0,0,0,0,0,-4.585,33.6,-1.582,2.765,-0.333933,0.039452
23:34:50:714846,0.00015708,-0.58205,1.18677,5.23599e-05,1.35195,-0.00010472,0,0,0,0,0,0,0,0,0,0,0,0,-3.584,32.648,-2.401,2.338,-0.339569,-0.039452
23:34:50:719939,0.00015708,-0.58205,1.18677,5.23599e-05,1.35195,-0.00010472,0,0,0,0,0,0,0,0,0,0,0,0,-4.655,32.333,-3.486,2.107,-0.290254,-0.069041
23:34:50:725067,0.00015708,-0.58205,1.18677,5.23599e-05,1.35195,-0.00010472,0,0,0,0,0,0,0.004,0.037,0.015,-0.001,0,0,-4.06,32.571,-3.108,1.54,-0.328297,-0.050724
23:34:50:730067,0.00015708,-0.58205,1.18677,5.23599e-05,1.35195,-0.00010472,0,0,0,0,0,0,0.008,0.036,0.068,0,0,0,-3.773,33.103,-3.528,2.842,-0.236712,-0.039452
23:34:50:735016,0.00015708,-0.58205,1.18677,5.23599e-05,1.35195,-0.00010472,0,0,0,0,0,0,0.011,0.038,-0.007,0,0,0,-4.438,33.334,-2.863,2.506,-0.2818,-0.047906
23:34:50:740000,0.00015708,-0.58205,1.18677,5.23599e-05,1.35195,-0.00010472,0,0,0,0,0,0,0.025,0.065,-0.264,0,0,0.002,-3.703,32.767,-3.017,2.66,-0.245166,-0.059178
23:34:50:745120,0.00015708,-0.58205,1.18677,5.23599e-05,1.35195,-0.00010472,0,0,0,0,0,0,0.038,0.084,-0.399,0,0,0.003,-3.948,32.095,-2.863,2.905,-0.22544,0.162035
23:34:50:750301,0.00015708,-0.58205,1.18677,5.23599e-05,1.35193,-0.00010472,0,0,0,0,0,0,0.036,0.084,-0.396,0,0,0.003,-4.424,33.061,-2.086,2.919,-0.418473,-0.039452
23:34:50:755273,0.00015708,-0.58205,1.18677,5.23599e-05,1.35193,-0.00010472,0,0,0,0,0,0,0.012,0.066,-0.318,0,0,0.002,-4.018,31.948,-2.786,3.598,-0.333933,0.069041
23:34:50:760264,0.00015708,-0.58205,1.18677,5.23599e-05,1.35193,-0.00010472,0,0,0,0,0,0,-0.029,0.031,-0.255,0,0,0.002,-4.41,33.068,-3.017,2.59,-0.288845,-0.007045
23:34:50:765423,0.00015708,-0.58205,1.18677,5.23599e-05,1.35193,-0.00010472,0,0,0,0,0,0,-0.034,0.002,-0.245,0,0,0.001,-4.508,33.11,-2.45,2.59,-0.233894,0.036634
23:34:50:770425,0.00015708,-0.58205,1.18677,5.23599e-05,1.35193,-0.00010472,0,0,0,0,0,0,0.01,-0.045,-0.18,0,0,0.001,-4.438,32.781,-2.128,3.339,-0.266301,-0.069041
23:34:50:775582,0.00015708,-0.58205,1.18677,5.23599e-05,1.35193,-0.00010472,0,0,0,0,0,0,0.079,-0.057,-0.129,0,0,0.001,-3.934,32.676,-2.947,3.269,-0.259256,-0.025362
23:34:50:780545,0.00015708,-0.58205,1.18677,5.23599e-05,1.35193,-0.00010472,0,0,0,0,0,0,0.101,-0.03,-0.191,0,0,0.002,-3.528,32.711,-3.024,2.639,-0.280391,-0.061996
23:34:50:785682,0.00015708,-0.58205,1.18677,5.23599e-05,1.35193,-0.00010472,0,0,0,0,0,0,0.067,0.024,-0.343,0,0,0.003,-4.235,32.788,-2.548,2.919,-0.274755,-0.021135
23:34:50:790691,0.00015708,-0.58205,1.18677,5.23599e-05,1.35193,-0.00010472,0,0,0,0,0,0,0.015,0.033,-0.336,0,0,0.003,-4.396,32.718,-2.471,2.688,-0.353659,-0.01409
23:34:50:795816,0.00015708,-0.582032,1.18677,5.23599e-05,1.35193,-0.00010472,0,0,0,0,0,0,-0.043,0.004,-0.121,-0.001,0,0.001,-4.193,32.515,-2.59,3.066,-0.312798,-0.002818
23:34:50:800815,0.00015708,-0.582032,1.18677,5.23599e-05,1.35193,-0.00010472,0,0,0,0,0,0,-0.048,-0.008,0.001,-0.001,0,0,-4.41,32.361,-2.821,3.164,-0.201487,0.050724
23:34:50:805940,0.00015708,-0.582032,1.18677,5.23599e-05,1.35193,-0.00010472,0,0,0,0,0,0,-0.019,0.022,-0.05,0,0,0,-4.235,32.627,-2.156,2.653,-0.398747,-0.059178
23:34:50:810940,0.00015708,-0.582032,1.18677,5.23599e-05,1.35193,-0.00010472,0,0,0,0,0,0,-0.002,0.054,-0.16,0,0,0.001,-3.773,32.515,-3.248,2.457,-0.329706,0.021135
23:34:50:816053,0.00015708,-0.582032,1.18677,5.23599e-05,1.35193,-0.00010472,0,0,0,0,0,0,0.004,0.053,-0.167,0,0,0.001,-3.948,32.977,-2.982,2.814,-0.353659,-0.002818
23:34:50:821049,0.00015708,-0.582032,1.18677,5.23599e-05,1.35193,-0.00010472,0,0,0,0,0,0,0.007,0.018,-0.05,-0.001,0,0.001,-4.088,32.55,-2.744,2.842,-0.288845,0.018317
23:34:50:826175,0.00015708,-0.582032,1.18677,5.23599e-05,1.35193,-0.00010472,0,0,0,0,0,0,0.026,-0.025,0.085,-0.001,0,0,-3.514,32.361,-2.786,2.114,-0.278982,-0.088767
23:34:50:831199,0.00015708,-0.582032,1.18677,5.23599e-05,1.35193,-0.00010472,0,0,0,0,0,0,0.04,-0.026,0.057,-0.001,0,0,-3.815,32.326,-2.751,2.863,-0.307162,-0.002818
23:34:50:836204,0.00015708,-0.582032,1.18677,5.23599e-05,1.35193,-0.00010472,0,0,0,0,0,0,0.042,-0.008,-0.102,0,0,0.001,-3.675,33.019,-2.639,2.716,-0.255029,-0.025362
23:34:50:841316,0.00015708,-0.582032,1.18677,5.23599e-05,1.35193,-0.00010472,0,0,0,0,0,0,0.032,-0.008,-0.208,0,0,0.001,-3.472,32.711,-3.059,3.465,-0.264892,-0.047906
23:34:50:846297,0.00015708,-0.582032,1.18677,5.23599e-05,1.35193,-0.00010472,0,0,0,0,0,0,0.025,-0.031,-0.281,0,0,0.001,-4.123,33.684,-3.486,2.702,-0.229667,0.032407
23:34:50:851435,0.00015708,-0.582032,1.18677,5.23599e-05,1.35193,-0.00010472,0,0,0,0,0,0,0.028,-0.045,-0.231,0,0,0.001,-4.207,32.361,-3.486,3.668,-0.240939,0.054951
23:34:50:856438,0.00015708,-0.582032,1.18677,5.23599e-05,1.35193,-0.00010472,0,0,0,0,0,0,0.027,-0.048,-0.005,0,-0.001,0,-4.165,32.9,-2.905,3.22,-0.300117,0.088767
23:34:50:861545,0.00015708,-0.582032,1.18677,5.23599e-05,1.35193,-0.00010472,0,0,0,0,0,0,0.01,-0.04,0.144,0,-0.001,-0.001,-4.536,31.941,-2.744,2.59,-0.238121,0.050724
23:34:50:866560,0.00015708,-0.582032,1.18677,5.23599e-05,1.35193,-0.00010472,0,0,0,0,0,0,-0.032,-0.019,0.125,0,0,0,-3.703,32.319,-2.898,2.891,-0.387475,-0.025362
23:34:50:871568,0.00015708,-0.582032,1.18677,5.23599e-05,1.35193,-0.00010472,0,0,0,0,0,0,-0.05,0.009,-0.165,0,0,0.002,-4.382,32.865,-2.394,3.157,-0.236712,0.091585
23:34:50:876686,0.00015708,-0.582032,1.18677,5.23599e-05,1.35193,-0.00010472,0,0,0,0,0,0,-0.032,0.022,-0.321,0,0,0.003,-4.291,32.284,-3.101,3.136,-0.355068,-0.054951
23:34:50:881669,0.00015708,-0.582032,1.18677,5.23599e-05,1.35193,-0.00010472,0,0,0,0,0,0,0.019,0.021,-0.308,0,0,0.002,-4.095,33.089,-2.744,3.5,-0.349432,0.050724
23:34:50:886810,0.00015708,-0.582032,1.18677,5.23599e-05,1.35193,-0.00010472,0,0,0,0,0,0,0.044,0.012,-0.215,0,0,0.002,-3.675,32.438,-3.101,2.982,-0.356477,0.02818
23:34:50:891758,0.00015708,-0.582032,1.18677,6.98132e-05,1.35193,-0.00010472,0,0,0,0,0,0,0.045,0.01,-0.189,0,0,0.002,-4.354,32.291,-2.828,3.171,-0.388884,-0.08454
23:34:50:896918,0.00015708,-0.582032,1.18677,6.98132e-05,1.35193,-0.00010472,0,0,0,0,0,0,0.032,0.021,-0.257,0,0,0.002,-4.151,32.9,-2.954,2.499,-0.312798,0.050724
23:34:50:901877,0.00015708,-0.582032,1.18677,6.98132e-05,1.35193,-0.00010472,0,0,0,0,0,0,0.022,0.041,-0.296,-0.001,0,0.002,-3.857,32.83,-3.22,2.464,-0.293072,0.018317
23:34:50:906882,0.00015708,-0.582032,1.18677,6.98132e-05,1.35193,-0.00010472,0,0,0,0,0,0,0.024,0.044,-0.219,-0.001,0,0.001,-3.864,32.711,-3.717,3.073,-0.240939,0.147945
23:34:50:912003,0.00015708,-0.582032,1.18677,6.98132e-05,1.35193,-0.00010472,0,0,0,0,0,0,0.024,0.024,-0.086,-0.001,0,0,-4.179,32.214,-2.59,3.185,-0.326888,0.01409
23:34:50:917045,0.00015708,-0.582032,1.18677,6.98132e-05,1.35193,-0.00010472,0,0,0,0,0,0,0.01,0.003,-0.084,0,0,0.001,-4.599,33.096,-2.905,2.625,-0.30998,-0.069041
23:34:50:922119,0.00015708,-0.582032,1.18677,6.98132e-05,1.35193,-0.00010472,0,0,0,0,0,0,-0.037,-0.013,-0.195,0,0,0.002,-4.123,32.669,-3.486,1.981,-0.333933,-0.066223
23:34:50:927310,0.00015708,-0.582032,1.18677,6.98132e-05,1.35193,-0.00010472,0,0,0,0,0,0,-0.068,-0.009,-0.252,0,0,0.002,-3.773,33.061,-3.29,2.422,-0.412837,0.059178
23:34:50:932257,0.00015708,-0.582032,1.18677,6.98132e-05,1.35193,-0.00010472,0,0,0,0,0,0,-0.07,0,-0.22,0,0,0.001,-4.305,32.242,-2.632,2.688,-0.257847,-0.095812
23:34:50:937245,0.00015708,-0.582032,1.18677,6.98132e-05,1.35193,-0.00010472,0,0,0,0,0,0,-0.034,-0.012,-0.123,0,0,0,-3.878,32.627,-2.828,2.94,-0.187397,0.009863
23:34:50:942420,0.00015708,-0.582032,1.18677,6.98132e-05,1.35193,-0.00010472,0,0,0,0,0,0,0.03,-0.062,0.085,0,-0.001,-0.001,-4.305,33.096,-2.59,3.045,-0.201487,0.059178
23:34:50:947417,0.00015708,-0.582032,1.18677,6.98132e-05,1.35193,-0.00010472,0,0,0,0,0,0,0.042,-0.09,0.214,0,-0.001,-0.002,-3.815,32.011,-3.185,2.765,-0.335342,-0.002818
23:34:50:952543,0.00015708,-0.582032,1.18677,6.98132e-05,1.35193,-0.00010472,0,0,0,0,0,0,0.007,-0.076,0.25,0,0,-0.001,-4.368,33.327,-2.044,2.198,-0.259256,0.066223
23:34:50:957511,0.00015708,-0.582032,1.18677,6.98132e-05,1.35193,-0.00010472,0,0,0,0,0,0,-0.018,-0.04,0.14,0,0,0,-3.472,32.319,-3.486,2.653,-0.4227,-0.029589
23:34:50:962679,0.00015708,-0.582032,1.18677,6.98132e-05,1.35193,-0.00010472,0,0,0,0,0,0,-0.014,-0.006,-0.055,0,0,0.001,-4.123,33.173,-2.702,2.541,-0.293072,0.007045
23:34:50:967683,0.00015708,-0.582032,1.18677,6.98132e-05,1.35193,-0.00010472,0,0,0,0,0,0,0.019,-0.029,-0.048,0,0,0.001,-3.773,32.781,-3.521,2.499,-0.367749,-0.088767
23:34:50:972665,0.00015708,-0.582032,1.18677,6.98132e-05,1.35193,-0.00010472,0,0,0,0,0,0,0.03,-0.048,0.049,0,0,0,-3.906,32.515,-2.975,3.199,-0.445244,0.009863
23:34:50:977792,0.00015708,-0.582032,1.18677,6.98132e-05,1.35193,-0.00010472,0,0,0,0,0,0,0.019,-0.035,0.132,0,0,0,-4.165,32.669,-2.513,2.94,-0.312798,-0.043679
23:34:50:982739,0.00015708,-0.582032,1.18677,6.98132e-05,1.35193,-0.00010472,0,0,0,0,0,0,0.006,-0.002,0.099,0,0,0,-3.402,32.361,-3.332,3.199,-0.39452,-0.021135
23:34:50:987915,0.00015708,-0.582032,1.18677,6.98132e-05,1.35193,-0.00010472,0,0,0,0,0,0,-0.003,0.038,-0.016,-0.001,0,0,-4.193,33.173,-3.101,2.485,-0.307162,0.080313
23:34:50:992910,0.00015708,-0.582032,1.18677,6.98132e-05,1.35193,-0.00010472,0,0,0,0,0,0,-0.002,0.045,-0.104,0,0,0.001,-4.249,32.088,-3.171,2.562,-0.336751,0.002818
23:34:50:998040,0.00015708,-0.582032,1.18677,6.98132e-05,1.35193,-0.00010472,0,0,0,0,0,0,0.012,0.034,-0.224,0,0,0.002,-3.843,33.208,-1.778,2.499,-0.304344,-0.009863
23:34:51:3040,0.00015708,-0.582032,1.18677,6.98132e-05,1.35193,-0.00010472,0,0,0,0,0,0,0.023,0.02,-0.244,0,0,0.002,-4.858,32.438,-2.289,2.87,-0.326888,0.061996
23:34:51:8165,0.00015708,-0.582032,1.18677,6.98132e-05,1.35193,-0.00010472,0,0,0,0,0,0,0.017,-0.004,-0.114,0,0,0.001,-4.655,33.208,-2.709,2.653,-0.269119,-0.073268
23:34:51:13166,0.00015708,-0.582032,1.18677,6.98132e-05,1.35193,-0.00010472,0,0,0,0,0,0,-0.005,-0.013,0.008,0,0,0,-3.801,32.823,-2.282,2.653,-0.30998,-0.025362
23:34:51:18300,0.00015708,-0.582032,1.18677,6.98132e-05,1.35193,-0.00010472,0,0,0,0,0,0,-0.044,-0.001,0.045,0,0,0,-4.319,32.788,-2.947,2.814,-0.194442,-0.114129
23:34:51:23247,0.00015708,-0.582032,1.18677,6.98132e-05,1.35193,-0.00010472,0,0,0,0,0,0,-0.049,0.012,-0.031,0,0,0,-4.137,32.746,-3.633,2.744,-0.053542,-0.07045
23:34:51:28411,0.00015708,-0.582032,1.18677,6.98132e-05,1.35193,-0.00010472,0,0,0,0,0,0,-0.022,0,-0.109,0,0,0,-4.508,32.207,-2.912,2.436,-0.202896,0.036634
23:34:51:33414,0.00015708,-0.582032,1.18677,6.98132e-05,1.35193,-0.00010472,0,0,0,0,0,0,-0.002,-0.034,-0.081,0,0,0,-4.032,32.746,-2.94,2.856,-0.393111,-0.02818
23:34:51:38547,0.00015708,-0.582032,1.18677,6.98132e-05,1.35193,-0.00010472,0,0,0,0,0,0,0.008,-0.077,-0.054,0,0,0,-4.34,33.6,-2.674,3.192,-0.293072,-0.002818
23:34:51:43559,0.00015708,-0.582032,1.18677,6.98132e-05,1.35193,-0.00010472,0,0,0,0,0,0,0.006,-0.06,-0.147,0,0,0.001,-4.179,32.55,-2.989,2.905,-0.264892,0.002818
23:34:51:48549,0.00015708,-0.582032,1.18677,6.98132e-05,1.35193,-0.00010472,0,0,0,0,0,0,0.002,-0.029,-0.181,0,0,0.001,-4.557,32.669,-2.212,2.639,-0.398747,-0.047906
23:34:51:53660,0.00015708,-0.582032,1.18677,6.98132e-05,1.35193,-0.00010472,0,0,0,0,0,0,-0.007,0,-0.071,0,0,0,-4.291,32.088,-2.786,2.842,-0.328297,-0.01409
23:34:51:58664,0.00015708,-0.582032,1.18677,6.98132e-05,1.35193,-0.00010472,0,0,0,0,0,0,-0.009,0.004,0.026,0,0,0,-4.382,32.704,-3.178,2.688,-0.312798,0.018317
23:34:51:63787,0.00015708,-0.582032,1.18677,6.98132e-05,1.35193,-0.00010472,0,0,0,0,0,0,0.002,0.007,0.033,0,0,0,-3.948,32.9,-3.059,3.031,-0.257847,0.047906
23:34:51:68850,0.00015708,-0.582032,1.18677,6.98132e-05,1.35193,-0.00010472,0,0,0,0,0,0,0.006,0.008,-0.013,0,0,0,-3.381,32.781,-3.059,3.031,-0.314207,0.129628
23:34:51:73789,0.00015708,-0.582032,1.18677,6.98132e-05,1.35193,-0.00010472,0,0,0,0,0,0,-0.026,-0.009,0.066,0,0,0,-4.032,33.131,-2.947,2.716,-0.346614,0.059178
23:34:51:78872,0.00015708,-0.582032,1.18677,6.98132e-05,1.35193,-0.00010472,0,0,0,0,0,0,-0.066,-0.031,0.231,-0.001,0,-0.001,-3.934,32.515,-1.932,3.094,-0.194442,0.125401
23:34:51:84051,0.00015708,-0.582032,1.18677,6.98132e-05,1.35193,-0.00010472,0,0,0,0,0,0,-0.093,-0.048,0.386,-0.001,0,-0.003,-4.109,33.131,-2.982,2.73,-0.245166,-0.061996
23:34:51:89050,0.00015708,-0.582032,1.18677,6.98132e-05,1.35193,-0.00010472,0,0,0,0,0,0,-0.069,-0.036,0.307,-0.001,0,-0.002,-3.773,32.55,-2.59,3.045,-0.262074,0.043679
23:34:51:93995,0.00015708,-0.582032,1.18677,6.98132e-05,1.35193,-0.00010472,0,0,0,0,0,0,-0.002,-0.008,0.032,-0.001,0,0,-3.703,32.627,-2.289,2.513,-0.30998,-0.01409
23:34:51:99186,0.00015708,-0.582032,1.18677,6.98132e-05,1.35193,-0.00010472,0,0,0,0,0,0,0.027,-0.002,-0.091,0,0,0,-3.703,32.011,-2.009,2.765,-0.332524,0.025362
23:34:51:104296,0.00015708,-0.582032,1.18677,6.98132e-05,1.35193,-0.00010472,0,0,0,0,0,0,0.022,-0.009,-0.095,0,0,0,-4.34,32.942,-2.863,2.702,-0.249393,0.007045
23:34:51:109282,0.00015708,-0.582032,1.18677,6.98132e-05,1.35193,-0.00010472,0,0,0,0,0,0,-0.003,-0.005,-0.07,0,0,0,-4.34,32.011,-2.828,2.842,-0.255029,-0.088767
23:34:51:114282,0.00015708,-0.582032,1.18677,6.98132e-05,1.35193,-0.00010472,0,0,0,0,0,0,-0.039,0.019,-0.135,0,0,0,-4.291,32.396,-2.212,2.373,-0.228258,0.009863
23:34:51:119427,0.00015708,-0.582032,1.18677,6.98132e-05,1.35193,-0.00010472,0,0,0,0,0,0,-0.042,0.033,-0.217,0,0,0.001,-4.109,32.746,-3.409,2.611,-0.242348,0.080313
23:34:51:124408,0.00015708,-0.582032,1.18677,6.98132e-05,1.35193,-0.00010472,0,0,0,0,0,0,-0.012,0.019,-0.247,0,0,0.001,-4.557,32.592,-2.94,2.912,-0.386066,0.059178
23:34:51:129354,0.00015708,-0.582032,1.18677,6.98132e-05,1.35193,-0.00010472,0,0,0,0,0,0,0.014,-0.008,-0.178,0,-0.001,0.001,-3.584,32.13,-2.401,2.534,-0.312798,-0.01409
23:34:51:134533,0.00015708,-0.582032,1.18677,6.98132e-05,1.35193,-0.00010472,0,0,0,0,0,0,0.023,-0.042,-0.057,0,0,0,-3.829,31.857,-2.632,2.87,-0.288845,0.091585
23:34:51:139532,0.00015708,-0.582032,1.18677,6.98132e-05,1.35193,-0.00010472,0,0,0,0,0,0,-0.015,-0.029,-0.068,0,0,0,-4.522,32.396,-2.737,2.59,-0.345205,0.073268
23:34:51:144658,0.00015708,-0.582032,1.18677,6.98132e-05,1.35193,-0.00010472,0,0,0,0,0,0,-0.047,0,-0.15,0,0,0.001,-4.151,32.431,-2.835,2.373,-0.293072,0.08454
23:34:51:149659,0.00015708,-0.582032,1.18677,6.98132e-05,1.35193,-0.00010472,0,0,0,0,0,0,-0.062,0.04,-0.258,0,0,0.003,-3.864,31.969,-3.038,2.464,-0.353659,-0.22544
23:34:51:154789,0.00015708,-0.582032,1.18677,6.98132e-05,1.35193,-0.00010472,0,0,0,0,0,0,-0.045,0.046,-0.254,0,0,0.003,-4.032,32.627,-3.129,3.234,-0.364931,0.184579
23:34:51:159781,0.00015708,-0.582032,1.18677,6.98132e-05,1.35193,-0.00010472,0,0,0,0,0,0,-0.005,0.025,-0.151,0,0,0.001,-4.928,33.523,-3.213,3.108,-0.353659,0.050724
23:34:51:164924,0.00015708,-0.582032,1.18677,6.98132e-05,1.35193,-0.00010472,0,0,0,0,0,0,0.01,0.007,-0.078,0,-0.001,0,-4.018,31.661,-3.157,3.15,-0.262074,-0.021135
23:34:51:169926,0.00015708,-0.582032,1.18677,6.98132e-05,1.35193,-0.00010472,0,0,0,0,0,0,0.007,-0.007,-0.033,-0.001,0,0,-4.249,32.242,-2.352,2.226,-0.314207,0.069041
23:34:51:175051,0.00015708,-0.582032,1.18677,6.98132e-05,1.35193,-0.00010472,0,0,0,0,0,0,-0.004,-0.01,-0.029,-0.001,0,0,-4.305,32.823,-3.031,2.632,-0.35225,0.036634
23:34:51:179980,0.00015708,-0.582032,1.18677,6.98132e-05,1.35193,-0.00010472,0,0,0,0,0,0,-0.015,-0.028,0.003,0,0,0,-3.528,32.011,-2.821,2.723,-0.374794,-0.032407
23:34:51:185159,0.00015708,-0.582032,1.18677,6.98132e-05,1.35193,-0.00010472,0,0,0,0,0,0,-0.011,-0.049,0.047,0,0,0,-4.018,32.361,-2.59,3.094,-0.359295,0.01409
23:34:51:190168,0.00015708,-0.582032,1.18677,6.98132e-05,1.35193,-0.00010472,0,0,0,0,0,0,0.011,-0.063,0.07,0,0,0,-3.164,32.312,-2.674,3.269,-0.288845,-0.029589
23:34:51:195100,0.00015708,-0.582032,1.18677,6.98132e-05,1.35193,-0.00010472,0,0,0,0,0,0,0.029,-0.048,0.008,0,0,0,-4.095,33.173,-2.086,2.359,-0.264892,0.01409
23:34:51:200280,0.00015708,-0.582032,1.18677,6.98132e-05,1.35193,-0.00010472,0,0,0,0,0,0,0.04,-0.003,-0.167,0,0,0.001,-4.074,32.354,-2.744,3.255,-0.245166,-0.002818
23:34:51:205232,0.00015708,-0.582032,1.18677,6.98132e-05,1.35193,-0.00010472,0,0,0,0,0,0,0.033,0.017,-0.258,0,0,0.002,-3.934,32.543,-2.52,2.1,-0.202896,-0.069041
23:34:51:210408,0.00015708,-0.582032,1.18677,6.98132e-05,1.35193,-0.00010472,0,0,0,0,0,0,0.01,0.013,-0.232,0,0,0.002,-4.249,32.746,-3.444,3.192,-0.18317,0.088767
23:34:51:215415,0.00015708,-0.582032,1.18677,6.98132e-05,1.35193,-0.00010472,0,0,0,0,0,0,-0.002,-0.01,-0.122,0,0,0.001,-3.528,32.599,-2.905,2.688,-0.266301,0.018317
23:34:51:220551,0.00015708,-0.582032,1.18677,6.98132e-05,1.35193,-0.00010472,0,0,0,0,0,0,-0.015,-0.057,0.055,0,0,0,-3.647,33.334,-2.548,3.199,-0.273346,0.018317
23:34:51:225474,0.00015708,-0.582032,1.18677,6.98132e-05,1.35193,-0.00010472,0,0,0,0,0,0,-0.018,-0.084,0.126,0,0,0,-3.675,31.738,-3.409,2.324,-0.335342,-0.059178
23:34:51:230670,0.00015708,-0.582032,1.18677,6.98132e-05,1.35193,-0.00010472,0,0,0,0,0,0,-0.009,-0.099,0.138,0,0,0,-3.99,32.704,-3.192,2.373,-0.395929,0.057769
23:34:51:235669,0.00015708,-0.582032,1.18677,6.98132e-05,1.35193,-0.00010472,0,0,0,0,0,0,0.029,-0.069,0.018,0,0,0,-4.207,32.592,-3.017,2.744,-0.202896,-0.043679
23:34:51:240779,0.00015708,-0.582032,1.18677,6.98132e-05,1.35193,-0.00010472,0,0,0,0,0,0,0.055,-0.03,-0.141,0,0,0.001,-4.074,32.907,-3.066,2.793,-0.187397,0.092994
23:34:51:245743,0.00015708,-0.582032,1.18677,6.98132e-05,1.35193,-0.00010472,0,0,0,0,0,0,0.049,0.019,-0.373,0,0,0.002,-4.109,32.361,-2.604,2.646,-0.195851,0.177534
23:34:51:250919,0.00015708,-0.582032,1.18677,6.98132e-05,1.35193,-0.00010472,0,0,0,0,0,0,0.004,0.027,-0.393,0,0,0.002,-4.151,31.619,-2.905,2.338,-0.391702,0.07045
23:34:51:255906,0.00015708,-0.582032,1.18677,6.98132e-05,1.35193,-0.00010472,0,0,0,0,0,0,-0.067,0.004,-0.167,-0.001,0,0,-3.731,31.892,-2.765,2.555,-0.252211,0.039452
23:34:51:261027,0.00015708,-0.582032,1.18677,6.98132e-05,1.35193,-0.00010472,0,0,0,0,0,0,-0.075,-0.013,0.008,-0.001,0,0,-3.948,32.942,-2.513,2.632,-0.22544,0.069041
23:34:51:266041,0.00015708,-0.582032,1.18677,6.98132e-05,1.35193,-0.00010472,0,0,0,0,0,0,-0.017,-0.007,0.019,0,0,0,-3.759,32.081,-3.136,2.373,-0.305753,-0.092994
23:34:51:271053,0.00015708,-0.582032,1.18677,6.98132e-05,1.35193,-0.00010472,0,0,0,0,0,0,0.028,0.015,-0.13,0,0,0.001,-3.892,32.48,-2.975,2.961,-0.314207,0.025362
23:34:51:276153,0.00015708,-0.582032,1.18677,6.98132e-05,1.35193,-0.00010472,0,0,0,0,0,0,0.05,0.037,-0.293,0,0,0.002,-3.99,32.361,-3.017,2.422,-0.308571,-0.012681
23:34:51:281099,0.00015708,-0.582032,1.18677,6.98132e-05,1.35193,-0.00010472,0,0,0,0,0,0,0.037,0.026,-0.239,0,0,0.002,-4.382,32.242,-3.136,2.856,-0.39452,0.019726
23:34:51:286308,0.00015708,-0.582032,1.18677,6.98132e-05,1.35193,-0.00010472,0,0,0,0,0,0,0.016,-0.015,-0.025,0,0,0,-4.48,33.138,-3.08,2.373,-0.328297,-0.036634
23:34:51:291304,0.00015708,-0.582032,1.18677,6.98132e-05,1.35193,-0.00010472,0,0,0,0,0,0,0.011,-0.039,0.058,0,0,0,-3.745,32.361,-3.031,2.926,-0.30998,-0.002818
23:34:51:296408,0.00015708,-0.582032,1.18677,6.98132e-05,1.35193,-0.00010472,0,0,0,0,0,0,0.004,-0.057,0.024,0,0,0,-3.703,32.634,-3.724,2.555,-0.304344,-0.059178
23:34:51:301395,0.00015708,-0.582032,1.18677,6.98132e-05,1.35193,-0.00010472,0,0,0,0,0,0,-0.007,-0.064,-0.017,0,0,0,-3.857,32.319,-3.066,2.723,-0.238121,0.039452
23:34:51:306345,0.00015708,-0.582032,1.18677,6.98132e-05,1.35193,-0.00010472,0,0,0,0,0,0,-0.024,-0.073,0.022,0,0,0,-3.948,32.942,-2.87,2.94,-0.291663,0.046497
23:34:51:311543,0.00015708,-0.582032,1.18677,6.98132e-05,1.35193,-0.00010472,0,0,0,0,0,0,-0.024,-0.059,0.13,0,0,0,-3.878,32.634,-2.94,2.429,-0.174716,0.147945
23:34:51:316668,0.00015708,-0.582032,1.18677,6.98132e-05,1.35193,-0.00010472,0,0,0,0,0,0,-0.011,-0.028,0.157,0,0,-0.001,-4.165,32.473,-3.248,2.338,-0.266301,-0.018317
23:34:51:321648,0.00015708,-0.582032,1.18677,6.98132e-05,1.35193,-0.00010472,0,0,0,0,0,0,0.012,0.024,0.09,0,0,0,-3.759,32.011,-3.017,2.534,-0.308571,0.005636
23:34:51:326656,0.00015708,-0.582032,1.18677,6.98132e-05,1.35193,-0.00010472,0,0,0,0,0,0,0.022,0.045,0.018,0,0,0,-4.018,32.046,-3.465,2.38,-0.25362,-0.004227
23:34:51:331752,0.00015708,-0.582032,1.18677,6.98132e-05,1.35193,-0.00010472,0,0,0,0,0,0,0.013,0.041,-0.04,0,0,0,-3.934,32.711,-2.128,2.45,-0.284618,0.01409
23:34:51:336784,0.00015708,-0.582032,1.18677,6.98132e-05,1.35193,-0.00010472,0,0,0,0,0,0,-0.002,0.027,-0.037,0,0,0,-4.305,33.061,-3.136,2.576,-0.301526,0.009863
23:34:51:341914,0.00015708,-0.582032,1.18677,6.98132e-05,1.35193,-0.00010472,0,0,0,0,0,0,-0.02,0.013,-0.024,0,0,0,-3.878,31.542,-3.374,2.254,-0.369158,0.002818
23:34:51:346913,0.00015708,-0.582032,1.18677,6.98132e-05,1.35193,-0.00010472,0,0,0,0,0,0,-0.011,0.014,-0.042,0,0,0,-4.221,33.019,-3.066,3.234,-0.393111,-0.005636
23:34:51:352023,0.00015708,-0.582032,1.18677,6.98132e-05,1.35193,-0.00010472,0,0,0,0,0,0,0.029,0.02,-0.088,0,0,0.001,-3.99,32.858,-3.052,2.618,-0.264892,-0.026771
23:34:51:357024,0.00015708,-0.582032,1.18677,6.98132e-05,1.35193,-0.00010472,0,0,0,0,0,0,0.052,0.021,-0.101,0,0,0.001,-4.018,31.976,-2.821,2.87,-0.371976,-0.045088
23:34:51:362147,0.00015708,-0.582032,1.18677,6.98132e-05,1.35193,-0.00010472,0,0,0,0,0,0,0.042,0.013,-0.09,0,0,0.001,-3.857,32.165,-3.444,3.017,-0.286027,0.009863
23:34:51:367165,0.00015708,-0.582032,1.18677,6.98132e-05,1.35193,-0.00010472,0,0,0,0,0,0,0.005,0.003,-0.083,0,0,0,-3.57,32.823,-3.073,1.911,-0.304344,0.129628
23:34:51:372089,0.00015708,-0.582032,1.18677,6.98132e-05,1.35193,-0.00010472,0,0,0,0,0,0,-0.057,-0.013,-0.053,0,0,0,-3.759,32.669,-3.444,2.506,-0.336751,0.018317
23:34:51:377286,0.00015708,-0.582032,1.18677,6.98132e-05,1.35193,-0.00010472,0,0,0,0,0,0,-0.077,-0.021,-0.004,0,0,0,-3.801,32.55,-2.912,2.975,-0.314207,0.107084
23:34:51:382396,0.00015708,-0.582032,1.18677,6.98132e-05,1.35193,-0.00010472,0,0,0,0,0,0,-0.056,-0.021,0.043,0,0,0,-3.843,32.711,-3.129,3.255,-0.29589,-0.07045
23:34:51:387362,0.00015708,-0.582015,1.18677,6.98132e-05,1.35193,-0.00010472,0,0,0,0,0,0,-0.02,-0.014,-0.009,0,0,0,-3.878,33.061,-3.654,2.926,-0.260665,0.050724
23:34:51:392468,0.00015708,-0.582015,1.18677,6.98132e-05,1.35193,-0.00010472,0,0,0,0,0,0,0.029,-0.006,-0.182,0,0,0.001,-4.326,31.983,-2.66,3.129,-0.247984,0.019726
23:34:51:397522,0.00015708,-0.582015,1.18677,6.98132e-05,1.35193,-0.00010472,0,0,0,0,0,0,0.046,-0.009,-0.236,0.001,0,0.001,-4.151,32.452,-2.24,3.066,-0.284618,0.052133
23:34:51:402657,0.00015708,-0.582015,1.18677,6.98132e-05,1.35193,-0.00010472,0,0,0,0,0,0,0.034,-0.027,-0.11,0.001,0,0,-3.934,31.591,-3.157,2.387,-0.342387,0.054951
23:34:51:407645,0.00015708,-0.582015,1.18677,6.98132e-05,1.35193,-0.00010472,0,0,0,0,0,0,0,-0.037,0.095,0,0,0,-3.878,32.599,-2.751,2.8,-0.329706,-0.021135
23:34:51:412786,0.00015708,-0.582015,1.18677,6.98132e-05,1.35193,-0.00010472,0,0,0,0,0,0,-0.012,-0.031,0.143,0,0,0,-3.367,32.466,-3.115,2.464,-0.287436,0.018317
23:34:51:417713,0.00015708,-0.582015,1.18677,6.98132e-05,1.35193,-0.00010472,0,0,0,0,0,0,0.005,-0.01,0.059,0,0,0,-3.934,33.18,-3.297,2.338,-0.321252,-0.002818
23:34:51:422734,0.00015708,-0.582015,1.18677,6.98132e-05,1.35193,-0.00010472,0,0,0,0,0,0,0.023,0.004,-0.039,0,0,0.001,-3.773,32.725,-2.975,2.779,-0.288845,0.019726
23:34:51:427895,0.00015708,-0.582015,1.18677,6.98132e-05,1.35193,-0.00010472,0,0,0,0,0,0,0.019,0.015,-0.167,0,0,0.002,-4.193,32.298,-3.262,2.359,-0.467788,0.029589
23:34:51:433034,0.00015708,-0.582015,1.18677,6.98132e-05,1.35193,-0.00010472,0,0,0,0,0,0,-0.004,0.014,-0.205,0,0,0.002,-4.438,32.676,-3.157,2.87,-0.185988,0.015499
23:34:51:437962,0.00015708,-0.582015,1.18677,6.98132e-05,1.35193,-0.00010472,0,0,0,0,0,0,-0.028,0.001,-0.135,0,0,0.001,-3.815,32.438,-2.66,2.667,-0.245166,0.029589
23:34:51:443017,0.00015708,-0.582015,1.18677,6.98132e-05,1.35193,-0.00010472,0,0,0,0,0,0,-0.022,-0.012,-0.008,0,0,0,-4.151,32.445,-2.94,2.87,-0.288845,0.118356
23:34:51:448142,0.00015708,-0.582015,1.18677,6.98132e-05,1.35193,-0.00010472,0,0,0,0,0,0,-0.002,-0.035,0.179,0,0,-0.001,-3.731,31.976,-3.605,2.45,-0.326888,0.08454
23:34:51:453142,0.00015708,-0.582015,1.18677,6.98132e-05,1.35193,-0.00010472,0,0,0,0,0,0,0,-0.05,0.211,0,-0.001,-0.001,-4.34,32.634,-2.282,2.94,-0.39452,-0.01409
23:34:51:458271,0.00015708,-0.582015,1.18677,6.98132e-05,1.35193,-0.00010472,0,0,0,0,0,0,-0.015,-0.068,0.079,0,0,0,-3.864,32.487,-3.458,2.688,-0.226849,0.002818
23:34:51:463264,0.00015708,-0.582015,1.18677,6.98132e-05,1.35193,-0.00010472,0,0,0,0,0,0,-0.024,-0.069,-0.064,0,0,0,-4.018,32.13,-3.493,2.632,-0.325479,0.049315
23:34:51:468409,0.00015708,-0.582015,1.18677,6.98132e-05,1.35193,-0.00010472,0,0,0,0,0,0,-0.022,-0.049,-0.2,0,0,0.001,-3.241,32.284,-3.829,2.688,-0.266301,0.142309
23:34:51:473390,0.00015708,-0.582015,1.18677,6.98132e-05,1.35193,-0.00010472,0,0,0,0,0,0,-0.02,-0.029,-0.181,0,0,0.001,-4.137,33.208,-2.212,2.835,-0.26771,0.097221
23:34:51:478520,0.00015708,-0.582015,1.18677,6.98132e-05,1.35193,-0.00010472,0,0,0,0,0,0,-0.035,-0.013,-0.042,0,0,0,-3.675,32.207,-2.709,2.59,-0.286027,-0.018317
23:34:51:483515,0.00015708,-0.582015,1.18677,6.98132e-05,1.35193,-0.00010472,0,0,0,0,0,0,-0.051,-0.015,0.028,0,0,0,-4.179,32.907,-3.864,2.779,-0.260665,0.092994
23:34:51:488657,0.00015708,-0.582015,1.18677,6.98132e-05,1.35193,-0.00010472,0,0,0,0,0,0,-0.053,-0.023,0.005,0,0,0,-4.207,33.103,-2.975,3.038,-0.26771,0.115538
23:34:51:493641,0.00015708,-0.582015,1.18677,6.98132e-05,1.35193,-0.00010472,0,0,0,0,0,0,-0.021,-0.019,-0.066,0,0,0.001,-3.528,32.403,-3.605,2.793,-0.325479,0.064814
23:34:51:498764,0.00015708,-0.582015,1.18677,6.98132e-05,1.35193,-0.00010472,0,0,0,0,0,0,0.003,-0.011,-0.055,0,0,0.001,-3.731,32.095,-3.374,2.926,-0.376203,0.059178
23:34:51:503766,0.00015708,-0.582015,1.18677,6.98132e-05,1.35193,-0.00010472,0,0,0,0,0,0,0.027,0.003,0.003,0,0,0,-4.046,32.977,-2.45,2.576,-0.307162,0.025362
23:34:51:508778,0.00015708,-0.582015,1.18677,6.98132e-05,1.35193,-0.00010472,0,0,0,0,0,0,0.032,0.012,-0.017,0,0,0,-4.179,32.788,-2.569,2.114,-0.314207,-0.025362
23:34:51:513905,0.00015708,-0.582015,1.18677,6.98132e-05,1.35193,-0.00010472,0,0,0,0,0,0,0.033,0.016,-0.166,0,0,0.001,-4.305,32.284,-3.108,2.485,-0.328297,-0.018317
23:34:51:518905,0.00015708,-0.582015,1.18677,6.98132e-05,1.35193,-0.00010472,0,0,0,0,0,0,0.032,0.01,-0.254,0,0,0.001,-4.123,32.76,-2.947,2.296,-0.2818,0.043679
23:34:51:524030,0.00015708,-0.582015,1.18677,6.98132e-05,1.35193,-0.00010472,0,0,0,0,0,0,0.033,-0.003,-0.228,0,0,0.001,-3.815,32.984,-3.052,2.849,-0.249393,0.01409
23:34:51:528974,0.00015708,-0.582015,1.18677,6.98132e-05,1.35193,-0.00010472,0,0,0,0,0,0,0.029,-0.005,-0.118,0,0,0,-3.633,32.984,-3.297,3.276,-0.336751,0.08454
23:34:51:533960,0.00015708,-0.582015,1.18677,6.98132e-05,1.35193,-0.00010472,0,0,0,0,0,0,-0.009,0.003,0.056,0,0,0,-4.004,32.081,-3.297,3.143,-0.200078,0.021135
23:34:51:539085,0.00015708,-0.582015,1.18677,6.98132e-05,1.35193,-0.00010472,0,0,0,0,0,0,-0.062,0.003,0.121,0,0,-0.001,-4.032,32.319,-2.429,2.905,-0.373385,0.025362
23:34:51:544266,0.00015708,-0.582015,1.18677,6.98132e-05,1.35193,-0.00010472,0,0,0,0,0,0,-0.134,-0.017,0.123,0,0,-0.002,-3.675,33.068,-3.332,2.926,-0.249393,0.025362
23:34:51:549238,0.00015708,-0.582015,1.18677,6.98132e-05,1.35193,-0.00010472,0,0,0,0,0,0,-0.137,-0.039,0.09,-0.001,0,-0.002,-4.571,32.823,-2.359,2.576,-0.381839,0.021135
23:34:51:554406,0.00015708,-0.582015,1.18677,6.98132e-05,1.35193,-0.00010472,0,0,0,0,0,0,-0.068,-0.059,0.059,-0.001,0,-0.001,-3.416,32.445,-2.352,2.926,-0.287436,0.018317
23:34:51:559347,0.00015708,-0.582015,1.18677,6.98132e-05,1.35193,-0.00010472,0,0,0,0,0,0,-0.016,-0.054,0.072,0,0,-0.001,-4.235,32.242,-3.066,2.135,-0.36634,0.047906
23:34:51:564361,0.00015708,-0.582015,1.18677,6.98132e-05,1.35193,-0.00010472,0,0,0,0,0,0,0.009,-0.028,0.097,0,0,-0.001,-3.661,32.445,-3.108,2.541,-0.288845,0.080313
23:34:51:569508,0.00015708,-0.582015,1.18677,6.98132e-05,1.35193,-0.00010472,0,0,0,0,0,0,0,-0.013,0.065,0,0,0,-4.137,32.683,-2.59,2.079,-0.266301,-0.073268
23:34:51:574516,0.00015708,-0.582015,1.18677,6.98132e-05,1.35193,-0.00010472,0,0,0,0,0,0,-0.004,-0.007,-0.069,0,0,0,-3.731,32.725,-3.213,2.338,-0.242348,0.007045
23:34:51:579637,0.00015708,-0.582015,1.18677,6.98132e-05,1.35193,-0.00010472,0,0,0,0,0,0,0.023,-0.011,-0.19,0,0,0.001,-4.018,32.13,-2.779,3.087,-0.346614,0.007045
23:34:51:584637,0.00015708,-0.582015,1.18677,6.98132e-05,1.35193,-0.00010472,0,0,0,0,0,0,0.044,-0.008,-0.203,0,0,0.001,-3.612,32.515,-2.24,2.611,-0.376203,0.025362
23:34:51:589789,0.00015708,-0.582015,1.18677,6.98132e-05,1.35193,-0.00010472,0,0,0,0,0,0,0.044,0,-0.143,0,0,0.001,-4.179,32.991,-3.836,2.499,-0.232485,-0.047906
23:34:51:594746,0.00015708,-0.582015,1.18677,6.98132e-05,1.35193,-0.00010472,0,0,0,0,0,0,0.015,0,-0.1,0,0,0,-4.235,32.368,-3.563,2.758,-0.415655,0.036634
23:34:51:599778,0.00015708,-0.582015,1.18677,6.98132e-05,1.35193,-0.00010472,0,0,0,0,0,0,-0.051,-0.006,-0.067,0,0,0,-3.745,33.187,-2.191,2.926,-0.162035,-0.01409
23:34:51:604903,0.00015708,-0.582015,1.18677,6.98132e-05,1.35193,-0.00010472,0,0,0,0,0,0,-0.081,-0.006,-0.052,0,0,0,-4.032,32.13,-2.898,2.758,-0.308571,-0.01409
23:34:51:609851,0.00015708,-0.582015,1.18677,6.98132e-05,1.35193,-0.00010472,0,0,0,0,0,0,-0.063,0.007,-0.031,0,0,0,-4.081,33.264,-3.493,2.702,-0.288845,0.025362
23:34:51:614970,0.00015708,-0.582015,1.18677,6.98132e-05,1.35193,-0.00010472,0,0,0,0,0,0,-0.018,0.017,-0.037,0,0,0,-3.458,32.207,-3.724,2.59,-0.286027,-0.039452
23:34:51:619956,0.00015708,-0.582015,1.18677,6.98132e-05,1.35193,-0.00010472,0,0,0,0,0,0,0.036,0.015,-0.091,0,0,0.001,-3.962,32.396,-2.52,2.982,-0.314207,0.121174
23:34:51:625151,0.00015708,-0.582015,1.18677,6.98132e-05,1.35193,-0.00010472,0,0,0,0,0,0,0.037,0.004,-0.12,0,0,0.001,-3.906,31.927,-2.394,2.891,-0.246575,0.029589
23:34:51:630152,0.00015708,-0.582015,1.18677,6.98132e-05,1.35193,-0.00010472,0,0,0,0,0,0,0,-0.011,-0.08,-0.001,0,0.001,-3.962,32.277,-3.031,2.59,-0.35225,0.091585
23:34:51:635096,0.00015708,-0.582015,1.18677,6.98132e-05,1.35193,-0.00010472,0,0,0,0,0,0,-0.027,-0.015,-0.011,0,0,0.001,-3.962,32.018,-3.178,2.541,-0.280391,-0.032407
23:34:51:640288,0.00015708,-0.582015,1.18677,6.98132e-05,1.35193,-0.00010472,0,0,0,0,0,0,-0.044,-0.017,0.057,0,0,0,-4.788,32.599,-2.709,3.073,-0.414246,-0.061996
23:34:51:645382,0.00015708,-0.582015,1.18677,6.98132e-05,1.35193,-0.00010472,0,0,0,0,0,0,-0.037,-0.018,0.046,0,0,0,-3.458,32.319,-2.709,2.59,-0.278982,0.018317
23:34:51:650382,0.00015708,-0.582015,1.18677,6.98132e-05,1.35193,-0.00010472,0,0,0,0,0,0,-0.01,-0.021,-0.013,0,0,-0.001,-3.675,33.411,-3.213,1.932,-0.39452,0.088767
23:34:51:655330,0.00015708,-0.582015,1.18677,6.98132e-05,1.35193,-0.00010472,0,0,0,0,0,0,0.006,-0.021,-0.047,0,0,0,-4.368,32.683,-3.129,2.94,-0.321252,-0.036634
23:34:51:660507,0.00015708,-0.582015,1.18677,6.98132e-05,1.35193,-0.00010472,0,0,0,0,0,0,0.018,-0.015,-0.094,0,0,0,-4.151,32.907,-2.94,2.555,-0.359295,0.107084
23:34:51:665509,0.00015708,-0.582015,1.18677,6.98132e-05,1.35193,-0.00010472,0,0,0,0,0,0,0.018,-0.01,-0.14,0,0,0.001,-3.759,32.375,-3.766,3.129,-0.329706,0.162035
23:34:51:670635,0.00015708,-0.582015,1.18677,6.98132e-05,1.35193,-0.00010472,0,0,0,0,0,0,0.023,-0.008,-0.213,0,0,0.001,-3.675,32.585,-3.479,2.758,-0.329706,0.050724
23:34:51:675631,0.00015708,-0.582015,1.18677,6.98132e-05,1.35193,-0.00010472,0,0,0,0,0,0,0.033,-0.006,-0.234,0,0,0.001,-4.137,32.683,-3.087,2.94,-0.288845,0.018317
23:34:51:680773,0.00015708,-0.582015,1.18677,6.98132e-05,1.35193,-0.00010472,0,0,0,0,0,0,0.034,0.002,-0.204,0,0,0.001,-3.92,32.319,-3.213,2.296,-0.274755,0.01409
23:34:51:685719,0.00015708,-0.582015,1.18677,6.98132e-05,1.35193,-0.00010472,0,0,0,0,0,0,0.023,0.031,-0.122,0,0,0.001,-3.815,32.55,-2.835,2.835,-0.314207,0.073268
23:34:51:690899,0.00015708,-0.582015,1.18677,6.98132e-05,1.35193,-0.00010472,0,0,0,0,0,0,0.016,0.048,-0.076,0,0,0.001,-4.109,32.907,-2.66,2.905,-0.38043,0.050724
23:34:51:695884,0.00015708,-0.582015,1.18677,6.98132e-05,1.35193,-0.00010472,0,0,0,0,0,0,0.009,0.049,-0.055,0,0,0,-3.962,31.934,-2.086,2.814,-0.398747,0.007045
23:34:51:701023,0.00015708,-0.582015,1.18677,6.98132e-05,1.35193,-0.00010472,0,0,0,0,0,0,-0.001,0.032,-0.061,0,0,0,-3.829,32.095,-3.297,2.688,-0.245166,-0.036634
23:34:51:706038,0.00015708,-0.582015,1.18677,6.98132e-05,1.35193,-0.00010472,0,0,0,0,0,0,-0.029,0.006,-0.052,0,0,0,-3.948,32.599,-3.213,2.87,-0.198669,0.07045
23:34:51:711028,0.00015708,-0.582015,1.18677,6.98132e-05,1.35193,-0.00010472,0,0,0,0,0,0,-0.037,0,-0.038,0,0,0,-3.962,32.494,-3.108,2.464,-0.333933,0.025362
23:34:51:716132,0.00015708,-0.582015,1.18677,6.98132e-05,1.35193,-0.00010472,0,0,0,0,0,0,-0.017,0.009,-0.053,0,0,0,-4.151,32.291,-3.227,2.996,-0.215577,0.021135
23:34:51:721256,0.00015708,-0.582015,1.18677,6.98132e-05,1.35193,-0.00010472,0,0,0,0,0,0,0.002,0.013,-0.09,0,0,0.001,-4.179,32.872,-2.996,2.387,-0.32407,-0.002818
23:34:51:726201,0.00015708,-0.582015,1.18677,6.98132e-05,1.35193,-0.00010472,0,0,0,0,0,0,0.004,-0.001,-0.11,0,0,0.001,-4.137,32.361,-3.297,2.744,-0.339569,-0.02818
23:34:51:731272,0.00015708,-0.582015,1.18677,6.98132e-05,1.35193,-0.00010472,0,0,0,0,0,0,-0.008,-0.017,-0.07,0,0,0,-3.416,32.634,-3.248,3.073,-0.200078,0.009863
23:34:51:736393,0.00015708,-0.582015,1.18677,6.98132e-05,1.35193,-0.00010472,0,0,0,0,0,0,-0.011,-0.025,0.016,0,0,0,-4.494,33.383,-3.171,2.744,-0.312798,0.02818
23:34:51:741343,0.00015708,-0.582015,1.18677,6.98132e-05,1.35193,-0.00010472,0,0,0,0,0,0,0.002,-0.015,0.034,0,0,0,-3.458,33.376,-3.304,2.926,-0.291663,-0.018317
23:34:51:746508,0.00015708,-0.582015,1.18677,6.98132e-05,1.35193,-0.00010472,0,0,0,0,0,0,0.008,0,-0.015,0,0,0,-3.864,32.634,-3.143,2.044,-0.264892,-0.091585
23:34:51:751463,0.00015708,-0.582015,1.18677,6.98132e-05,1.35193,-0.00010472,0,0,0,0,0,0,-0.015,-0.007,-0.044,0,0,0,-3.92,31.822,-3.262,2.667,-0.35225,0.002818
23:34:51:756644,0.00015708,-0.582015,1.18677,6.98132e-05,1.35193,-0.00010472,0,0,0,0,0,0,-0.061,-0.04,-0.013,0,0,0,-3.801,32.326,-3.332,2.632,-0.314207,0.15499
23:34:51:761626,0.00015708,-0.582015,1.18677,6.98132e-05,1.35193,-0.00010472,0,0,0,0,0,0,-0.057,-0.057,0.012,0,0,0,-3.745,32.004,-3.36,2.408,-0.345205,0.032407
23:34:51:766576,0.00015708,-0.582015,1.18677,6.98132e-05,1.35193,-0.00010472,0,0,0,0,0,0,0.011,-0.05,-0.06,0,0,0,-3.934,32.529,-2.324,3.22,-0.393111,0.102857
23:34:51:771767,0.00015708,-0.582015,1.18677,6.98132e-05,1.35193,-0.00010472,0,0,0,0,0,0,0.068,-0.024,-0.202,0,0,0.001,-3.934,33.873,-3.57,2.94,-0.29589,0.002818
23:34:51:776765,0.00015708,-0.582015,1.18677,6.98132e-05,1.35193,-0.00010472,0,0,0,0,0,0,0.056,-0.017,-0.205,0,0,0.001,-3.689,32.627,-2.982,2.849,-0.249393,-0.007045
23:34:51:781895,0.00015708,-0.582015,1.18677,6.98132e-05,1.35193,-0.00010472,0,0,0,0,0,0,-0.008,-0.032,-0.022,0,0,0,-3.598,32.228,-3.332,2.779,-0.373385,0.114129
23:34:51:786894,0.00015708,-0.582015,1.18677,6.98132e-05,1.35193,-0.00010472,0,0,0,0,0,0,-0.034,-0.047,0.119,0,0,-0.001,-3.878,33.194,-3.5,2.849,-0.336751,0.102857
23:34:51:791840,0.00015708,-0.582015,1.18677,6.98132e-05,1.35193,-0.00010472,0,0,0,0,0,0,-0.016,-0.05,0.181,0,0,-0.001,-4.221,32.046,-3.017,2.702,-0.326888,-0.066223
23:34:51:797002,0.00015708,-0.582015,1.18677,6.98132e-05,1.35193,-0.00010472,0,0,0,0,0,0,0.007,-0.034,0.136,0,0,0,-3.528,31.85,-2.373,2.499,-0.269119,0.114129
23:34:51:802143,0.00015708,-0.582015,1.18677,6.98132e-05,1.35193,-0.00010472,0,0,0,0,0,0,0.017,-0.006,0.084,0,0,0,-3.353,32.186,-3.101,2.758,-0.346614,0.054951
23:34:51:807141,0.00015708,-0.582015,1.18677,6.98132e-05,1.35193,-0.00010472,0,0,0,0,0,0,0.009,-0.001,0.091,0,0,0,-4.032,33.047,-2.821,2.87,-0.200078,0.08454
23:34:51:812138,0.00015708,-0.582015,1.18677,6.98132e-05,1.35193,-0.00010472,0,0,0,0,0,0,0.006,-0.021,0.104,0,0,0,-3.962,32.382,-2.821,2.814,-0.293072,0.054951
23:34:51:817250,0.00015708,-0.582015,1.18677,6.98132e-05,1.35193,-0.00010472,0,0,0,0,0,0,0.011,-0.04,0.092,0,0,0,-4.137,32.298,-2.604,2.576,-0.269119,0.043679
23:34:51:822257,0.00015708,-0.582015,1.18677,6.98132e-05,1.35193,-0.00010472,0,0,0,0,0,0,0.012,-0.058,0.105,0,0,-0.001,-4.249,31.906,-3.178,3.052,-0.376203,0.073268
23:34:51:827391,0.00015708,-0.582015,1.18677,6.98132e-05,1.35193,-0.00010472,0,0,0,0,0,0,0.006,-0.06,0.163,0,0,-0.001,-3.864,31.878,-3.339,2.373,-0.355068,0.114129
23:34:51:832394,0.00015708,-0.582015,1.18677,6.98132e-05,1.35193,-0.00010472,0,0,0,0,0,0,0.003,-0.056,0.269,0,0,-0.001,-4.018,32.452,-2.821,2.555,-0.304344,-0.036634
23:34:51:837496,0.00015708,-0.582015,1.18677,6.98132e-05,1.35193,-0.00010472,0,0,0,0,0,0,0,-0.052,0.291,0,0,-0.001,-3.416,31.899,-2.121,2.723,-0.264892,0.077495
23:34:51:842500,0.00015708,-0.582015,1.18677,6.98132e-05,1.35193,-0.00010472,0,0,0,0,0,0,-0.028,-0.04,0.232,0,0,-0.001,-3.703,32.137,-1.736,2.891,-0.319843,0.036634
23:34:51:847503,0.00015708,-0.582015,1.18677,6.98132e-05,1.35193,-0.00010472,0,0,0,0,0,0,-0.06,-0.031,0.179,0,0,-0.001,-3.731,32.221,-2.688,3.297,-0.4227,-0.002818
23:34:51:852654,0.00015708,-0.582015,1.18677,6.98132e-05,1.35193,-0.00010472,0,0,0,0,0,0,-0.081,-0.027,0.17,0,0,-0.001,-4.046,31.584,-3.92,2.688,-0.356477,0.036634
23:34:51:857641,0.00015708,-0.582015,1.18677,6.98132e-05,1.35193,-0.00010472,0,0,0,0,0,0,-0.042,-0.04,0.231,0,0,-0.001,-3.787,32.466,-3.892,2.485,-0.333933,0.114129
23:34:51:862748,0.00015708,-0.582015,1.18677,6.98132e-05,1.35193,-0.00010472,0,0,0,0,0,0,-0.001,-0.045,0.242,-0.001,0,0,-4.466,33.075,-1.624,2.52,-0.304344,0.043679
23:34:51:867751,0.00015708,-0.582015,1.18677,6.98132e-05,1.35193,-0.00010472,0,0,0,0,0,0,0.026,-0.027,0.113,-0.001,0,0,-3.43,32.221,-4.13,2.485,-0.307162,-0.025362
23:34:51:872874,0.00015708,-0.582015,1.18677,6.98132e-05,1.35193,-0.00010472,0,0,0,0,0,0,0.013,0.002,-0.059,0,0,0,-3.598,32.613,-2.226,3.941,-0.412837,0.143718
23:34:51:877837,0.00015708,-0.582015,1.18677,6.98132e-05,1.35193,-0.00010472,0,0,0,0,0,0,-0.027,0.045,-0.309,0,0.001,0.001,-4.06,33.012,-2.674,2.667,-0.266301,0.100039
23:34:51:883012,0.00015708,-0.582015,1.18677,6.98132e-05,1.35193,-0.00010472,0,0,0,0,0,0,-0.039,0.059,-0.381,0,0.001,0.001,-3.864,32.389,-2.786,2.002,-0.317025,0.07045
23:34:51:888010,0.00015708,-0.582015,1.18677,6.98132e-05,1.35193,-0.00010472,0,0,0,0,0,0,-0.011,0.047,-0.299,0,0,0.001,-3.241,32.725,-3.087,2.555,-0.305753,0.032407
23:34:51:893118,0.00015708,-0.582015,1.18677,6.98132e-05,1.35193,-0.00010472,0,0,0,0,0,0,0.024,0.021,-0.157,0,0,0.001,-4.165,32.298,-3.5,3.458,-0.328297,0.054951
23:34:51:898136,0.00015708,-0.582015,1.18677,6.98132e-05,1.35193,-0.00010472,0,0,0,0,0,0,0.057,-0.035,0.033,0,0,0,-4.165,32.963,-3.017,2.926,-0.293072,0.095812
23:34:51:903270,0.00015708,-0.582015,1.18677,6.98132e-05,1.35193,-0.00010472,0,0,0,0,0,0,0.051,-0.067,0.055,0,-0.001,0,-3.612,32.452,-3.374,3.038,-0.232485,-0.007045
23:34:51:908192,0.00015708,-0.582015,1.18677,6.98132e-05,1.35193,-0.00010472,0,0,0,0,0,0,0.023,-0.074,-0.081,0,0,0,-3.633,32.221,-3.374,2.849,-0.30998,0.066223
23:34:51:913387,0.00015708,-0.582015,1.18677,6.98132e-05,1.35193,-0.00010472,0,0,0,0,0,0,0.011,-0.05,-0.181,0,0,0.001,-3.92,32.69,-2.947,2.485,-0.294481,0.025362
23:34:51:918367,0.00015708,-0.582015,1.18677,6.98132e-05,1.35193,-0.00010472,0,0,0,0,0,0,0,-0.007,-0.121,0,0,0,-3.815,31.976,-2.03,3.332,-0.288845,0.102857
23:34:51:923494,0.00015708,-0.582015,1.18677,6.98132e-05,1.35193,-0.00010472,0,0,0,0,0,0,-0.016,0.001,0.071,0,0,0,-3.773,33.194,-3.108,2.779,-0.340978,-0.01409
23:34:51:928493,0.00015708,-0.582015,1.18677,6.98132e-05,1.35193,-0.00010472,0,0,0,0,0,0,-0.049,-0.015,0.347,0,0,-0.002,-3.773,32.487,-3.136,2.338,-0.369158,0.121174
23:34:51:933444,0.00015708,-0.582015,1.18677,6.98132e-05,1.35193,-0.00010472,0,0,0,0,0,0,-0.057,-0.032,0.363,0,0,-0.002,-3.815,32.368,-3.101,2.373,-0.287436,-0.080313
23:34:51:938618,0.00015708,-0.582015,1.18677,6.98132e-05,1.35193,-0.00010472,0,0,0,0,0,0,-0.029,-0.037,0.094,0,0,0,-3.381,32.207,-3.129,3.22,-0.349432,0.059178
23:34:51:943643,0.00015708,-0.582015,1.18677,6.98132e-05,1.35193,-0.00010472,0,0,0,0,0,0,0.009,-0.007,-0.252,0,0,0.001,-3.542,32.403,-2.961,2.688,-0.314207,-0.01409
23:34:51:948695,0.00015708,-0.582015,1.18677,6.98132e-05,1.35193,-0.00010472,0,0,0,0,0,0,0.013,0.02,-0.355,0,0,0.003,-3.444,32.137,-2.877,2.443,-0.205714,0.002818
23:34:51:953705,0.00015708,-0.582015,1.18677,6.98132e-05,1.35193,-0.00010472,0,0,0,0,0,0,-0.011,0.043,-0.263,0,0,0.003,-3.934,33.047,-3.178,2.926,-0.221213,0.021135
23:34:51:958887,0.00015708,-0.582015,1.18677,6.98132e-05,1.35193,-0.00010472,0,0,0,0,0,0,-0.019,0.033,-0.13,0,0,0.002,-3.745,32.963,-3.017,2.191,-0.387475,0.036634
23:34:51:963816,0.00015708,-0.582015,1.18677,6.98132e-05,1.35193,-0.00010472,0,0,0,0,0,0,0.006,-0.003,-0.033,-0.001,0,0.001,-3.689,32.921,-3.178,3.073,-0.180352,0.166262
23:34:51:968994,0.00015708,-0.582015,1.18677,6.98132e-05,1.35193,-0.00010472,0,0,0,0,0,0,0.032,-0.019,-0.082,0,0,0.001,-3.731,32.172,-3.262,2.688,-0.312798,0.07045
23:34:51:973992,0.00015708,-0.582015,1.18677,6.98132e-05,1.35193,-0.00010472,0,0,0,0,0,0,0.031,-0.006,-0.22,0,0,0.002,-3.703,33.229,-2.506,3.164,-0.219804,-0.025362
23:34:51:979134,0.00015708,-0.582015,1.18677,6.98132e-05,1.35193,-0.00010472,0,0,0,0,0,0,0.003,0.02,-0.249,0,0,0.002,-3.829,32.578,-3.157,3.017,-0.245166,0.088767
23:34:51:984134,0.00015708,-0.582015,1.18677,6.98132e-05,1.35193,-0.00010472,0,0,0,0,0,0,-0.034,0.044,-0.111,0,0,0,-3.906,32.382,-2.408,2.611,-0.284618,-0.01409
23:34:51:989238,0.00015708,-0.582015,1.18677,6.98132e-05,1.35193,-0.00010472,0,0,0,0,0,0,-0.034,0.03,0.051,0,0,0,-3.864,32.956,-2.583,2.59,-0.288845,-0.009863
23:34:51:994220,0.00015708,-0.582015,1.18677,6.98132e-05,1.35193,-0.00010472,0,0,0,0,0,0,-0.007,-0.02,0.204,0,0,0,-3.815,31.906,-3.241,2.744,-0.291663,0.073268
23:34:51:999221,0.00015708,-0.582015,1.18677,6.98132e-05,1.35193,-0.00010472,0,0,0,0,0,0,0.013,-0.042,0.156,0,0,0,-3.801,32.578,-2.247,3.255,-0.455107,0.009863
23:34:52:4368,0.00015708,-0.582015,1.18677,6.98132e-05,1.35193,-0.00010472,0,0,0,0,0,0,0.033,-0.031,-0.081,0,0,0.001,-3.801,31.766,-3.143,2.296,-0.38043,0.066223
23:34:52:9316,0.00015708,-0.582015,1.18677,6.98132e-05,1.35193,-0.00010472,0,0,0,0,0,0,0.038,-0.01,-0.205,0,0,0.001,-4.074,32.718,-3.171,2.485,-0.442426,0.01409
23:34:52:14491,0.00015708,-0.582015,1.18677,6.98132e-05,1.35193,-0.00010472,0,0,0,0,0,0,0.028,-0.005,-0.154,0,0,0.001,-3.647,32.06,-2.52,2.891,-0.418473,0.080313
23:34:52:19490,0.00015708,-0.582015,1.18677,6.98132e-05,1.35193,-0.00010472,0,0,0,0,0,0,0.01,-0.025,-0.014,0,0,0,-3.906,33.425,-2.716,2.996,-0.249393,0.066223
23:34:52:24615,0.00015708,-0.582015,1.18677,6.98132e-05,1.35193,-0.00010472,0,0,0,0,0,0,-0.016,-0.05,0.115,0,0,0,-4.109,31.745,-2.975,2.961,-0.415655,0.009863
23:34:52:29633,0.00015708,-0.582015,1.18677,6.98132e-05,1.35193,-0.00010472,0,0,0,0,0,0,-0.025,-0.041,0.073,0,0,0,-4.312,32.186,-2.569,2.723,-0.329706,0.025362
23:34:52:34771,0.00015708,-0.582015,1.18677,6.98132e-05,1.35193,-0.00010472,0,0,0,0,0,0,-0.026,-0.025,0.042,0,0,0,-3.843,31.423,-2.856,2.52,-0.329706,0.125401
23:34:52:39755,0.00015708,-0.582015,1.18677,6.98132e-05,1.35193,-0.00010472,0,0,0,0,0,0,-0.037,-0.006,0.069,0,0,0,-3.731,32.326,-3.213,2.52,-0.315616,-0.073268
23:34:52:44813,0.00015708,-0.582015,1.18677,8.72665e-05,1.35193,-0.00010472,0,0,0,0,0,0,-0.055,0,0.099,0,0,-0.001,-4.249,32.221,-2.947,3.668,-0.260665,0
23:34:52:49811,0.00015708,-0.582015,1.18677,8.72665e-05,1.35193,-0.00010472,0,0,0,0,0,0,-0.084,-0.003,0.141,0,0,-0.002,-4.151,31.906,-3.136,2.485,-0.294481,0.066223
23:34:52:55012,0.00015708,-0.582015,1.18677,8.72665e-05,1.35193,-0.00010472,0,0,0,0,0,0,-0.094,-0.018,0.204,0,0,-0.002,-4.095,31.976,-3.297,2.576,-0.287436,0.088767
23:34:52:60006,0.00015708,-0.582015,1.18677,8.72665e-05,1.35193,-0.00010472,0,0,0,0,0,0,-0.077,-0.047,0.309,0,0,-0.001,-3.444,32.508,-3.213,2.422,-0.376203,0.050724
23:34:52:65112,0.00015708,-0.582015,1.18677,8.72665e-05,1.35193,-0.00010472,0,0,0,0,0,0,-0.042,-0.055,0.272,0,0,-0.001,-3.857,32.333,-2.506,2.793,-0.314207,-0.021135
23:34:52:70128,0.00015708,-0.582015,1.18677,8.72665e-05,1.35193,-0.00010472,0,0,0,0,0,0,0.02,-0.028,-0.012,0,0,0.001,-3.815,31.514,-2.877,2.422,-0.308571,0.002818
23:34:52:75254,0.00015708,-0.582015,1.18677,8.72665e-05,1.35193,-0.00010472,0,0,0,0,0,0,0.049,0.005,-0.233,0,0,0.002,-3.402,33.481,-3.206,1.911,-0.222622,-0.007045
23:34:52:80238,0.00015708,-0.582015,1.18677,8.72665e-05,1.35193,-0.00010472,0,0,0,0,0,0,0.055,0.048,-0.346,0,0,0.003,-3.745,32.102,-2.359,2.422,-0.314207,0.043679
23:34:52:85364,0.00015708,-0.582015,1.18677,8.72665e-05,1.35193,-0.00010472,0,0,0,0,0,0,0.043,0.058,-0.267,0,0,0.002,-3.689,33.159,-2.982,3.276,-0.369158,0.102857
23:34:52:90376,0.00015708,-0.582015,1.18677,8.72665e-05,1.35193,-0.00010472,0,0,0,0,0,0,0.021,0.047,-0.111,0,0,0.001,-3.787,32.06,-2.744,2.576,-0.288845,0.08454
23:34:52:95313,0.00015708,-0.582015,1.18677,8.72665e-05,1.35193,-0.00010472,0,0,0,0,0,0,0.008,0.03,-0.072,0,0,0,-3.598,31.738,-3.143,2.723,-0.346614,0.066223
23:34:52:100484,0.00015708,-0.582015,1.18677,8.72665e-05,1.35193,-0.00010472,0,0,0,0,0,0,-0.003,0.005,-0.088,0,0,0,-3.717,32.137,-3.297,3.038,-0.322661,0.059178
23:34:52:105491,0.00015708,-0.582015,1.18677,8.72665e-05,1.35193,-0.00010472,0,0,0,0,0,0,0,-0.006,-0.088,0,0,0,-3.584,32.809,-3.57,3.171,-0.26771,-0.021135
23:34:52:110639,0.00015708,-0.582015,1.18677,8.72665e-05,1.35193,-0.00010472,0,0,0,0,0,0,0.018,-0.011,-0.019,0,0,0,-3.717,32.578,-3.143,3.129,-0.308571,0.073268
23:34:52:115625,0.00015708,-0.582015,1.18677,8.72665e-05,1.35193,-0.00010472,0,0,0,0,0,0,0.03,-0.007,0.089,0,0,0,-3.92,32.34,-3.479,3.066,-0.329706,-0.02818
23:34:52:120732,0.00015708,-0.582015,1.18677,8.72665e-05,1.35193,-0.00010472,0,0,0,0,0,0,0.018,-0.005,0.12,0,0,-0.001,-4.046,32.34,-2.835,2.023,-0.226849,0.102857
23:34:52:125713,0.00015708,-0.582015,1.18677,8.72665e-05,1.35193,-0.00010472,0,0,0,0,0,0,-0.018,0,0.001,0,0,0,-3.759,32.844,-2.786,2.856,-0.369158,0.029589
23:34:52:130700,0.00015708,-0.582015,1.18677,8.72665e-05,1.35193,-0.00010472,0,0,0,0,0,0,-0.036,0.018,-0.184,0,0,0.001,-3.395,32.529,-2.513,2.968,-0.26771,0.059178
23:34:52:135858,0.00015708,-0.582015,1.18677,8.72665e-05,1.35193,-0.00010472,0,0,0,0,0,0,-0.028,0.067,-0.449,0,0,0.003,-3.745,33.075,-2.996,2.87,-0.307162,-0.118356
23:34:52:140984,0.00015708,-0.582015,1.18677,8.72665e-05,1.35193,-0.00010472,0,0,0,0,0,0,-0.008,0.085,-0.484,0,0,0.004,-3.514,32.613,-2.947,2.184,-0.328297,0.047906
23:34:52:145985,0.00015708,-0.582015,1.18677,8.72665e-05,1.35193,-0.00010472,0,0,0,0,0,0,0.017,0.042,-0.269,0,0,0.002,-3.731,32.221,-3.178,2.884,-0.242348,0.061996
23:34:52:150931,0.00015708,-0.582015,1.18677,8.72665e-05,1.35193,-0.00010472,0,0,0,0,0,0,0.024,-0.017,-0.041,0,0,0.001,-4.032,32.452,-3.087,2.905,-0.264892,0.050724
23:34:52:156105,0.00015708,-0.582015,1.18677,8.72665e-05,1.35193,-0.00010472,0,0,0,0,0,0,0.029,-0.074,0.209,0,0,-0.001,-3.731,32.459,-3.598,2.499,-0.418473,-0.07045
23:34:52:161053,0.00015708,-0.582015,1.18677,8.72665e-05,1.35193,-0.00010472,0,0,0,0,0,0,0.026,-0.063,0.249,0,0,-0.001,-3.857,33.075,-2.905,2.149,-0.260665,0.029589
23:34:52:166235,0.00015708,-0.582015,1.18677,8.72665e-05,1.35193,-0.00010472,0,0,0,0,0,0,0.003,-0.008,0.119,0,0,0,-3.815,33.124,-3.017,3.157,-0.460743,0.061996
23:34:52:171252,0.00015708,-0.582015,1.18677,8.72665e-05,1.35193,-0.00010472,0,0,0,0,0,0,-0.019,0.012,-0.046,0,0,0,-3.759,32.039,-3.997,2.562,-0.435381,0.07045
23:34:52:176357,0.00015708,-0.582015,1.18677,8.72665e-05,1.35193,-0.00010472,0,0,0,0,0,0,-0.043,-0.003,-0.285,0,0,0.002,-3.934,32.592,-3.92,2.31,-0.335342,0.007045
23:34:52:181357,0.00015708,-0.582015,1.18677,8.72665e-05,1.35193,-0.00010472,0,0,0,0,0,0,-0.043,-0.024,-0.36,0,0,0.002,-3.731,32.536,-3.479,2.128,-0.288845,0.021135
23:34:52:186479,0.00015708,-0.582015,1.18677,8.72665e-05,1.35193,-0.00010472,0,0,0,0,0,0,-0.028,-0.032,-0.313,0,0,0.003,-3.633,31.003,-2.359,2.59,-0.353659,0.073268
23:34:52:191484,0.00015708,-0.582015,1.18677,8.72665e-05,1.35193,-0.00010472,0,0,0,0,0,0,-0.013,-0.019,-0.24,0,0,0.002,-4.109,31.514,-2.387,3.451,-0.329706,0.061996
23:34:52:196480,0.00015708,-0.582015,1.18677,8.72665e-05,1.35193,-0.00010472,0,0,0,0,0,0,0.013,0.008,-0.198,0,0,0.002,-4.137,32.326,-2.821,2.702,-0.346614,0.021135
23:34:52:201607,0.00015708,-0.582015,1.18677,8.72665e-05,1.35193,-0.00010472,0,0,0,0,0,0,0.032,0.02,-0.247,0,0,0.002,-3.661,32.172,-3.136,2.373,-0.288845,-0.036634
23:34:52:206629,0.00015708,-0.582015,1.18677,8.72665e-05,1.35193,-0.00010472,0,0,0,0,0,0,0.03,0.008,-0.252,0,0,0.002,-3.99,31.899,-4.263,2.723,-0.373385,0.025362
23:34:52:211751,0.00015708,-0.582015,1.18677,8.72665e-05,1.35193,-0.00010472,0,0,0,0,0,0,0.005,-0.032,-0.143,0,0,0.001,-4.137,32.368,-3.724,2.576,-0.304344,0.129628
23:34:52:216728,0.00015708,-0.582015,1.18677,8.72665e-05,1.35193,-0.00010472,0,0,0,0,0,0,-0.01,-0.055,-0.041,0,0,0,-3.717,32.368,-3.052,2.835,-0.26771,0.043679
23:34:52:221709,0.00015708,-0.582015,1.18677,8.72665e-05,1.35193,-0.00010472,0,0,0,0,0,0,-0.002,-0.052,-0.008,0,0,0,-3.661,32.452,-3.731,2.555,-0.252211,0.029589
23:34:52:226874,0.00015708,-0.582015,1.18677,8.72665e-05,1.35193,-0.00010472,0,0,0,0,0,0,0.019,-0.025,-0.093,0,0,0.001,-3.934,32.354,-2.947,2.576,-0.329706,0.07045
23:34:52:231856,0.00015708,-0.582015,1.18677,8.72665e-05,1.35193,-0.00010472,0,0,0,0,0,0,0.038,0.016,-0.228,0,0,0.002,-3.787,33.53,-2.8,2.667,-0.332524,0.021135
23:34:52:236980,0.00015708,-0.582015,1.18677,8.72665e-05,1.35193,-0.00010472,0,0,0,0,0,0,0.021,0.025,-0.214,0,0,0.002,-3.843,32.417,-3.066,2.674,-0.257847,0.07045
23:34:52:241999,0.00015708,-0.582015,1.18677,8.72665e-05,1.35193,-0.00010472,0,0,0,0,0,0,-0.037,0.007,-0.041,0,0,0,-3.773,32.172,-3.514,2.653,-0.226849,0.054951
23:34:52:247121,0.00015708,-0.582015,1.18677,8.72665e-05,1.35193,-0.00010472,0,0,0,0,0,0,-0.071,-0.008,0.061,0,0,0,-3.976,32.725,-2.59,2.149,-0.364931,0.073268
23:34:52:252120,0.00015708,-0.582015,1.18677,8.72665e-05,1.35193,-0.00010472,0,0,0,0,0,0,-0.081,-0.012,0.048,-0.001,0,0,-3.934,32.13,-3.031,2.982,-0.294481,0.054951
23:34:52:257242,0.00015708,-0.582015,1.18677,8.72665e-05,1.35193,-0.00010472,0,0,0,0,0,0,-0.058,0,-0.045,0,0,0.001,-3.703,31.976,-3.262,3.269,-0.298708,-0.002818
23:34:52:262195,0.00015708,-0.582015,1.18677,8.72665e-05,1.35193,-0.00010472,0,0,0,0,0,0,-0.005,0.019,-0.153,0,0,0.002,-3.843,32.578,-3.108,2.52,-0.269119,0.039452
23:34:52:267244,0.00015708,-0.582015,1.18677,8.72665e-05,1.35193,-0.00010472,0,0,0,0,0,0,0.024,0.024,-0.158,0,0,0.002,-3.689,32.522,-3.563,2.737,-0.326888,-0.061996
23:34:52:272314,0.00015708,-0.582015,1.18677,8.72665e-05,1.35193,-0.00010472,0,0,0,0,0,0,0.041,0.015,-0.112,0,0,0.001,-3.815,32.886,-2.051,2.793,-0.348023,-0.021135
23:34:52:277491,0.00015708,-0.582015,1.18677,8.72665e-05,1.35193,-0.00010472,0,0,0,0,0,0,0.035,0.001,-0.077,0,0,0.001,-4.06,32.452,-3.92,2.968,-0.349432,0.036634
23:34:52:282495,0.00015708,-0.582015,1.18677,8.72665e-05,1.35193,-0.00010472,0,0,0,0,0,0,0.015,-0.022,0.002,0,0,0,-3.402,32.361,-2.975,2.877,-0.262074,0.036634
23:34:52:287505,0.00015708,-0.582015,1.18677,8.72665e-05,1.35193,-0.00010472,0,0,0,0,0,0,0.006,-0.036,0.082,0,0,0,-3.598,32.256,-3.213,2.8,-0.202896,0.054951
23:34:52:292619,0.00015708,-0.582015,1.18677,8.72665e-05,1.35193,-0.00010472,0,0,0,0,0,0,0.009,-0.046,0.156,0,0,-0.001,-3.626,32.69,-3.164,3.038,-0.319843,0.102857
23:34:52:297555,0.00015708,-0.582015,1.18677,8.72665e-05,1.35193,-0.00010472,0,0,0,0,0,0,0.023,-0.039,0.111,0,0,0,-4.221,32.795,-3.409,2.702,-0.305753,0.025362
23:34:52:302745,0.00015708,-0.582015,1.18677,8.72665e-05,1.35193,-0.00010472,0,0,0,0,0,0,0.043,-0.016,-0.06,0,-0.001,0.001,-4.032,32.753,-2.779,2.394,-0.373385,0.036634
23:34:52:307739,0.00015708,-0.582015,1.18677,8.72665e-05,1.35193,-0.00010472,0,0,0,0,0,0,0.043,0.001,-0.151,0,0,0.002,-3.878,32.9,-3.374,2.737,-0.264892,0.032407
23:34:52:312857,0.00015708,-0.582015,1.18677,8.72665e-05,1.35193,-0.00010472,0,0,0,0,0,0,0.025,0.003,-0.104,0,0,0.002,-3.612,32.13,-3.297,2.786,-0.286027,0.066223
23:34:52:317870,0.00015708,-0.582015,1.18677,8.72665e-05,1.35193,-0.00010472,0,0,0,0,0,0,-0.017,-0.004,0.02,0,0,0,-4.522,32.263,-3.528,2.59,-0.371976,0.01409
23:34:52:323391,0.00015708,-0.582015,1.18677,8.72665e-05,1.35193,-0.00010472,0,0,0,0,0,0,-0.038,-0.01,0.051,0,0,0,-3.92,33.026,-3.514,2.555,-0.266301,0.095812
23:34:52:327923,0.00015708,-0.582015,1.18677,8.72665e-05,1.35193,-0.00010472,0,0,0,0,0,0,-0.034,-0.017,0.001,0,0,0,-3.906,32.291,-2.52,3.703,-0.288845,0.036634
23:34:52:332941,0.00015708,-0.582015,1.18677,8.72665e-05,1.35193,-0.00010472,0,0,0,0,0,0,-0.01,-0.021,-0.031,-0.001,0,0,-4.046,33.355,-2.471,2.968,-0.314207,0.066223
23:34:52:338119,0.00015708,-0.582015,1.18677,8.72665e-05,1.35193,-0.00010472,0,0,0,0,0,0,0.025,-0.028,0.002,-0.001,0,0,-3.976,32.011,-2.821,2.996,-0.249393,-0.007045
23:34:52:343065,0.00015708,-0.582015,1.18677,8.72665e-05,1.35193,-0.00010472,0,0,0,0,0,0,0.034,-0.031,0.066,0,0,0,-3.962,33.026,-2.324,2.45,-0.321252,0.118356
23:34:52:348242,0.00015708,-0.582015,1.18677,8.72665e-05,1.35193,-0.00010472,0,0,0,0,0,0,0.029,-0.033,0.146,0,0,0,-3.787,31.745,-3.514,2.905,-0.263483,-0.077495
23:34:52:353193,0.00015708,-0.582015,1.18677,8.72665e-05,1.35193,-0.00010472,0,0,0,0,0,0,0.022,-0.035,0.153,0,0,0,-3.934,32.095,-3.458,2.583,-0.356477,0.091585
23:34:52:358368,0.00015708,-0.582015,1.18677,8.72665e-05,1.35193,-0.00010472,0,0,0,0,0,0,0.019,-0.034,0.072,0,0,0,-3.857,32.186,-3.248,2.632,-0.262074,-0.029589
23:34:52:363354,0.00015708,-0.582015,1.18677,8.72665e-05,1.35193,-0.00010472,0,0,0,0,0,0,0.027,-0.026,-0.037,0,0,0.001,-4.018,32.459,-3.171,2.94,-0.271937,-0.054951
23:34:52:368497,0.00015708,-0.582015,1.18677,8.72665e-05,1.35193,-0.00010472,0,0,0,0,0,0,0.049,-0.009,-0.204,0,0,0.002,-3.745,32.921,-3.262,2.24,-0.288845,0.02818
23:34:52:373479,0.00015708,-0.582015,1.18677,8.72665e-05,1.35193,-0.00010472,0,0,0,0,0,0,0.053,-0.002,-0.235,0,0,0.002,-3.689,32.641,-3.64,2.884,-0.249393,0.039452
23:34:52:378633,0.00015708,-0.582015,1.18677,8.72665e-05,1.35193,-0.00010472,0,0,0,0,0,0,0.022,-0.004,-0.12,0,0,0,-4.095,32.186,-2.898,2.968,-0.307162,0.01409
23:34:52:383579,0.00015708,-0.582015,1.18677,8.72665e-05,1.35193,-0.00010472,0,0,0,0,0,0,-0.011,-0.012,0,0,0,0,-4.326,33.243,-3.759,2.926,-0.266301,0.173307
23:34:52:388761,0.00015708,-0.582015,1.18677,8.72665e-05,1.35193,-0.00010472,0,0,0,0,0,0,-0.001,-0.013,-0.027,0,0,0,-3.556,32.228,-3.227,2.611,-0.288845,0.025362
23:34:52:393728,0.00015708,-0.582015,1.18677,8.72665e-05,1.35193,-0.00010472,0,0,0,0,0,0,0.05,-0.014,-0.164,0,0,0.002,-4.221,32.97,-3.297,2.646,-0.287436,0.043679
23:34:52:398726,0.00015708,-0.582015,1.18677,8.72665e-05,1.35193,-0.00010472,0,0,0,0,0,0,0.073,-0.022,-0.199,0,0,0.003,-3.01,32.851,-3.528,2.674,-0.362113,-0.032407
23:34:52:403852,0.00015708,-0.582015,1.18677,8.72665e-05,1.35193,-0.00010472,0,0,0,0,0,0,0.057,-0.045,-0.086,0,0,0.002,-3.829,32.459,-2.835,2.59,-0.278982,0.150763
23:34:52:408848,0.00015708,-0.582015,1.18677,8.72665e-05,1.35193,-0.00010472,0,0,0,0,0,0,0.031,-0.055,0.018,0,0,0.001,-4.179,32.578,-2.786,2.653,-0.357886,0.050724
23:34:52:413990,0.00015708,-0.582015,1.18677,8.72665e-05,1.35193,-0.00010472,0,0,0,0,0,0,0.012,-0.036,0.045,0,0,0,-3.906,31.955,-3.129,2.513,-0.4227,-0.009863
23:34:52:418923,0.00015708,-0.582015,1.18677,8.72665e-05,1.35193,-0.00010472,0,0,0,0,0,0,0.022,-0.002,-0.054,0,0,0,-3.556,32.76,-3.374,2.947,-0.304344,0.07045
23:34:52:424115,0.00015708,-0.582015,1.18677,8.72665e-05,1.35193,-0.00010472,0,0,0,0,0,0,0.052,0.045,-0.271,0,0,0.002,-3.514,32.067,-2.835,2.576,-0.25362,-0.009863
23:34:52:429066,0.00015708,-0.582015,1.18677,8.72665e-05,1.35193,-0.00010472,0,0,0,0,0,0,0.063,0.049,-0.355,0,0,0.003,-3.759,32.186,-4.102,2.646,-0.249393,-0.021135
23:34:52:434060,0.00015708,-0.582015,1.18677,8.72665e-05,1.35193,-0.00010472,0,0,0,0,0,0,0.035,-0.002,-0.282,0,0,0.002,-3.633,32.851,-3.171,2.52,-0.374794,0.073268
23:34:52:439219,0.00015708,-0.582015,1.18677,8.72665e-05,1.35193,-0.00010472,0,0,0,0,0,0,-0.01,-0.051,-0.132,0,0,0.001,-3.647,32.361,-3.066,2.352,-0.224031,0.114129
23:34:52:444184,0.00015708,-0.582015,1.18677,8.72665e-05,1.35193,-0.00010472,0,0,0,0,0,0,-0.074,-0.094,0.096,-0.001,0,0,-3.92,32.263,-2.947,2.632,-0.26771,0.184579
23:34:52:449360,0.00015708,-0.582015,1.18677,8.72665e-05,1.35193,-0.00010472,0,0,0,0,0,0,-0.086,-0.098,0.195,-0.001,0,0,-3.878,32.984,-3.801,2.422,-0.340978,0.032407
23:34:52:454301,0.00015708,-0.582015,1.18677,8.72665e-05,1.35193,-0.00010472,0,0,0,0,0,0,-0.05,-0.093,0.265,-0.001,0,-0.001,-4.095,32.69,-2.513,3.276,-0.35225,-0.043679
23:34:52:459360,0.00015708,-0.582015,1.18677,8.72665e-05,1.35193,-0.00010472,0,0,0,0,0,0,-0.008,-0.089,0.252,0,-0.001,-0.001,-3.717,32.081,-3.388,2.716,-0.328297,0.091585
23:34:52:464433,0.00015708,-0.582015,1.18677,8.72665e-05,1.35193,-0.00010472,0,0,0,0,0,0,0.04,-0.057,0.091,0,-0.001,0,-3.661,33.131,-3.423,3.136,-0.240939,0.121174
23:34:52:469421,0.00015708,-0.582015,1.18677,8.72665e-05,1.35193,-0.00010472,0,0,0,0,0,0,0.051,-0.014,-0.092,0,-0.001,0.001,-3.934,33.005,-2.982,2.352,-0.379021,0.177534
23:34:52:474616,0.00015708,-0.582015,1.18677,8.72665e-05,1.35193,-0.00010472,0,0,0,0,0,0,0.039,0.032,-0.304,0,0,0.002,-3.843,31.99,-2.975,2.744,-0.247984,0.018317
23:34:52:479562,0.00015708,-0.582015,1.18677,8.72665e-05,1.35193,-0.00010472,0,0,0,0,0,0,0.023,0.024,-0.318,0,0,0.003,-4.277,32.543,-2.555,2.926,-0.273346,0.136673
23:34:52:484724,0.00015708,-0.582015,1.18677,8.72665e-05,1.35193,-0.00010472,0,0,0,0,0,0,0.01,-0.038,-0.206,0,0,0.002,-4.06,32.347,-2.709,2.373,-0.142309,0.166262
23:34:52:489667,0.00015708,-0.582015,1.18677,8.72665e-05,1.35193,-0.00010472,0,0,0,0,0,0,0.011,-0.087,-0.126,0,0,0.001,-3.514,31.514,-2.94,2.03,-0.291663,0.047906
23:34:52:494862,0.00015708,-0.582015,1.18677,8.72665e-05,1.35193,-0.00010472,0,0,0,0,0,0,0.01,-0.088,-0.119,0,0,0.001,-3.5,32.739,-2.982,2.835,-0.312798,0
23:34:52:499845,0.00015708,-0.582015,1.18677,8.72665e-05,1.35193,-0.00010472,0,0,0,0,0,0,0.01,-0.06,-0.108,0,0,0.001,-3.878,32.97,-3.248,2.681,-0.249393,-0.021135
23:34:52:504970,0.00015708,-0.582015,1.18677,8.72665e-05,1.35193,-0.00010472,0,0,0,0,0,0,0.03,-0.036,-0.071,-0.001,0.002,0,-3.801,32.508,-2.807,2.786,-0.307162,0.077495
23:34:52:509975,0.00015708,-0.582015,1.18677,8.72665e-05,1.35193,-0.00010472,0,0,0,0,0,0,0.123,0.002,0.028,-0.003,0.008,0,-3.948,32.69,-2.702,2.996,-0.240939,-0.018317
23:34:52:515111,0.00015708,-0.582015,1.18677,8.72665e-05,1.35193,-0.00010472,0,0,0,0,0,0,0.227,0.036,0.107,-0.006,0.014,0,-4.263,32.984,-3.423,3.024,-0.32407,0.002818
23:34:52:520052,0.00015708,-0.582015,1.18677,8.72665e-05,1.35193,-0.00010472,0,0,0,0,0,0,0.407,0.113,0.141,-0.012,0.025,0,-3.892,32.529,-3.801,2.702,-0.294481,0.100039
23:34:52:525220,0.00015708,-0.582015,1.18677,8.72665e-05,1.35193,-0.00010472,0,0,0,0,0,0,0.527,0.19,0.035,-0.018,0.034,0.001,-4.032,32.62,-3.052,2.702,-0.367749,0.01409
23:34:52:530163,0.00015708,-0.582015,1.18677,8.72665e-05,1.35193,-0.00010472,0,0,0,0,0,0,0.706,0.337,-0.282,-0.026,0.047,0.003,-3.948,32.151,-3.213,2.191,-0.400156,0
23:34:52:535183,0.00015708,-0.582015,1.18679,8.72665e-05,1.35193,-0.00010472,0,0,0,0,0,0,0.824,0.432,-0.455,-0.032,0.055,0.004,-3.864,32.578,-2.625,3.094,-0.264892,0.002818
23:34:52:540358,0.00015708,-0.582015,1.18679,8.72665e-05,1.35193,-0.00010472,0,0,0,0,0,0,0.973,0.516,-0.447,-0.039,0.066,0.004,-3.647,32.774,-2.121,2.996,-0.284618,0.066223
23:34:52:545358,0.00015708,-0.582015,1.18679,8.72665e-05,1.35193,-0.00010472,0,0,0,0,0,0,1.039,0.525,-0.305,-0.043,0.073,0.003,-3.633,32.207,-2.163,2.926,-0.305753,0.077495
23:34:52:550471,0.00015708,-0.582015,1.18679,8.72665e-05,1.35193,-0.00010472,0,0,0,0,0,0,1.101,0.494,-0.143,-0.046,0.081,0.003,-3.934,33.152,-1.932,2.499,-0.23953,0.018317
23:34:52:555470,0.00015708,-0.582015,1.18679,8.72665e-05,1.35193,-0.00010472,0,0,0,0,0,0,1.132,0.461,-0.153,-0.046,0.083,0.004,-3.416,33.047,-1.463,2.219,-0.401565,0.02818
23:34:52:560430,0.00015708,-0.582015,1.18679,8.72665e-05,1.35193,-0.00010472,0,0,0.00167552,0,0,0,1.168,0.383,-0.255,-0.04,0.084,0.007,-3.542,33.985,-1.638,2.695,-0.298708,0.200078
23:34:52:565538,0.00015708,-0.581998,1.18681,8.72665e-05,1.35193,-0.00010472,0,0,0.00223402,0,0,0,1.176,0.303,-0.286,-0.035,0.082,0.008,-2.947,33.558,-1.162,3.08,-0.442426,0.021135
23:34:52:570590,0.00015708,-0.581998,1.18684,8.72665e-05,1.35191,-0.00010472,0,0,0.00574213,0,0,0,1.156,0.15,-0.23,-0.025,0.08,0.008,-3.122,34.811,-0.665,2.765,-0.401565,0.209941
23:34:52:575732,0.00015708,-0.58198,1.18689,8.72665e-05,1.3519,-0.00010472,0,0,0.00886627,0,-0.00293215,0,1.116,0.012,-0.141,-0.016,0.077,0.007,-3.01,33.733,-2.478,2.87,-0.411428,0.080313
23:34:52:580663,0.00015708,-0.58198,1.18698,8.72665e-05,1.35188,-0.00010472,0,0.00204204,0.0130202,0,-0.00364774,0,1.089,-0.047,-0.125,-0.01,0.075,0.008,-2.513,34.321,-1.946,2.947,-0.363522,0.073268
23:34:52:585861,0.00015708,-0.581945,1.18709,8.72665e-05,1.35184,-0.00010472,0,0.00385718,0.0180642,0,-0.00521853,0,1.031,-0.084,-0.186,-0.005,0.069,0.008,-2.786,34.461,-2.282,2.562,-0.294481,0.15499
23:34:52:590807,0.00015708,-0.58191,1.18721,8.72665e-05,1.35181,-8.72665e-05,0,0.00568977,0.021869,0,-0.00586431,0,0.957,-0.083,-0.246,-0.003,0.063,0.009,-2.513,34.307,-3.437,2.408,-0.308571,0.157808
23:34:52:595984,0.00015708,-0.581875,1.18735,8.72665e-05,1.35179,-8.72665e-05,0,0.00712094,0.0270177,0,-0.00464258,0,0.783,-0.067,-0.278,-0.003,0.052,0.008,-2.247,34.573,-3.927,2.765,-0.429745,0.170489
23:34:52:600924,0.00015708,-0.581823,1.18752,8.72665e-05,1.35176,-6.98132e-05,0,0.00827286,0.0305956,0,-0.00553269,0,0.653,-0.061,-0.241,-0.004,0.045,0.007,-2.282,33.943,-4.585,2.884,-0.404383,0.150763
23:34:52:606103,0.00015708,-0.581788,1.18768,8.72665e-05,1.35174,-6.98132e-05,0,0.00937242,0.0308923,0,-0.0047822,0,0.507,-0.074,-0.13,-0.004,0.036,0.005,-2.639,33.929,-5.18,2.352,-0.445244,0.269119
23:34:52:611101,0.00015708,-0.581736,1.1878,8.72665e-05,1.35171,-5.23599e-05,0,0.00935496,0.0275587,0,-0.00548033,0.00242601,0.448,-0.095,-0.04,-0.003,0.031,0.004,-2.261,33.936,-4.977,2.464,-0.467788,0.359295
23:34:52:616239,0.00015708,-0.581683,1.18789,8.72665e-05,1.35167,-5.23599e-05,0,0.0101229,0.0200364,0,-0.00731293,0,0.368,-0.12,0.077,-0.002,0.024,0.003,-2.422,34.734,-3.941,3.318,-0.52133,0.22544
23:34:52:621230,0.00015708,-0.581631,1.18794,8.72665e-05,1.35164,-3.49066e-05,0,0.0104894,0.0148877,0,-0.00715585,0.00286234,0.292,-0.117,0.111,-0.002,0.02,0.002,-2.331,34.657,-2.597,2.289,-0.529784,0.266301
23:34:52:626340,0.00015708,-0.581579,1.18798,8.72665e-05,1.3516,-1.74533e-05,0,0.0104371,0.0106465,0,-0.00659734,0.00277507,0.159,-0.086,0.056,-0.002,0.013,0.002,-2.114,34.797,-1.729,2.52,-0.487514,0.250802
23:34:52:631357,0.00015708,-0.581526,1.18803,8.72665e-05,1.35157,-1.74533e-05,0,0.0106989,0.00886627,0,-0.00794125,0.00240855,0.084,-0.064,-0.009,-0.002,0.008,0.002,-2.044,34.902,-0.994,3.227,-0.580508,0.302935
23:34:52:636364,0.00015708,-0.581474,1.18806,8.72665e-05,1.35153,0,0,0.0106291,0.00788889,0,-0.00736529,0,0.013,-0.047,-0.04,-0.002,0.001,0.001,-1.764,34.902,-0.378,2.765,-0.548101,0.215577
23:34:52:641462,0.00015708,-0.581404,1.18812,8.72665e-05,1.3515,0,0,0.0118682,0.00954695,0,-0.00829031,0,-0.012,-0.039,-0.008,-0.002,0,0,-2.422,34.405,-0.168,2.905,-0.570645,0.201487
23:34:52:646410,0.00015708,-0.581334,1.18817,8.72665e-05,1.35144,0,0,0.0133692,0.0111177,0,-0.0079587,0,-0.041,-0.011,0,-0.001,-0.001,0,-1.575,34.944,0.441,2.625,-0.486105,0.277573
23:34:52:651597,0.00015708,-0.581264,1.18826,8.72665e-05,1.35141,1.74533e-05,0,0.0139975,0.0130725,0,-0.00774926,0,-0.062,0.039,-0.125,-0.001,0,0.001,-1.736,33.656,-0.301,2.723,-0.441017,0.283209
23:34:52:656566,0.00015708,-0.581195,1.18832,8.72665e-05,1.35136,1.74533e-05,0,0.0142942,0.0148353,0,-0.00808087,0,-0.064,0.071,-0.238,-0.001,0,0.002,-1.106,33.936,-0.49,3.311,-0.524148,0.208532
23:34:52:661584,0.00015708,-0.581107,1.18839,8.72665e-05,1.35132,3.49066e-05,0,0.0139626,0.0154636,0,-0.00858702,0.00333358,-0.02,0.078,-0.298,-0.001,0,0.003,-2.044,33.67,0.133,2.576,-0.50724,0.259256
23:34:52:666726,0.00015708,-0.581038,1.18846,8.72665e-05,1.35129,5.23599e-05,0,0.0141372,0.0140674,0,-0.00893609,0.00261799,0.038,0.044,-0.22,-0.001,0,0.002,-0.798,33.614,-0.189,2.261,-0.514285,0.249393
23:34:52:671851,0.00015708,-0.580985,1.18853,8.72665e-05,1.35123,6.98132e-05,0,0.0133692,0.0125664,0,-0.00998328,0.00335103,0.126,-0.038,0,0,0.002,0.001,-1.064,34.041,0.84,2.282,-0.441017,0.232485
23:34:52:676779,0.00015708,-0.580915,1.18859,8.72665e-05,1.35118,8.72665e-05,0,0.0133343,0.0111701,0,-0.0106291,0.0039619,0.144,-0.079,0.115,0,0.003,0,-1.309,33.565,1.183,2.653,-0.539647,0.226849
23:34:52:681779,0.00015708,-0.580846,1.18864,8.72665e-05,1.35113,0.00010472,0,0.0141721,0.0119206,0,-0.010821,0.00270526,0.09,-0.084,0.134,0.001,0.004,0,-1.358,33.614,0.427,2.744,-0.421291,0.21135
23:34:52:686977,0.00015708,-0.580758,1.18871,8.72665e-05,1.35108,0.000122173,0,0.015324,0.0127409,0,-0.00966912,0.00389208,0.032,-0.062,0.076,0.002,0.003,0,-1.155,33.166,1.043,2.289,-0.332524,0.142309
23:34:52:691981,0.00015708,-0.580688,1.18878,8.72665e-05,1.35104,0.000139626,0,0.0165457,0.0137881,0,-0.00891863,0.0029147,-0.012,-0.048,-0.007,0.003,0.001,0.001,-1.169,32.501,1.414,2.59,-0.308571,0.184579
23:34:52:697104,0.00015708,-0.580584,1.18887,8.72665e-05,1.35099,0.00015708,0,0.0172788,0.0155858,0,-0.00942478,0.00383972,0.002,-0.076,-0.048,0.004,0.001,0.002,-1.092,31.969,0.091,2.464,-0.432563,0.198669
23:34:52:702103,0.000174533,-0.580496,1.18895,8.72665e-05,1.35094,0.000174533,0,0.0179594,0.0174358,0,-0.00989602,0.00272271,0.062,-0.164,-0.105,0.007,0.002,0.003,-0.826,32.018,0.28,2.744,-0.432563,0.162035
23:34:52:707213,0.000174533,-0.580409,1.18906,8.72665e-05,1.3509,0.000191986,0,0.0174707,0.0195128,0,-0.00799361,0.00354302,0.101,-0.226,-0.113,0.009,0.003,0.003,-1.162,32.025,0.028,2.814,-0.308571,0.215577
23:34:52:712208,0.000174533,-0.580339,1.18918,8.72665e-05,1.35087,0.000191986,0,0.0157429,0.0227067,0,-0.00692896,0.00247837,0.143,-0.269,-0.008,0.011,0.006,0.002,-0.497,31.871,-1.904,2.702,-0.480469,0.109902
23:34:52:717334,0.000174533,-0.58027,1.18934,8.72665e-05,1.35082,0.000226893,0,0.0146782,0.0256214,0,-0.00865683,0.00329867,0.165,-0.257,0.107,0.011,0.006,0.001,-0.35,32.095,-2.254,3.115,-0.402974,0.249393
23:34:52:722351,0.000174533,-0.5802,1.18949,8.72665e-05,1.35076,0.000226893,0,0.0141197,0.0292343,0,-0.00966912,0.00244346,0.192,-0.224,0.197,0.011,0.007,0.001,-0.882,31.612,-3.248,2.8,-0.336751,0.190215
23:34:52:727350,0.000174533,-0.58013,1.18965,8.72665e-05,1.35071,0.000244346,0,0.013439,0.0321315,0,-0.0112225,0.0034383,0.196,-0.228,0.163,0.012,0.008,0.002,-0.868,31.619,-3.976,2.737,-0.307162,0.166262
23:34:52:732440,0.000174533,-0.58006,1.18981,8.72665e-05,1.35064,0.000261799,0,0.0136485,0.0305258,0,-0.0105418,0.00244346,0.181,-0.274,0.043,0.014,0.009,0.004,-0.868,31.724,-4.48,3.29,-0.357886,0.247984
23:34:52:737616,0.000174533,-0.57999,1.18993,8.72665e-05,1.35061,0.000279253,0,0.0139801,0.0265639,0,-0.0097913,0,0.169,-0.294,-0.075,0.017,0.01,0.006,-0.567,31.437,-4.263,2.8,-0.087358,0.153581
23:34:52:742528,0.000174533,-0.579938,1.19002,8.72665e-05,1.35055,0.000296706,0,0.0127758,0.0206822,0,-0.01028,0.00308923,0.18,-0.274,-0.149,0.017,0.011,0.006,-0.308,31.941,-3.052,2.499,-0.381839,0.125401
23:34:52:747616,0.000174533,-0.579886,1.19007,8.72665e-05,1.3505,0.000296706,0,0.011013,0.0144513,0,-0.00935496,0.00260054,0.206,-0.244,-0.235,0.017,0.011,0.006,-0.147,32.011,-1.953,2.079,-0.15499,0.12681
23:34:52:752719,0.000174533,-0.579833,1.19012,8.72665e-05,1.35047,0.000314159,0,0.00883137,0.0111352,0,-0.00726057,0.00274017,0.212,-0.259,-0.244,0.017,0.011,0.005,-0.266,32.032,-1.596,2.968,-0.11272,0.202896
23:34:52:757721,0.000174533,-0.579816,1.19016,8.72665e-05,1.35043,0.000314159,0,0.00804597,0.00897099,0,-0.00752237,0,0.204,-0.328,-0.195,0.017,0.011,0.005,-0.777,32.389,-1.351,2.583,-0.178943,0.15499
23:34:52:762846,0.000174533,-0.579763,1.19021,8.72665e-05,1.35038,0.000331613,0,0.00794125,0.00991347,0,-0.00912807,0,0.204,-0.369,-0.159,0.019,0.011,0.005,-0.315,32.081,-0.917,2.59,-0.139491,0.046497
23:34:52:767847,0.000174533,-0.579729,1.19026,8.72665e-05,1.35034,0.000331613,0,0.00752237,0.0110828,0,-0.0074351,0,0.212,-0.389,-0.118,0.021,0.011,0.005,-0.196,33.152,-0.476,3.479,-0.108493,0.074677
23:34:52:772844,0.000174533,-0.579694,1.19033,8.72665e-05,1.35031,0.000349066,0,0.00773181,0.0131598,0,-0.00640536,0.0021293,0.203,-0.384,-0.074,0.021,0.012,0.005,-0.294,32.032,-1.435,2.625,-0.080313,0.142309
23:34:52:777971,0.000174533,-0.579659,1.19042,8.72665e-05,1.35029,0.000349066,0,0.00694641,0.0154636,0,-0.00607375,0,0.164,-0.377,0.021,0.021,0.011,0.005,-0.539,32.403,-1.855,2.681,-0.257847,0.019726
23:34:52:782976,0.000174533,-0.579624,1.19052,8.72665e-05,1.35026,0.000349066,0,0.0074002,0.0169122,0,-0.00610865,0,0.151,-0.378,0.069,0.02,0.011,0.004,-0.42,32.627,-1.61,2.695,-0.280391,0.054951
23:34:52:788107,0.000174533,-0.579589,1.19061,8.72665e-05,1.35022,0.000349066,0,0.00748746,0.018326,0,-0.00614356,0,0.194,-0.386,0.107,0.02,0.01,0.004,-0.273,32.256,-1.498,2.793,-0.209941,0.073268
23:34:52:793043,0.000174533,-0.579537,1.19072,8.72665e-05,1.35019,0.000349066,0,0.00760964,0.0190415,0,-0.00668461,0,0.248,-0.401,0.154,0.02,0.011,0.003,-0.063,32.263,-3.185,2.681,-0.224031,0.083131
23:34:52:798231,0.000174533,-0.579484,1.19082,8.72665e-05,1.35017,0.000349066,0,0.00825541,0.018675,0,-0.00675442,0,0.309,-0.442,0.288,0.021,0.012,0.002,-1.008,32.494,-2.695,2.24,-0.245166,0.02818
23:34:52:803164,0.000174533,-0.579449,1.19091,8.72665e-05,1.35013,0.000349066,0,0.00942478,0.0199491,0,-0.00521853,0,0.32,-0.465,0.344,0.021,0.013,0.002,-0.434,32.48,-2.457,2.891,-0.166262,-0.022544
23:34:52:808325,0.000174533,-0.579397,1.19101,8.72665e-05,1.35012,0.000349066,0,0.00923279,0.0206472,0,-0.00575959,0,0.308,-0.45,0.237,0.02,0.015,0.003,-0.602,32.424,-2.702,2.107,-0.174716,0.022544
23:34:52:813273,0.000174533,-0.579362,1.19113,8.72665e-05,1.35008,0.000349066,0,0.00928515,0.0224624,0,-0.00581195,0,0.284,-0.402,0.071,0.019,0.015,0.004,-0.679,32.494,-3.185,3.318,-0.240939,-0.004227
23:34:52:818329,0.000174533,-0.57931,1.19126,8.72665e-05,1.35003,0.000349066,0,0.00897099,0.0240681,0,-0.00752237,0,0.223,-0.321,-0.096,0.017,0.014,0.005,-0.938,32.41,-3.668,2.261,-0.302935,0.085949
23:34:52:823419,0.000174533,-0.579257,1.1914,8.72665e-05,1.35001,0.000349066,0,0.00980875,0.0240681,0,-0.00546288,0,0.18,-0.295,-0.089,0.016,0.013,0.004,-0.329,32.165,-4.921,2.723,-0.26771,0.102857
23:34:52:828592,0.000174533,-0.579205,1.19152,8.72665e-05,1.34998,0.000349066,0,0.0101578,0.0241205,0,-0.00595157,0,0.168,-0.306,-0.031,0.015,0.014,0.003,-0.882,31.927,-5.229,2.499,-0.212759,-0.005636
23:34:52:833581,0.000174533,-0.579153,1.19164,8.72665e-05,1.34996,0.000349066,0,0.00935496,0.0234398,0,-0.00490437,0,0.21,-0.324,-0.059,0.015,0.015,0.003,-1.022,32.55,-4.802,1.834,-0.226849,0.012681
23:34:52:838580,0.000174533,-0.5791,1.19175,8.72665e-05,1.34994,0.000349066,0,0.00965167,0.0216421,0,-0.0042586,0,0.305,-0.325,-0.163,0.015,0.016,0.004,-1.484,32.781,-4.767,2.478,-0.181761,0.038043
23:34:52:843671,0.000174533,-0.579065,1.19182,8.72665e-05,1.34991,0.000349066,0,0.00879646,0.0178722,0,-0.00525344,0,0.356,-0.292,-0.161,0.015,0.017,0.004,-0.763,32.536,-4.326,2.597,-0.266301,-0.008454
23:34:52:848704,0.000174533,-0.579048,1.19187,8.72665e-05,1.34989,0.000349066,0,0.00656244,0.0141372,0,-0.00439823,0,0.348,-0.267,-0.097,0.014,0.017,0.003,-1.204,33.243,-3.815,2.401,-0.184579,0.026771
23:34:52:853844,0.000174533,-0.579013,1.1919,8.72665e-05,1.34986,0.000349066,0,0.00652753,0.00966912,0,-0.00548033,0,0.305,-0.245,-0.038,0.013,0.018,0.002,-1.288,33.166,-2.513,2.863,-0.19726,0.018317
23:34:52:858840,0.000174533,-0.578978,1.19192,8.72665e-05,1.34982,0.000349066,0,0.00589921,0.00534071,0,-0.00612611,0,0.286,-0.254,-0.055,0.012,0.019,0.002,-1.442,33.502,-1.638,2.66,-0.224031,-0.05636
23:34:52:863968,0.000174533,-0.578961,1.19194,8.72665e-05,1.34979,0.000349066,0,0.00548033,0.0044855,0,-0.00666716,0,0.298,-0.299,-0.1,0.012,0.021,0.002,-1.449,33.719,-0.98,2.177,-0.247984,-0.038043
23:34:52:868968,0.000174533,-0.578926,1.19196,8.72665e-05,1.34977,0.000349066,0,0.00670206,0.00342085,0,-0.00694641,0,0.332,-0.326,-0.13,0.012,0.022,0.002,-1.379,33.649,-0.525,1.946,-0.229667,-0.088767
23:34:52:873921,0.000174533,-0.578873,1.19197,8.72665e-05,1.34973,0.000349066,0,0.00802851,0.00457276,0,-0.00678933,0,0.396,-0.311,-0.253,0.013,0.022,0.002,-1.484,33.39,-0.476,2.842,-0.170489,-0.07045
23:34:52:879093,0.000174533,-0.578821,1.19201,8.72665e-05,1.3497,0.000349066,0,0.00938987,0.00593412,0,-0.00666716,0,0.432,-0.263,-0.396,0.013,0.022,0.003,-1.708,32.977,-0.308,2.66,-0.198669,-0.046497
23:34:52:884042,0.000174533,-0.578769,1.19204,8.72665e-05,1.34966,0.000349066,0,0.00944223,0.00685914,0,-0.00670206,0,0.469,-0.204,-0.532,0.013,0.023,0.005,-1.519,33.173,0.133,3.241,-0.181761,-0.025362
23:34:52:889201,0.000174533,-0.578734,1.19209,8.72665e-05,1.34965,0.000349066,0,0.00923279,0.00799361,0,-0.00507891,0,0.492,-0.212,-0.476,0.013,0.024,0.005,-2.527,33.131,0.147,2.751,-0.250802,-0.08454
23:34:52:894216,0.000174533,-0.578681,1.19215,8.72665e-05,1.34961,0.000331613,0,0.0101753,0.00944223,0,-0.00555015,0,0.543,-0.276,-0.237,0.014,0.027,0.004,-2.044,33.117,0.287,2.723,-0.22544,-0.162035
23:34:52:899341,0.000174533,-0.578612,1.1922,8.72665e-05,1.34958,0.000331613,0,0.0103323,0.00923279,0,-0.00560251,0,0.587,-0.311,-0.104,0.015,0.029,0.003,-2.338,32.935,0.518,2.772,-0.305753,-0.104266
23:34:52:904338,0.000174533,-0.578559,1.19223,8.72665e-05,1.34954,0.000331613,0,0.0120079,0.00825541,0,-0.00722566,0,0.649,-0.326,-0.039,0.016,0.031,0.002,-2.485,32.837,0.448,2.723,-0.205714,-0.171898
23:34:52:909448,0.000174533,-0.578489,1.19227,8.72665e-05,1.34951,0.000331613,0,0.0123569,0.00825541,0,-0.00689405,0,0.677,-0.333,-0.04,0.016,0.033,0.002,-2.205,32.522,1.358,2.674,-0.250802,-0.043679
23:34:52:914450,0.000174533,-0.578437,1.19232,8.72665e-05,1.34949,0.000314159,0,0.0110305,0.00958186,0,-0.00640536,0,0.689,-0.373,-0.031,0.018,0.036,0.002,-2.422,32.592,1.589,2.478,-0.291663,-0.107084
23:34:52:919595,0.000174533,-0.578385,1.19239,8.72665e-05,1.34944,0.000296706,0,0.0113446,0.0100007,0,-0.00741765,0,0.672,-0.415,-0.044,0.019,0.037,0.001,-2.821,33.082,1.505,2.842,-0.277573,-0.180352
23:34:52:924586,0.000174533,-0.578332,1.19246,8.72665e-05,1.3494,0.000296706,0,0.0107687,0.0116239,0,-0.00804597,-0.00233874,0.66,-0.418,-0.087,0.019,0.038,0.001,-2.59,32.536,2.072,1.911,-0.369158,-0.21135
23:34:52:929699,0.000174533,-0.57828,1.19253,8.72665e-05,1.34937,0.000279253,0,0.0111527,0.0148004,0,-0.00734784,-0.00228638,0.678,-0.4,-0.187,0.019,0.04,0.001,-2.898,33.145,0.798,3.017,-0.270528,-0.107084
23:34:52:934715,0.000174533,-0.57821,1.19264,8.72665e-05,1.34933,0.000279253,0,0.0117635,0.0179594,0,-0.00689405,-0.00221657,0.72,-0.395,-0.251,0.019,0.041,0.002,-3.22,32.697,1.001,2.352,-0.215577,-0.108493
23:34:52:939838,0.000174533,-0.578158,1.19276,8.72665e-05,1.3493,0.000261799,0,0.0118333,0.0202807,0,-0.0066497,0,0.802,-0.409,-0.289,0.017,0.044,0.002,-2.814,33.341,0.714,2.877,-0.181761,-0.07045
23:34:52:944837,0.000174533,-0.578088,1.19286,8.72665e-05,1.34926,0.000244346,0,0.0133518,0.022986,0,-0.00602139,-0.0029147,0.851,-0.418,-0.243,0.016,0.047,0.002,-3.115,33.061,0.882,2.681,-0.226849,-0.129628
23:34:52:949967,0.000174533,-0.578018,1.19302,8.72665e-05,1.34924,0.00020944,0,0.0136659,0.0257262,0,-0.00568977,-0.0050091,0.912,-0.414,-0.066,0.014,0.049,0.001,-3.185,32.34,-0.343,3.087,-0.277573,-0.063405
23:34:52:954948,0.00015708,-0.577931,1.19318,8.72665e-05,1.34919,0.000191986,0,0.0148353,0.0282743,0,-0.0055676,-0.00506145,0.95,-0.404,0.071,0.012,0.051,0,-3.731,32.2,-0.833,2.702,-0.311389,-0.142309
23:34:52:959965,0.00015708,-0.577861,1.19333,8.72665e-05,1.34916,0.000174533,0,0.0153764,0.0315032,0,-0.00705113,-0.00514872,0.983,-0.388,0.182,0.008,0.053,0,-3.451,31.248,-2.016,2.814,-0.398747,-0.152172
23:34:52:965089,0.00015708,-0.577791,1.19353,8.72665e-05,1.34912,0.00015708,0,0.0137706,0.0350113,0,-0.0082205,-0.00328122,0.974,-0.374,0.162,0.006,0.054,0,-3.465,33.222,-2.961,2.352,-0.364931,-0.218395
23:34:52:970084,0.00015708,-0.577721,1.19372,8.72665e-05,1.34909,0.000139626,0,0.0127584,0.0372279,0,-0.00855211,-0.00363028,0.924,-0.339,0.049,0.002,0.056,0,-4.032,33.999,-3.479,2.499,-0.278982,-0.12681
23:34:52:975214,0.00015708,-0.577669,1.19391,8.72665e-05,1.34905,0.000122173,0,0.0114843,0.0365297,0,-0.00720821,-0.00411898,0.896,-0.305,-0.002,0,0.056,0,-4.158,33.012,-4.032,2.597,-0.36634,-0.094403
23:34:52:980219,0.00015708,-0.577634,1.19408,8.72665e-05,1.34902,8.72665e-05,0,0.0100706,0.0351335,0,-0.00759218,-0.0045204,0.883,-0.241,0.014,-0.005,0.056,0,-4.676,34.167,-3.199,2.674,-0.311389,-0.001409
23:34:52:985322,0.00015708,-0.577582,1.19422,8.72665e-05,1.34897,6.98132e-05,0,0.00940732,0.0318697,0,-0.00912807,-0.00457276,0.882,-0.189,0.038,-0.008,0.056,0,-3.969,34.867,-2.954,2.394,-0.388884,-0.123992
23:34:52:990338,0.00015708,-0.577547,1.19435,8.72665e-05,1.34891,3.49066e-05,0,0.00884882,0.027454,0,-0.00966912,-0.00574213,0.876,-0.097,-0.021,-0.013,0.055,0,-4.438,34.517,-2.898,2.639,-0.433972,-0.107084
23:34:52:995460,0.00015708,-0.577495,1.19447,8.72665e-05,1.34886,1.74533e-05,0,0.00872665,0.0241728,0,-0.00886627,-0.00481711,0.878,-0.041,-0.091,-0.016,0.055,0.001,-4.438,34.335,-1.316,2.877,-0.453698,0.008454
23:34:53:444,0.00015708,-0.577442,1.19459,8.72665e-05,1.34881,0,0,0.00879646,0.0238587,0,-0.00834267,-0.00589921,0.889,0.002,-0.043,-0.02,0.053,0.001,-3.969,35.987,-1.54,2.744,-0.307162,-0.046497
23:34:53:5568,0.00015708,-0.577407,1.19473,8.72665e-05,1.34876,0,0,0.00912807,0.0270002,0,-0.0110828,-0.00364774,0.88,0.003,0.118,-0.024,0.051,0,-4.088,35.56,-1.533,3.038,-0.445244,-0.039452
23:34:53:10591,0.00015708,-0.577355,1.1949,8.72665e-05,1.3487,-1.74533e-05,0,0.01028,0.031381,0,-0.0106465,-0.00417134,0.814,0.017,0.318,-0.03,0.047,-0.001,-4.718,35.931,-2.534,2.044,-0.445244,-0.067632
23:34:53:15568,0.00015708,-0.577285,1.19511,8.72665e-05,1.34865,-3.49066e-05,0,0.0117635,0.0370708,0,-0.0109781,-0.00284489,0.752,0.07,0.272,-0.034,0.043,0,-4.83,35.056,-3.059,2.828,-0.441017,0.015499
23:34:53:20691,0.00015708,-0.577198,1.19532,8.72665e-05,1.34862,-5.23599e-05,0,0.0150447,0.0421148,0,-0.00951204,-0.00359538,0.672,0.207,0.002,-0.039,0.037,0.001,-4.704,35.105,-4.543,3.241,-0.348023,-0.053542
23:34:53:25695,0.00015708,-0.577128,1.19555,8.72665e-05,1.34856,-6.98132e-05,0,0.0153764,0.0433016,0,-0.00935496,-0.00267035,0.598,0.315,-0.135,-0.044,0.03,0.002,-4.172,35.399,-4.319,2.338,-0.445244,0.016908
23:34:53:30822,0.00015708,-0.577041,1.19576,8.72665e-05,1.34851,-6.98132e-05,0,0.0152193,0.0409105,0,-0.0103149,0,0.534,0.336,-0.059,-0.048,0.025,0.001,-4.641,34.986,-4.669,2.548,-0.598825,0.015499
23:34:53:35822,0.00015708,-0.576971,1.19593,8.72665e-05,1.34846,-8.72665e-05,0,0.0154811,0.0362505,0,-0.0119904,0,0.437,0.331,0.145,-0.052,0.017,0,-4.655,35.427,-3.437,2.562,-0.348023,-0.021135
23:34:53:40763,0.00015708,-0.576884,1.19606,8.72665e-05,1.34839,-8.72665e-05,0,0.0151495,0.0300895,0,-0.0124442,0,0.404,0.345,0.242,-0.055,0.013,0,-4.438,35.651,-2.058,2.849,-0.627005,-0.018317
23:34:53:45946,0.00015708,-0.576814,1.19616,8.72665e-05,1.34834,-0.00010472,0,0.015516,0.0234049,0,-0.00980875,0,0.411,0.394,0.34,-0.059,0.009,-0.001,-4.641,35.679,-1.729,0.798,-0.61996,-0.08454
23:34:53:50989,0.00015708,-0.576727,1.19625,8.72665e-05,1.3483,-0.00010472,0,0.0156556,0.0194779,0,-0.00991347,0,0.415,0.413,0.412,-0.06,0.007,-0.002,-4.123,36.183,-1.113,2.114,-0.52133,-0.129628
23:34:53:56095,0.00015708,-0.576639,1.19632,8.72665e-05,1.34823,-0.00010472,0,0.0172962,0.0154985,0,-0.0117112,0,0.335,0.399,0.462,-0.062,0.005,-0.002,-4.788,35.581,0.364,2.863,-0.553737,-0.036634
23:34:53:61083,0.00015708,-0.576535,1.19637,8.72665e-05,1.34816,-0.00010472,0,0.0193906,0.013823,0,-0.0117635,0,0.211,0.387,0.393,-0.061,0.004,-0.002,-3.654,35.028,1.071,2.023,-0.560782,-0.002818
23:34:53:66207,0.00015708,-0.576412,1.19646,8.72665e-05,1.34811,-0.00010472,0,0.0219039,0.015132,0,-0.0107163,0,-0.017,0.404,0.211,-0.059,-0.001,-0.002,-4.305,35.224,0.889,3.458,-0.524148,0.005636
23:34:53:71207,0.00015708,-0.57629,1.19655,8.72665e-05,1.34804,-0.00010472,0,0.0237016,0.0157778,0,-0.0131947,0,-0.136,0.428,0.174,-0.057,-0.006,-0.002,-3.752,34.748,2.065,4.046,-0.376203,-0.026771
23:34:53:76358,0.00015708,-0.576168,1.19665,8.72665e-05,1.34797,-0.00010472,0,0.0244346,0.018867,0,-0.0143117,0,-0.2,0.432,0.354,-0.054,-0.015,-0.002,-3.528,33.684,2.282,2.898,-0.412837,0.108493
23:34:53:81335,0.00015708,-0.576028,1.19677,8.72665e-05,1.34788,-0.00010472,0,0.024487,0.0217817,0,-0.0158127,0,-0.177,0.407,0.543,-0.052,-0.019,-0.002,-4.221,34.167,0.798,2.702,-0.215577,0.150763
23:34:53:86440,0.00015708,-0.575906,1.19693,8.72665e-05,1.34781,-0.00010472,0,0.0246615,0.0277682,0,-0.0165457,0,-0.099,0.37,0.681,-0.048,-0.021,-0.002,-3.612,32.844,0.266,3.038,-0.349432,0.032407
23:34:53:91462,0.00015708,-0.575802,1.1971,8.72665e-05,1.34771,-0.00010472,0,0.0223053,0.0333183,0,-0.0178024,0,-0.042,0.369,0.625,-0.046,-0.02,-0.001,-3.752,33.649,-0.973,2.639,-0.474833,0.002818
23:34:53:96570,0.00015708,-0.575697,1.1973,8.72665e-05,1.34762,-0.00010472,0,0.0202284,0.0371232,0,-0.0185528,0,0.027,0.398,0.459,-0.045,-0.017,0,-3.22,33.579,-2.506,2.583,-0.332524,0.121174
23:34:53:101565,0.00015708,-0.57561,1.19751,8.72665e-05,1.34753,-0.00010472,0,0.0188146,0.039235,0,-0.0176627,0,0.046,0.414,0.422,-0.044,-0.015,0.001,-3.521,33.257,-2.926,2.289,-0.101448,0.170489
23:34:53:106513,0.00015708,-0.575522,1.1977,8.72665e-05,1.34745,-8.72665e-05,0,0.0175231,0.0384147,0,-0.016633,0,0.009,0.404,0.582,-0.044,-0.013,0.001,-2.723,33.054,-4.144,2.254,-0.273346,0.22544
23:34:53:111707,0.00015708,-0.575453,1.19785,8.72665e-05,1.34739,-6.98132e-05,0,0.0171566,0.0342783,0,-0.0127234,0,-0.081,0.375,0.872,-0.044,-0.015,0,-1.736,33.474,-3.843,2.744,-0.178943,0.23953
23:34:53:116693,0.00015708,-0.575365,1.19799,8.72665e-05,1.34734,-6.98132e-05,0,0.0168773,0.030456,0,-0.0123046,0,-0.144,0.377,1.001,-0.044,-0.017,-0.001,-2.219,32.634,-3.591,1.946,-0.023953,0.229667
23:34:53:121833,0.00015708,-0.575278,1.19812,8.72665e-05,1.34727,-5.23599e-05,0,0.017017,0.0269653,0,-0.0125489,0.00301942,-0.221,0.444,0.979,-0.047,-0.02,-0.001,-2.03,33.117,-3.157,3.353,-0.187397,0.145127
23:34:53:126829,0.00015708,-0.575191,1.19824,8.72665e-05,1.34722,-1.74533e-05,0,0.015324,0.024295,0,-0.0115017,0.00380482,-0.275,0.525,0.854,-0.051,-0.023,0,-1.981,33.04,-2.821,2.646,-0.121174,0.198669
23:34:53:131963,0.00015708,-0.575121,1.19834,8.72665e-05,1.34715,0,0,0.0149924,0.0213279,0,-0.0130202,0.00534071,-0.38,0.661,0.686,-0.058,-0.027,0.001,-1.498,32.62,-2.835,2.59,-0.080313,0.224031
23:34:53:136939,0.00015708,-0.575069,1.19843,8.72665e-05,1.3471,1.74533e-05,0,0.0127933,0.0199491,0,-0.0111701,0.00459022,-0.464,0.74,0.685,-0.063,-0.029,0.001,-1.372,33.516,-2.457,2.191,-0.194442,0.246575
23:34:53:142095,0.000174533,-0.575016,1.19853,8.72665e-05,1.34705,3.49066e-05,0,0.0118333,0.0195826,0,-0.00961676,0.00579449,-0.574,0.832,0.862,-0.072,-0.032,-0.001,-1.596,33.082,-2.1,2.618,-0.09863,0.187397
23:34:53:147077,0.000174533,-0.574964,1.19862,8.72665e-05,1.34701,8.72665e-05,0,0.0109083,0.0180816,0,-0.00748746,0.00600393,-0.614,0.883,0.998,-0.076,-0.033,-0.003,-0.735,33.565,-1.757,2.821,-0.153581,0.249393
23:34:53:152206,0.000174533,-0.574911,1.19871,8.72665e-05,1.34699,0.000122173,0,0.00975639,0.0183958,0,-0.00624828,0.00801106,-0.605,0.951,1.05,-0.081,-0.032,-0.005,-0.679,33.327,-2.037,2.548,-0.145127,0.129628
23:34:53:157206,0.000174533,-0.574859,1.19881,8.72665e-05,1.34696,0.000174533,0,0.00907571,0.0187797,0,-0.00574213,0.00905826,-0.556,0.986,0.976,-0.082,-0.029,-0.005,-0.14,33.999,-2.639,2.716,-0.090176,0.215577
23:34:53:162315,0.000191986,-0.574824,1.1989,8.72665e-05,1.34692,0.000226893,0,0.00834267,0.019251,0,-0.00565487,0.00975639,-0.433,1.008,0.858,-0.081,-0.023,-0.005,0.28,33.355,-3.178,2.499,-0.100039,0.216986
23:34:53:167325,0.000191986,-0.574789,1.19902,8.72665e-05,1.34689,0.000296706,0.00174533,0.00804597,0.020944,0,-0.00555015,0.0109432,-0.327,1.002,0.862,-0.08,-0.016,-0.006,0.266,33.537,-3.416,2.569,-0.011272,0.152172
23:34:53:172332,0.00020944,-0.574754,1.19915,8.72665e-05,1.34687,0.000366519,0.00244346,0.00781908,0.0233176,0,-0.00527089,0.0126362,-0.144,0.981,0.996,-0.081,-0.002,-0.007,0.497,33.915,-4.648,2.814,-0.170489,0.1409
23:34:53:177454,0.000226893,-0.574719,1.19927,8.72665e-05,1.34684,0.000436332,0.00287979,0.00612611,0.0232478,0,-0.00589921,0.0134041,-0.02,0.974,1.117,-0.082,0.007,-0.008,0.539,33.187,-5.082,2.968,-0.150763,0.139491
23:34:53:182456,0.000226893,-0.574685,1.19937,8.72665e-05,1.34682,0.000506145,0.00191986,0.006353,0.0223402,0,-0.00520108,0.012706,0.14,0.999,1.238,-0.086,0.022,-0.009,1.477,33.656,-5.047,2.695,-0.118356,0.012681
23:34:53:187578,0.000244346,-0.574667,1.19946,8.72665e-05,1.34678,0.000575959,0.00312414,0.0047822,0.0190241,0,-0.0047473,0.013823,0.214,1.038,1.233,-0.089,0.03,-0.009,1.631,34.559,-5.096,2.989,-0.102857,0.088767
23:34:53:192587,0.000261799,-0.57465,1.19951,8.72665e-05,1.34678,0.000645772,0.00301942,0.00479966,0.0146782,0,-0.00279253,0.0140848,0.274,1.101,1.102,-0.091,0.039,-0.007,1.785,34.111,-4.494,2.772,-0.122583,0.074677
23:34:53:197689,0.000279253,-0.574615,1.19955,8.72665e-05,1.34677,0.000715585,0.0037001,0.00466003,0.00968658,0,-0.00342085,0.016057,0.32,1.134,0.968,-0.091,0.044,-0.006,2.597,34.468,-3.36,2.842,-0.224031,0.011272
23:34:53:202688,0.000296706,-0.574597,1.19958,8.72665e-05,1.34673,0.000820305,0.00410152,0.00483456,0.00595157,0,-0.0039968,0.0171042,0.376,1.139,0.948,-0.09,0.047,-0.005,2.408,34.16,-2.863,2.499,-0.243757,0.038043
23:34:53:207682,0.000314159,-0.574562,1.19958,8.72665e-05,1.34671,0.000907571,0.00331613,0.00586431,0.00429351,0,-0.00411898,0.0170693,0.492,1.134,0.96,-0.089,0.051,-0.004,3.409,34.839,-2.1,2.772,-0.246575,0.059178
23:34:53:212753,0.000331613,-0.574527,1.1996,8.72665e-05,1.3467,0.000994838,0.00298451,0.00623083,0.00392699,0,-0.00390954,0.0163363,0.561,1.112,0.926,-0.087,0.055,-0.004,3.402,33.929,-1.771,1.862,-0.063405,-0.045088
23:34:53:217934,0.000349066,-0.574475,1.19963,8.72665e-05,1.34666,0.00106465,0.00263545,0.00865683,0.00460767,0,-0.00497419,0.0157778,0.604,1.005,0.841,-0.08,0.06,-0.003,3.78,34.531,-1.043,2.793,-0.231076,0.059178
23:34:53:222934,0.000366519,-0.574423,1.19969,8.72665e-05,1.34664,0.00116937,0.0042237,0.0100007,0.00642281,0,-0.00431096,0.0178024,0.59,0.875,0.854,-0.073,0.063,-0.004,4.186,33.852,-0.952,2.765,-0.214168,-0.015499
23:34:53:227934,0.000401426,-0.57437,1.19974,8.72665e-05,1.34661,0.00123918,0.00584685,0.0110479,0.00945968,0,-0.00575959,0.0174009,0.55,0.65,1.021,-0.061,0.065,-0.006,4.375,33.236,-0.609,2.366,-0.291663,-0.081722
23:34:53:233055,0.000436332,-0.574301,1.19979,8.72665e-05,1.34659,0.00132645,0.00623083,0.0130725,0.0108385,0,-0.00493928,0.015708,0.544,0.538,1.148,-0.055,0.066,-0.007,4.333,33.964,-0.112,3.059,-0.19726,-0.05636
23:34:53:238055,0.000471239,-0.574213,1.19986,8.72665e-05,1.34656,0.00139626,0.00785398,0.0156032,0.0137881,0,-0.00539307,0.0153764,0.603,0.483,1.224,-0.051,0.067,-0.007,4.984,33.698,-0.168,2.527,-0.284618,-0.061996
23:34:53:243182,0.000523599,-0.574126,1.19993,8.72665e-05,1.34652,0.00148353,0.00778417,0.0159523,0.0143641,0,-0.00736529,0.0144164,0.683,0.507,1.204,-0.052,0.07,-0.006,4.732,33.187,-0.308,2.324,-0.308571,-0.116947
23:34:53:248187,0.000558505,-0.574039,1.20002,8.72665e-05,1.34649,0.00155334,0.00827286,0.0173486,0.0144862,0,-0.00680678,0.0145386,0.809,0.574,1.141,-0.053,0.076,-0.006,5.53,32.921,0.112,2.835,-0.240939,-0.08454
23:34:53:253311,0.000610865,-0.573951,1.20009,8.72665e-05,1.34645,0.0016057,0.00865683,0.0163712,0.0150098,0,-0.00630064,0.013282,0.869,0.605,1.089,-0.052,0.082,-0.006,6.062,33.95,0.245,2.261,-0.280391,-0.022544
23:34:53:258318,0.000645772,-0.573882,1.20016,8.72665e-05,1.34642,0.00169297,0.00905826,0.0141895,0.0156032,0,-0.00696386,0.0138579,0.908,0.593,0.989,-0.049,0.091,-0.007,5.775,33.292,0.889,2.303,-0.187397,0.181761
23:34:53:263440,0.000698132,-0.573829,1.20026,8.72665e-05,1.34636,0.00176278,0.0087441,0.0133343,0.0163363,0,-0.00815069,0.0133343,0.915,0.539,0.927,-0.044,0.095,-0.007,6.475,33.908,1.386,2.996,-0.259256,-0.164853
23:34:53:268431,0.000750492,-0.57376,1.20037,8.72665e-05,1.34633,0.0018326,0.00944223,0.0119031,0.0190415,0,-0.00712094,0.0139452,0.928,0.405,0.894,-0.035,0.097,-0.008,6.566,34.321,0.882,2.352,-0.335342,0.040861
23:34:53:273376,0.000802851,-0.573707,1.20049,8.72665e-05,1.34629,0.00190241,0.00987856,0.0116239,0.0227765,0,-0.00767945,0.014399,0.953,0.311,0.897,-0.028,0.098,-0.009,6.503,33.628,0.826,2.548,-0.40861,0.012681
23:34:53:278565,0.000855211,-0.573637,1.20063,8.72665e-05,1.34624,0.00195477,0.0110305,0.0141721,0.025604,0,-0.00893609,0.0120602,1.038,0.23,0.839,-0.019,0.101,-0.009,6.986,34.419,0.707,2.674,-0.342387,0.128219
23:34:53:283573,0.000925025,-0.57355,1.20079,8.72665e-05,1.34619,0.00202458,0.0112574,0.0152193,0.0289201,0,-0.0111701,0.0123395,1.124,0.235,0.712,-0.016,0.105,-0.009,6.853,35.077,0.931,2.744,-0.362113,0.205714
23:34:53:288685,0.000977384,-0.573445,1.20096,8.72665e-05,1.34614,0.00207694,0.011589,0.0175406,0.0328122,0,-0.0109432,0.0122348,1.239,0.296,0.447,-0.016,0.11,-0.009,6.468,33.831,-0.35,2.548,-0.311389,0.21135
23:34:53:293648,0.0010472,-0.573358,1.20117,8.72665e-05,1.34609,0.00214676,0.0124791,0.0180467,0.0377515,0,-0.0106465,0.0122348,1.26,0.338,0.294,-0.017,0.109,-0.008,6.804,34.762,-0.343,2.744,-0.404383,0.240939
23:34:53:298807,0.00111701,-0.573253,1.2014,8.72665e-05,1.34602,0.00221657,0.0144862,0.0197746,0.0439648,0,-0.0118159,0.0125315,1.217,0.337,0.319,-0.017,0.105,-0.009,6.16,34.034,-1.638,1.799,-0.339569,0.411428
23:34:53:303834,0.00120428,-0.573149,1.20166,8.72665e-05,1.34595,0.00226893,0.0153589,0.0206822,0.0471064,0,-0.0135088,0.0117286,1.138,0.322,0.431,-0.014,0.098,-0.01,5.796,35.189,-2.401,2.681,-0.339569,0.359295
23:34:53:308932,0.00129154,-0.573044,1.2019,8.72665e-05,1.34588,0.00232129,0.017558,0.0210836,0.0475079,0,-0.0128805,0.011013,1.102,0.322,0.437,-0.012,0.095,-0.011,6.594,34.685,-2.541,2.1,-0.395929,0.187397
23:34:53:313877,0.00139626,-0.572922,1.20211,8.72665e-05,1.34581,0.0023911,0.0190241,0.0233001,0.0448724,0,-0.0127758,0.0137008,1.047,0.33,0.288,-0.007,0.093,-0.012,5.635,34.461,-2.289,2.079,-0.529784,0.429745
23:34:53:319057,0.00150098,-0.572782,1.20232,8.72665e-05,1.34575,0.00244346,0.0194255,0.0263894,0.0426558,0,-0.012898,0.0116064,0.982,0.332,0.167,-0.006,0.092,-0.013,5.166,34.111,-1.995,2.086,-0.53542,0.388884
23:34:53:324060,0.00158825,-0.572625,1.20255,8.72665e-05,1.34568,0.00249582,0.0193906,0.0284314,0.0449422,0,-0.0140324,0.0122348,0.848,0.356,0.085,-0.008,0.086,-0.013,5.152,33.383,-1.547,2.786,-0.473424,0.417064
23:34:53:329078,0.00169297,-0.572468,1.20281,8.72665e-05,1.3456,0.00256563,0.0187099,0.030997,0.0497768,0,-0.0150971,0.0126362,0.769,0.411,0.079,-0.014,0.081,-0.013,5.089,32.858,-2.457,1.953,-0.562191,0.442426
23:34:53:334183,0.00176278,-0.572311,1.20309,8.72665e-05,1.34551,0.00263545,0.0165981,0.0322013,0.0526915,0,-0.0176104,0.0136659,0.71,0.544,0.037,-0.025,0.074,-0.013,5.313,33.355,-2.954,2.499,-0.536829,0.417064
23:34:53:339199,0.0018326,-0.572119,1.20339,8.72665e-05,1.3454,0.00268781,0.015132,0.0342957,0.0550651,0,-0.0184481,0.0118333,0.713,0.629,-0.026,-0.03,0.072,-0.014,4.809,32.788,-3.122,1.967,-0.498786,0.435381
23:34:53:344322,0.00190241,-0.571927,1.20365,8.72665e-05,1.3453,0.00275762,0.0139975,0.0362854,0.053791,0,-0.0198968,0.012322,0.737,0.695,-0.105,-0.032,0.069,-0.014,5.656,33.824,-3.22,2.457,-0.449471,0.45088
23:34:53:349308,0.00197222,-0.571735,1.20388,8.72665e-05,1.34521,0.00282743,0.0132296,0.0360585,0.0479093,0,-0.0172613,0.0139626,0.72,0.702,-0.122,-0.03,0.065,-0.014,5.684,32.382,-2.968,2.149,-0.404383,0.491741
23:34:53:354458,0.00204204,-0.571578,1.20405,8.72665e-05,1.34513,0.00289725,0.0148877,0.0334231,0.0409803,0,-0.0180293,0.0143466,0.58,0.697,-0.121,-0.027,0.054,-0.014,5.642,32.571,-0.966,2.674,-0.515694,0.455107
23:34:53:359377,0.0021293,-0.571438,1.20422,8.72665e-05,1.34502,0.00296706,0.0153938,0.0303338,0.0354651,0,-0.0194779,0.0148004,0.421,0.708,-0.133,-0.027,0.043,-0.013,5.894,32.109,-0.112,2.107,-0.412837,0.480469
23:34:53:364375,0.00221657,-0.571299,1.20438,8.72665e-05,1.34492,0.00305433,0.0172089,0.0294263,0.0335103,0,-0.0205774,0.0152018,0.201,0.762,-0.191,-0.03,0.027,-0.012,5.614,33.096,0.994,2.331,-0.491741,0.512876
23:34:53:369552,0.00230383,-0.571159,1.20456,8.72665e-05,1.34479,0.00312414,0.0178547,0.0264766,0.0355175,0,-0.0222355,0.0148877,0.143,0.82,-0.237,-0.032,0.02,-0.011,4.851,33.404,1.946,2.695,-0.410019,0.543874
23:34:53:374497,0.00240855,-0.571037,1.20478,8.72665e-05,1.34465,0.00322886,0.0182212,0.0261974,0.0396364,0,-0.0249931,0.0178024,0.195,0.908,-0.279,-0.034,0.016,-0.011,4.928,33.614,1.288,1.771,-0.391702,0.474833
23:34:53:379694,0.00249582,-0.57088,1.20505,8.72665e-05,1.34451,0.00333358,0.0174707,0.0284489,0.0464956,0,-0.0280125,0.0197397,0.261,0.927,-0.3,-0.032,0.017,-0.01,5.537,33.201,0.098,2.436,-0.384657,0.480469
23:34:53:384629,0.00256563,-0.570723,1.20531,8.72665e-05,1.34434,0.0034383,0.0156731,0.031957,0.0513301,0,-0.0297055,0.0201586,0.228,0.877,-0.332,-0.028,0.017,-0.01,5.544,32.424,-0.875,2.198,-0.170489,0.319843
23:34:53:389802,0.00261799,-0.570531,1.2056,8.72665e-05,1.34418,0.00356047,0.0132121,0.0346099,0.053983,0,-0.0301942,0.0215897,0.063,0.749,-0.425,-0.02,0.009,-0.01,5.635,31.801,-1.568,2.121,-0.23953,0.294481
