srisadhan/powerball/bin/HRI_project/2021/admittance/Stiff env/admittance_hf.csv
TimeStamp , Q1, Q2, Q3, Q4, Q5, Q6, dQ1, dQ2, dQ3, dQ4, dQ5, dQ6, Fx, Fy, Fz, Mx, My, Mz, Joint1_torque, Joint2_torque, Joint3_torque, Joint4_torque, Joint5_torque, Joint6_torque 
23:31:10:42999,0.000174533,-0.581963,1.18736,0,1.35186,-8.72665e-05,0,0,0,0,0,0,0,0,0,0,0,0,-4.802,13.671,-16.009,-4.081,0.091585,-0.060587
23:31:10:47981,0.000174533,-0.581963,1.18736,0,1.35186,-8.72665e-05,0,0,0,0,0,0,0,0,0,0,0,0,-5.187,13.496,-15.785,-4.508,0.105675,-0.063405
23:31:10:52981,0.000174533,-0.581963,1.18736,0,1.35186,-8.72665e-05,0,0,0,0,0,0,0,0,0,0,0,0,-5.005,14.105,-15.491,-3.892,0.107084,-0.078904
23:31:10:58123,0.000174533,-0.581963,1.18736,0,1.35186,-8.72665e-05,0,0,0,0,0,0,0,0,0,0,0,0,-4.746,13.748,-16.177,-4.319,0.114129,-0.009863
23:31:10:63071,0.000174533,-0.581963,1.18736,0,1.35186,-0.00010472,0,0,0,0,0,0,0,0,0,0,0,0,-4.438,13.804,-15.617,-4.095,0.139491,-0.015499
23:31:10:68228,0.000174533,-0.581963,1.18736,0,1.35186,-0.00010472,0,0,0,0,0,0,0,0,0,0,0,0,-5.502,13.923,-15.918,-4.2,0.238121,-0.032407
23:31:10:73228,0.000174533,-0.581963,1.18736,0,1.35186,-0.00010472,0,0,0,0,0,0,0,0,0,0,0,0,-4.676,13.251,-15.379,-4.823,0.271937,0.012681
23:31:10:78247,0.000174533,-0.581963,1.18736,0,1.35186,-0.00010472,0,0,0,0,0,0,0,0,0,0,0,0,-4.487,13.958,-15.96,-4.305,0.232485,-0.01409
23:31:10:83321,0.000174533,-0.581963,1.18736,0,1.35186,-0.00010472,0,0,0,0,0,0,0,0,0,0,0,0,-4.97,13.076,-15.743,-4.41,0.170489,-0.01409
23:31:10:88352,0.000174533,-0.581963,1.18736,0,1.35188,-0.00010472,0,0,0,0,0,0,0,0,0,0,0,0,-5.082,13.923,-16.002,-4.116,0.1409,0.016908
23:31:10:93494,0.000174533,-0.581963,1.18736,0,1.35188,-0.00010472,0,0,0,0,0,0,0,0,0,0,0,0,-4.837,13.993,-15.736,-4.305,0.18317,-0.043679
23:31:10:98476,0.000174533,-0.581963,1.18736,0,1.35188,-0.00010472,0,0,0,0,0,0,0,0,0,0,0,0,-5.208,13.993,-16.751,-4.312,0.21135,0
23:31:10:103621,0.000174533,-0.581963,1.18736,0,1.35188,-0.00010472,0,0,0,0,0,0,0,0,0,0,0,0,-4.564,14.189,-15.547,-4.109,0.077495,-0.021135
23:31:10:108622,0.000174533,-0.581963,1.18736,0,1.35188,-0.00010472,0,0,0,0,0,0,0,0,0,0,0,0,-4.599,14.231,-16.128,-4.319,0.208532,0.09863
23:31:10:113727,0.000174533,-0.581963,1.18736,0,1.35188,-0.00010472,0,0,0,0,0,0,0,0,0,0,0,0,-4.949,13.72,-16.352,-4.522,0.236712,0.018317
23:31:10:118746,0.000174533,-0.581963,1.18736,0,1.35188,-0.00010472,0,0,0,0,0,0,0,0,0,0,0,0,-5.096,14.252,-16.086,-4.095,0.171898,-0.018317
23:31:10:123863,0.000174533,-0.581963,1.18736,0,1.35188,-0.00010472,0,0,0,0,0,0,0,0,0,0,0,0,-4.935,13.44,-15.813,-3.885,0.21135,0.012681
23:31:10:128801,0.000174533,-0.581963,1.18736,0,1.35188,-0.00010472,0,0,0,0,0,0,0,0,0,0,0,0,-4.984,13.951,-15.974,-4.102,0.107084,0.002818
23:31:10:133992,0.000174533,-0.581963,1.18736,0,1.35188,-0.00010472,0,0,0,0,0,0,0,0,0,0,0,0,-4.438,13.293,-15.617,-3.899,0.116947,0.018317
23:31:10:138994,0.000174533,-0.581963,1.18736,0,1.35188,-0.000122173,0,0,0,0,0,0,0,0,0,0,0,0,-4.893,14.224,-16.352,-4.207,0.077495,0.102857
23:31:10:144105,0.000174533,-0.581963,1.18736,0,1.35188,-0.000122173,0,0,0,0,0,0,0,0,0,0,0,0,-4.802,14.035,-15.813,-4.396,0.156399,-0.01409
23:31:10:149103,0.000174533,-0.581963,1.18736,0,1.35188,-0.000122173,0,0,0,0,0,0,0,0,0,0,0,0,-5.355,13.671,-15.421,-4.2,0.092994,0.032407
23:31:10:154056,0.000174533,-0.581963,1.18736,0,1.35188,-0.000122173,0,0,0,0,0,0,0,0,0,0,0,0,-4.655,13.755,-15.848,-4.193,0.187397,0.038043
23:31:10:159243,0.000174533,-0.581963,1.18736,0,1.35188,-0.000122173,0,0,0,0,0,0,0,0,0,0,0,0,-4.746,14.07,-16.632,-4.298,0.097221,0.061996
23:31:10:164228,0.000174533,-0.581963,1.18736,0,1.35188,-0.000122173,0,0,0,0,0,0,0,0,0,0,0,0,-5.005,14.224,-16.436,-4.095,0.198669,0.043679
23:31:10:169352,0.000174533,-0.581963,1.18736,0,1.35188,-0.000122173,0,0,0,0,0,0,0,0,0,0,0,0,-4.585,13.874,-16.282,-3.787,0.2818,0.043679
23:31:10:174353,0.000174533,-0.581963,1.18736,0,1.35188,-0.000122173,0,0,0,0,0,0,0,0,0,0,0,0,-4.879,13.748,-15.274,-4.298,0.159217,-0.016908
23:31:10:179352,0.000174533,-0.581963,1.18736,0,1.35188,-0.000122173,0,0,0,0,0,0,0,0,0,0,0,0,-5.061,13.72,-16.016,-4.417,0.02818,-0.046497
23:31:10:184473,0.000174533,-0.581963,1.18736,0,1.35188,-0.000122173,0,0,0,0,0,0,0,0,0,0,0,0,-4.676,13.552,-16.051,-3.773,0.231076,-0.061996
23:31:10:189469,0.000174533,-0.581963,1.18736,0,1.35188,-0.000122173,0,0,0,0,0,0,0,0,0,0,0,0,-4.858,14.427,-15.883,-4.41,0.283209,-0.064814
23:31:10:194612,0.000174533,-0.581963,1.18736,0,1.35188,-0.000122173,0,0,0,0,0,0,0,0,0,0,0,0,-4.529,13.993,-16.282,-4.004,0.266301,0
23:31:10:199738,0.000174533,-0.581963,1.18736,0,1.35188,-0.000122173,0,0,0,0,0,0,0,0,0,0,0,0,-4.585,13.685,-16.009,-3.591,0.191624,0
23:31:10:204730,0.000174533,-0.58198,1.18736,0,1.35188,-0.000122173,0,0,0,0,0,0,0,0,0,0,0,0,-5.208,13.209,-15.848,-3.801,0.101448,-0.043679
23:31:10:209722,0.000174533,-0.58198,1.18736,0,1.35188,-0.000122173,0,0,0,0,0,0,0,0,0,0,0,0,-4.781,14.028,-16.275,-4.2,0.085949,-0.01409
23:31:10:214860,0.000174533,-0.58198,1.18736,0,1.35188,-0.000122173,0,0,0,0,0,0,0,0,0,0,0,0,-4.396,13.909,-15.533,-4.704,0.121174,0.121174
23:31:10:219807,0.000174533,-0.58198,1.18736,0,1.35188,-0.000122173,0,0,0,0,0,0,0,0,0,0,0,0,-4.676,13.601,-15.925,-4.725,0.218395,0.019726
23:31:10:224989,0.000174533,-0.58198,1.18736,-1.74533e-05,1.35188,-0.000122173,0,0,0,0,0,0,0,0,0,0,0,0,-4.69,14.343,-16.051,-4.921,0.159217,0.040861
23:31:10:229919,0.000174533,-0.58198,1.18736,-1.74533e-05,1.35188,-0.000122173,0,0,0,0,0,0,0,0,0,0,0,0,-4.382,14.105,-15.659,-3.682,0.198669,0.080313
23:31:10:235095,0.000174533,-0.58198,1.18736,-1.74533e-05,1.35188,-0.000122173,0,0,0,0,0,0,0,0,0,0,0,0,-4.655,13.944,-16.016,-4.102,0.226849,-0.002818
23:31:10:240098,0.000174533,-0.58198,1.18736,-1.74533e-05,1.35188,-0.000122173,0,0,0,0,0,0,0,0,0,0,0,0,-5.18,13.832,-15.848,-4.305,0.173307,0.036634
23:31:10:245053,0.000174533,-0.58198,1.18736,-1.74533e-05,1.35188,-0.000122173,0,0,0,0,0,0,0,0,0,0,0,0,-4.697,13.447,-15.897,-3.997,0.342387,0.036634
23:31:10:250267,0.000174533,-0.58198,1.18736,-1.74533e-05,1.35188,-0.000122173,0,0,0,0,0,0,0,0,0,0,0,0,-5.173,13.72,-15.498,-3.682,0.216986,0.019726
23:31:10:255237,0.000174533,-0.58198,1.18736,-1.74533e-05,1.35188,-0.000122173,0,0,0,0,0,0,0,0,0,0,0,0,-4.375,13.986,-15.54,-4.109,0.159217,0.040861
23:31:10:260361,0.000174533,-0.58198,1.18736,-1.74533e-05,1.35188,-0.000122173,0,0,0,0,0,0,0,0,0,0,0,0,-4.69,14.413,-16.275,-3.997,0.181761,0.043679
23:31:10:265310,0.000174533,-0.58198,1.18736,-1.74533e-05,1.35188,-0.000122173,0,0,0,0,0,0,0,0,0,0,0,0,-4.732,13.755,-15.792,-3.689,0.095812,0.018317
23:31:10:270482,0.000174533,-0.58198,1.18736,-1.74533e-05,1.35188,-0.000122173,0,0,0,0,0,0,0,0,0,0,0,0,-5.579,14.217,-16.17,-4.095,0.121174,0.080313
23:31:10:275495,0.000174533,-0.58198,1.18736,-1.74533e-05,1.35188,-0.000122173,0,0,0,0,0,0,0,0,0,0,0,0,-4.683,14.539,-15.582,-3.787,0.138082,0.059178
23:31:10:280610,0.000174533,-0.58198,1.18736,-1.74533e-05,1.35188,-0.000122173,0,0,0,0,0,0,0,0,0,0,0,0,-4.83,13.678,-15.82,-4.613,0.123992,0.15499
23:31:10:285608,0.000174533,-0.58198,1.18736,-1.74533e-05,1.35188,-0.000122173,0,0,0,0,0,0,0,0,0,0,0,0,-4.438,14.266,-15.771,-3.997,0.25362,-0.002818
23:31:10:290546,0.000174533,-0.58198,1.18736,-1.74533e-05,1.35188,-0.000122173,0,0,0,0,0,0,0,0,0,0,0,0,-5.145,13.832,-15.421,-3.794,0.076086,0.036634
23:31:10:295722,0.000174533,-0.58198,1.18736,-1.74533e-05,1.35188,-0.000122173,0,0,0,0,0,0,-0.041,-0.062,0.202,0,0,-0.001,-5.047,13.909,-15.498,-3.892,0.191624,0
23:31:10:300729,0.000174533,-0.58198,1.18736,-1.74533e-05,1.35188,-0.000122173,0,0,0,0,0,0,-0.098,-0.034,-0.005,0,0,0,-4.949,14.343,-15.974,-4.515,0.193033,0.136673
23:31:10:305855,0.000174533,-0.58198,1.18736,-1.74533e-05,1.35188,-0.000122173,0,0,0,0,0,0,-0.147,0.032,-0.271,0,0.001,0,-4.865,12.866,-16.086,-3.892,0.12681,0.077495
23:31:10:310846,0.000174533,-0.58198,1.18736,-1.74533e-05,1.3519,-0.000122173,0,0,0,0,0,0,-0.163,0.056,-0.302,0,0.001,0,-4.928,12.824,-15.848,-4.508,-0.012681,0.059178
23:31:10:315971,0.000174533,-0.58198,1.18736,-1.74533e-05,1.3519,-0.000122173,0,0,0,0,0,0,-0.147,0.041,-0.106,0,0.001,-0.001,-5.082,12.901,-15.344,-3.787,0.108493,0.001409
23:31:10:320969,0.000174533,-0.58198,1.18736,-1.74533e-05,1.3519,-0.000122173,0,0,0,0,0,0,-0.114,0.011,0.057,0,0,-0.002,-4.235,14.259,-16.639,-4.095,0.104266,-0.040861
23:31:10:326109,0.000174533,-0.58198,1.18736,-1.74533e-05,1.3519,-0.000122173,0,0,0,0,0,0,-0.06,-0.028,0.17,0,0,-0.002,-4.326,14.455,-16.093,-3.787,0.135264,0.002818
23:31:10:331118,0.000174533,-0.58198,1.18736,-1.74533e-05,1.3519,-0.000122173,0,0,0,0,0,0,-0.041,-0.041,0.157,0,0,-0.001,-4.781,13.405,-15.484,-4.403,0.069041,-0.038043
23:31:10:336233,0.000174533,-0.58198,1.18736,-1.74533e-05,1.3519,-0.000122173,0,0,0,0,0,0,-0.036,-0.036,0.103,0,0,0,-5.047,13.797,-16.128,-3.892,0.166262,-0.040861
23:31:10:341178,0.000174533,-0.58198,1.18736,-1.74533e-05,1.3519,-0.000122173,0,0,0,0,0,0,-0.031,-0.014,0.082,0,0,0,-4.977,13.909,-16.569,-4.305,0.187397,-0.015499
23:31:10:346236,0.000174533,-0.58198,1.18736,-1.74533e-05,1.3519,-0.000122173,0,0,0,0,0,0,-0.007,0.032,0.085,0,0,0,-5.117,13.363,-15.491,-4.305,0.143718,-0.018317
23:31:10:351343,0.000174533,-0.58198,1.18736,-1.74533e-05,1.3519,-0.000139626,0,0,0,0,0,0,0.011,0.059,0.09,0,0,0,-4.97,12.936,-15.568,-3.787,0.233894,0.122583
23:31:10:356302,0.000174533,-0.58198,1.18736,-1.74533e-05,1.3519,-0.000139626,0,0,0,0,0,0,0.028,0.073,0.036,-0.001,0,0,-5.264,14.609,-15.82,-4.2,0.087358,0.019726
23:31:10:361413,0.000174533,-0.58198,1.18736,-1.74533e-05,1.3519,-0.000139626,0,0,0,0,0,0,0.029,0.061,-0.05,0,0,0,-4.69,13.713,-15.484,-4.2,0.090176,0.078904
23:31:10:366466,0.000174533,-0.58198,1.18736,-1.74533e-05,1.3519,-0.000139626,0,0,0,0,0,0,0.02,0.018,-0.147,0,0,0,-5.467,14.294,-15.435,-4.095,0.146536,0.04227
23:31:10:371616,0.000174533,-0.58198,1.18736,-1.74533e-05,1.3519,-0.000139626,0,0,0,0,0,0,0.009,-0.019,-0.107,0,0,0.001,-4.711,13.951,-16.002,-3.892,0.222622,0.021135
23:31:10:376585,0.000174533,-0.58198,1.18736,-1.74533e-05,1.3519,-0.000139626,0,0,0,0,0,0,-0.004,-0.061,0.074,0,0,0,-4.732,13.405,-15.036,-3.99,0.05636,0.061996
23:31:10:381731,0.000174533,-0.58198,1.18736,-1.74533e-05,1.3519,-0.000139626,0,0,0,0,0,0,-0.007,-0.065,0.161,0,0,0,-4.207,13.062,-16.079,-3.997,0.115538,0
23:31:10:386731,0.000174533,-0.58198,1.18736,-1.74533e-05,1.3519,-0.000139626,0,0,0,0,0,0,-0.017,-0.043,0.135,0,0,0,-4.718,14.49,-15.855,-4.403,0.16908,-0.018317
23:31:10:391838,0.000174533,-0.58198,1.18736,-1.74533e-05,1.3519,-0.000139626,0,0,0,0,0,0,-0.045,-0.023,0.051,0,0,0,-4.781,14.063,-15.491,-3.997,0.097221,-0.059178
23:31:10:396816,0.000174533,-0.58198,1.18736,-1.74533e-05,1.3519,-0.000139626,0,0,0,0,0,0,-0.065,-0.022,0.032,0,0,0,-4.697,13.951,-15.813,-3.682,0.131037,0.083131
23:31:10:401807,0.000174533,-0.58198,1.18736,-1.74533e-05,1.3519,-0.000139626,0,0,0,0,0,0,-0.058,-0.025,0.007,0,0,0,-4.858,13.636,-15.155,-4.095,0.128219,-0.04227
23:31:10:406979,0.000174533,-0.58198,1.18736,-1.74533e-05,1.3519,-0.000139626,0,0,0,0,0,0,-0.028,-0.022,-0.043,0,0,0.001,-5.068,13.293,-15.883,-4.508,0.18317,0.040861
23:31:10:411967,0.000174533,-0.58198,1.18736,-1.74533e-05,1.3519,-0.000139626,0,0,0,0,0,0,0.013,-0.01,-0.093,0,0,0,-4.9,14.182,-16.044,-3.892,0.236712,0.061996
23:31:10:417102,0.000174533,-0.58198,1.18736,-1.74533e-05,1.3519,-0.000139626,0,0,0,0,0,0,0.017,-0.004,-0.037,0,0,0,-4.354,13.832,-15.61,-4.305,0.146536,0.143718
23:31:10:422104,0.000174533,-0.58198,1.18736,-1.74533e-05,1.3519,-0.000139626,0,0,0,0,0,0,0.005,-0.005,0.142,0,0,-0.001,-4.69,14.217,-15.708,-3.892,0.123992,-0.019726
23:31:10:427218,0.000174533,-0.58198,1.18736,-1.74533e-05,1.3519,-0.000139626,0,0,0,0,0,0,0.008,-0.01,0.216,0,0,-0.001,-5.005,13.797,-16.17,-3.794,0.090176,0.162035
23:31:10:432230,0.000174533,-0.58198,1.18736,-1.74533e-05,1.3519,-0.000139626,0,0,0,0,0,0,0.028,-0.01,0.13,0,0,-0.001,-4.62,13.524,-16.114,-3.794,0.205714,-0.038043
23:31:10:437334,0.000174533,-0.58198,1.18736,-1.74533e-05,1.3519,-0.000139626,0,0,0,0,0,0,0.023,-0.002,-0.014,0,0,0,-5.103,13.986,-15.344,-4.2,0.187397,0.040861
23:31:10:442342,0.000174533,-0.58198,1.18736,-1.74533e-05,1.3519,-0.000139626,0,0,0,0,0,0,-0.032,0.011,-0.158,0,0,0,-4.613,14.14,-15.316,-4.2,0.081722,0.016908
23:31:10:447287,0.000174533,-0.58198,1.18736,-1.74533e-05,1.3519,-0.000139626,0,0,0,0,0,0,-0.073,0.009,-0.118,0,0,0,-4.746,14.259,-15.498,-4.613,0.143718,0
23:31:10:452479,0.000174533,-0.58198,1.18736,-3.49066e-05,1.3519,-0.000139626,0,0,0,0,0,0,-0.076,-0.012,0.099,-0.001,0,-0.001,-4.879,14.644,-15.827,-3.892,0.088767,0.143718
23:31:10:457463,0.000174533,-0.58198,1.18736,-3.49066e-05,1.3519,-0.000139626,0,0,0,0,0,0,-0.04,-0.026,0.233,-0.001,0,-0.002,-4.879,14.259,-15.386,-3.906,0.064814,-0.019726
23:31:10:462596,0.000174533,-0.58198,1.18736,-3.49066e-05,1.3519,-0.000139626,0,0,0,0,0,0,0.011,-0.028,0.27,0,0,-0.002,-4.732,14.336,-16.051,-4.2,0.115538,0.043679
23:31:10:467534,0.000174533,-0.58198,1.18736,-3.49066e-05,1.3519,-0.000139626,0,0,0,0,0,0,0.014,-0.024,0.224,0,0,-0.002,-4.669,14.14,-15.743,-3.892,0.133855,0.018317
23:31:10:472713,0.000174533,-0.58198,1.18736,-3.49066e-05,1.3519,-0.000139626,0,0,0,0,0,0,-0.023,-0.03,0.211,0,0,-0.002,-4.746,14.959,-15.386,-4.998,0.252211,-0.038043
23:31:10:477656,0.000174533,-0.58198,1.18736,-3.49066e-05,1.3519,-0.000139626,0,0,0,0,0,0,-0.048,-0.038,0.238,0,0,-0.002,-4.214,14.378,-15.54,-4.214,0.205714,0.142309
23:31:10:482854,0.000174533,-0.58198,1.18736,-3.49066e-05,1.3519,-0.000139626,0,0,0,0,0,0,-0.046,-0.025,0.143,0,0,-0.001,-4.494,13.601,-16.086,-4.606,0.238121,-0.039452
23:31:10:487849,0.000174533,-0.58198,1.18736,-3.49066e-05,1.3519,-0.000139626,0,0,0,0,0,0,-0.003,0.018,-0.146,0,0,0.001,-4.578,13.601,-15.743,-4.396,0.05636,-0.018317
23:31:10:492993,0.000174533,-0.58198,1.18736,-3.49066e-05,1.3519,-0.000139626,0,0,0,0,0,0,0.022,0.038,-0.277,0,0,0.002,-5.005,13.755,-15.043,-4.004,0.043679,0.142309
23:31:10:497992,0.000174533,-0.58198,1.18736,-3.49066e-05,1.3519,-0.000139626,0,0,0,0,0,0,0.026,0.031,-0.195,0,0,0.001,-5.467,13.986,-16.17,-3.598,0.166262,0.040861
23:31:10:502966,0.000174533,-0.58198,1.18736,-3.49066e-05,1.3519,-0.000139626,0,0,0,0,0,0,0.011,0.019,-0.045,0,0,0,-4.732,13.678,-15.855,-4.41,0.193033,0.040861
23:31:10:508056,0.000174533,-0.58198,1.18736,-3.49066e-05,1.3519,-0.000139626,0,0,0,0,0,0,-0.016,0.022,0.075,0,0,0,-4.746,14.532,-15.54,-3.689,0.163444,0.080313
23:31:10:513229,0.000174533,-0.58198,1.18736,-3.49066e-05,1.3519,-0.000139626,0,0,0,0,0,0,-0.036,0.032,0.073,0,0,-0.001,-4.844,14.378,-15.449,-4.102,0.142309,0.139491
23:31:10:518208,0.000174533,-0.58198,1.18736,-3.49066e-05,1.3519,-0.000139626,0,0,0,0,0,0,-0.068,0.025,0.09,0,0,-0.001,-4.655,14.455,-15.26,-4.494,0.160626,0.039452
23:31:10:523165,0.000174533,-0.58198,1.18736,-3.49066e-05,1.3519,-0.000139626,0,0,0,0,0,0,-0.081,0.006,0.135,0,0,-0.001,-4.305,12.635,-15.869,-3.899,0.094403,0.04227
23:31:10:528342,0.000174533,-0.58198,1.18736,-3.49066e-05,1.3519,-0.000139626,0,0,0,0,0,0,-0.068,-0.012,0.151,-0.001,0,-0.001,-4.655,14.336,-16.485,-3.892,0.040861,0.059178
23:31:10:533467,0.000174533,-0.58198,1.18736,-3.49066e-05,1.3519,-0.000139626,0,0,0,0,0,0,-0.046,-0.005,0.103,-0.001,0,-0.001,-4.641,13.72,-15.841,-4.004,0.319843,0.040861
23:31:10:538402,0.000174533,-0.58198,1.18736,-3.49066e-05,1.3519,-0.000139626,0,0,0,0,0,0,-0.024,0.012,0.027,0,0,0,-5.089,13.328,-15.729,-4.298,0.122583,0.162035
23:31:10:543475,0.000174533,-0.58198,1.18736,-3.49066e-05,1.3519,-0.000139626,0,0,0,0,0,0,-0.023,0.012,0.019,0,0,0,-4.893,13.874,-15.848,-3.808,0.167671,0.036634
23:31:10:548598,0.000174533,-0.58198,1.18736,-3.49066e-05,1.3519,-0.000139626,0,0,0,0,0,0,-0.027,-0.004,0.04,0,0,0,-4.879,14.063,-15.379,-4.487,0.176125,0.002818
23:31:10:553720,0.000174533,-0.58198,1.18736,-3.49066e-05,1.3519,-0.000139626,0,0,0,0,0,0,-0.028,-0.01,0.026,0,0,0,-5.341,14.063,-16.205,-4.389,0.129628,-0.015499
23:31:10:558740,0.000174533,-0.58198,1.18736,-3.49066e-05,1.3519,-0.000139626,0,0,0,0,0,0,-0.029,0,-0.055,0,0,0.001,-5.026,14.14,-15.932,-3.773,0.053542,-0.039452
23:31:10:563654,0.000174533,-0.58198,1.18736,-3.49066e-05,1.3519,-0.000139626,0,0,0,0,0,0,-0.031,0.005,-0.099,0,0,0,-4.718,14.336,-15.071,-4.193,0.205714,0.100039
23:31:10:568844,0.000174533,-0.58198,1.18736,-3.49066e-05,1.3519,-0.000139626,0,0,0,0,0,0,-0.03,-0.029,-0.05,0,0,0,-4.557,14.294,-19.495,-4.228,0.146536,0.057769
23:31:10:573803,0.000174533,-0.58198,1.18736,-3.49066e-05,1.3519,-0.000139626,0,0,0,0,0,0,-0.015,-0.09,0.073,0,0,-0.001,-4.963,14.49,-15.757,-4.291,0.123992,0.002818
23:31:10:578984,0.000174533,-0.58198,1.18736,-3.49066e-05,1.3519,-0.000139626,0,0,0,0,0,0,0.001,-0.101,0.084,0,0,-0.001,-5.089,14.532,-16.24,-3.591,0.12681,0
23:31:10:583971,0.000174533,-0.58198,1.18736,-3.49066e-05,1.3519,-0.000139626,0,0,0,0,0,0,0.026,-0.036,-0.071,0,0,0,-5.131,14.14,-16.093,-4.501,0.205714,-0.063405
23:31:10:589081,0.000174533,-0.58198,1.18736,-3.49066e-05,1.3519,-0.000139626,0,0,0,0,0,0,0.039,0.03,-0.205,0,0,0.001,-5.243,12.943,-14.854,-3.997,0.135264,0.060587
23:31:10:594085,0.000174533,-0.58198,1.18736,-3.49066e-05,1.3519,-0.000139626,0,0,0,0,0,0,0.049,0.083,-0.272,0.001,0,0.001,-4.242,13.559,-16.723,-3.507,0.187397,-0.081722
23:31:10:599221,0.000174533,-0.58198,1.18736,-3.49066e-05,1.3519,-0.000139626,0,0,0,0,0,0,0.045,0.074,-0.231,0,0,0.001,-5.117,13.132,-16.282,-4.396,0.094403,0.040861
23:31:10:604166,0.000174533,-0.58198,1.18736,-3.49066e-05,1.3519,-0.000139626,0,0,0,0,0,0,0.019,0.045,-0.196,0,0,0.001,-4.893,14.455,-15.225,-3.99,0.097221,0.001409
23:31:10:609149,0.000174533,-0.58198,1.18736,-3.49066e-05,1.3519,-0.000139626,0,0,0,0,0,0,-0.01,0.038,-0.223,0,0,0.002,-5.432,13.216,-15.568,-4.046,0.166262,0.09863
23:31:10:614291,0.000174533,-0.58198,1.18736,-3.49066e-05,1.3519,-0.000139626,0,0,0,0,0,0,-0.052,0.033,-0.22,-0.001,0,0.002,-4.543,13.328,-16.016,-4.312,0.195851,0.059178
23:31:10:619471,0.000174533,-0.58198,1.18736,-3.49066e-05,1.3519,-0.000139626,0,0,0,0,0,0,-0.06,0.018,-0.126,0,0,0.001,-4.858,14.266,-15.806,-5.005,0.032407,0.143718
23:31:10:624414,0.000174533,-0.58198,1.18736,-3.49066e-05,1.3519,-0.000139626,0,0,0,0,0,0,-0.034,-0.01,0.059,0,0,0,-5.46,14.49,-16.128,0.217,0.095812,0.081722
23:31:10:629419,0.000174533,-0.58198,1.18736,-3.49066e-05,1.3519,-0.000139626,0,0,0,0,0,0,-0.008,-0.018,0.098,0,0,0,-4.69,13.909,-15.54,-5.397,0.054951,-0.057769
23:31:10:634607,0.000174533,-0.58198,1.18736,-3.49066e-05,1.3519,-0.000139626,0,0,0,0,0,0,0.018,-0.012,-0.038,0,0,0,-4.942,13.755,-15.225,-4.102,0.128219,0.039452
23:31:10:639578,0.000174533,-0.58198,1.18736,-3.49066e-05,1.3519,-0.000139626,0,0,0,0,0,0,0.02,-0.004,-0.19,0,0,0.001,-4.62,14.182,-15.736,-3.892,0.180352,0.061996
23:31:10:644718,0.000174533,-0.58198,1.18736,-3.49066e-05,1.3519,-0.000139626,0,0,0,0,0,0,-0.001,0.01,-0.337,0,0,0.002,-4.599,13.566,-16.156,-5.579,0.063405,0.040861
23:31:10:649663,0.000174533,-0.58198,1.18736,-5.23599e-05,1.3519,-0.000139626,0,0,0,0,0,0,-0.027,0.023,-0.333,0,0,0.002,-4.515,14.259,-15.729,-2.709,0.229667,0.015499
23:31:10:654661,0.000174533,-0.58198,1.18736,-5.23599e-05,1.3519,-0.000139626,0,0,0,0,0,0,-0.062,0.029,-0.213,0,0,0.002,-4.081,14.259,-16.219,-3.997,0.100039,0.081722
23:31:10:659843,0.000174533,-0.58198,1.18736,-5.23599e-05,1.3519,-0.000139626,0,0,0,0,0,0,-0.059,0,-0.054,0,0,0,-4.949,14.567,-16.247,-3.724,0.043679,0.040861
23:31:10:664771,0.000174533,-0.58198,1.18736,-5.23599e-05,1.3519,-0.000139626,0,0,0,0,0,0,-0.035,-0.03,0.05,0,0,0,-4.249,13.797,-15.295,-3.815,0.050724,0.039452
23:31:10:669951,0.000174533,-0.58198,1.18736,-5.23599e-05,1.3519,-0.000139626,0,0,0,0,0,0,-0.004,-0.062,0.216,0,0,-0.001,-4.774,14.294,-15.813,-4.011,0.236712,0.083131
23:31:10:674956,0.000174533,-0.58198,1.18736,-5.23599e-05,1.3519,-0.000139626,0,0,0,0,0,0,-0.004,-0.061,0.308,0,0,-0.002,-4.508,13.405,-15.848,-4.102,0.181761,0.004227
23:31:10:680083,0.000174533,-0.58198,1.18736,-5.23599e-05,1.3519,-0.000139626,0,0,0,0,0,0,-0.026,-0.036,0.323,0,0,-0.002,-4.354,14.413,-15.61,-3.598,0.061996,-0.018317
23:31:10:685026,0.000174533,-0.58198,1.18736,-5.23599e-05,1.3519,-0.000139626,0,0,0,0,0,0,-0.032,-0.014,0.225,0,0,-0.001,-4.431,14.133,-16.135,-4.221,0.136673,0.002818
23:31:10:690202,0.000174533,-0.58198,1.18736,-5.23599e-05,1.3519,-0.000139626,0,0,0,0,0,0,-0.012,0.013,-0.002,0,0,0,-4.914,14.336,-15.974,-3.311,0.235303,0.018317
23:31:10:695216,0.000174533,-0.58198,1.18736,-5.23599e-05,1.3519,-0.000139626,0,0,0,0,0,0,0.007,0.027,-0.131,0,0,0,-4.816,14.063,-15.512,-4.081,0.163444,0.059178
23:31:10:700324,0.000174533,-0.58198,1.18736,-5.23599e-05,1.3519,-0.000139626,0,0,0,0,0,0,0.018,0.044,-0.235,0,0,0.001,-4.655,14.021,-15.449,-3.822,0.166262,0.09863
23:31:10:705270,0.000174533,-0.58198,1.18736,-5.23599e-05,1.3519,-0.000139626,0,0,0,0,0,0,0.012,0.053,-0.262,0,0,0.001,-4.375,14.077,-15.743,-4.039,0.190215,0.100039
23:31:10:710272,0.000174533,-0.58198,1.18736,-5.23599e-05,1.3519,-0.000139626,0,0,0,0,0,0,0,0.054,-0.247,0,0,0.001,-4.641,13.524,-15.456,-3.416,0.208532,0.139491
23:31:10:715415,0.000174533,-0.58198,1.18736,-6.98132e-05,1.3519,-0.000139626,0,0,0,0,0,0,-0.003,0.042,-0.183,0,0,0.001,-4.746,14.371,-15.407,-3.99,0.097221,0.016908
23:31:10:720401,0.000174533,-0.58198,1.18736,-6.98132e-05,1.3519,-0.000139626,0,0,0,0,0,0,-0.002,0.011,-0.011,0,0,0,-4.746,14.378,-15.694,-3.689,0.12681,0.004227
23:31:10:725519,0.000174533,-0.58198,1.18736,-6.98132e-05,1.3519,-0.000139626,0,0,0,0,0,0,-0.006,-0.01,0.11,0,-0.001,-0.001,-4.711,13.986,-15.624,-3.829,0.291663,0.101448
23:31:10:730520,0.000174533,-0.58198,1.18736,-6.98132e-05,1.3519,-0.000139626,0,0,0,0,0,0,-0.025,-0.035,0.202,0,0,-0.002,-4.823,14.875,-15.414,-3.836,0.156399,-0.040861
23:31:10:735716,0.000174533,-0.58198,1.18736,-6.98132e-05,1.3519,-0.000139626,0,0,0,0,0,0,-0.046,-0.04,0.179,0,0,-0.002,-5.138,13.489,-16.24,-4.137,0.102857,0.039452
23:31:10:740698,0.000174533,-0.58198,1.18736,-6.98132e-05,1.3519,-0.000139626,0,0,0,0,0,0,-0.078,-0.025,0.047,0,0,-0.002,-4.361,14.532,-15.379,-3.577,0.080313,0.063405
23:31:10:745824,0.000174533,-0.58198,1.18736,-6.98132e-05,1.3519,-0.000139626,0,0,0,0,0,0,-0.099,-0.002,-0.101,0,0,-0.001,-4.578,14.448,-15.722,-3.64,0.166262,-0.016908
23:31:10:750825,0.000174533,-0.58198,1.18736,-6.98132e-05,1.3519,-0.000139626,0,0,0,0,0,0,-0.108,-0.001,-0.162,0,0,0,-4.97,14.14,-15.911,-4.221,0.142309,0.022544
23:31:10:755959,0.000174533,-0.58198,1.18736,-6.98132e-05,1.3519,-0.000139626,0,0,0,0,0,0,-0.122,-0.02,-0.172,0,0,0,-4.312,14.721,-15.666,-3.43,0.181761,-0.060587
23:31:10:760947,0.000174533,-0.58198,1.18736,-6.98132e-05,1.3519,-0.000139626,0,0,0,0,0,0,-0.135,-0.027,-0.125,0,0,0,-4.781,13.412,-16.261,-4.116,0.077495,0.039452
23:31:10:766073,0.000174533,-0.58198,1.18736,-6.98132e-05,1.3519,-0.000139626,0,0,0,0,0,0,-0.147,-0.014,0.01,0,0,-0.001,-4.802,13.993,-15.967,-3.92,0.128219,0.09863
23:31:10:771105,0.000174533,-0.58198,1.18736,-6.98132e-05,1.3519,-0.000139626,0,0,0,0,0,0,-0.137,-0.002,0.11,0,0,-0.002,-4.438,14.644,-15.848,-4.228,0.097221,0.019726
23:31:10:776213,0.000174533,-0.58198,1.18736,-6.98132e-05,1.3519,-0.000139626,0,0,0,0,0,0,-0.086,-0.007,0.154,0,0,-0.002,-4.522,14.259,-15.358,-3.5,0.16908,0.04227
23:31:10:781214,0.000174533,-0.58198,1.18736,-6.98132e-05,1.3519,-0.000139626,0,0,0,0,0,0,-0.045,-0.019,0.07,0,0,-0.001,-4.837,13.216,-15.001,-3.731,0.12681,0.004227
23:31:10:786145,0.000174533,-0.58198,1.18736,-6.98132e-05,1.3519,-0.000139626,0,0,0,0,0,0,-0.008,-0.015,-0.134,0,0,0.001,-4.375,13.874,-16.128,-3.493,0.121174,-0.038043
23:31:10:791339,0.000174533,-0.58198,1.18736,-6.98132e-05,1.3519,-0.000139626,0,0,0,0,0,0,-0.005,0.01,-0.216,0,0,0.002,-4.438,14.14,-15.827,-4.004,0.102857,0.063405
23:31:10:796340,0.000174533,-0.58198,1.18736,-6.98132e-05,1.3519,-0.000139626,0,0,0,0,0,0,-0.006,0.053,-0.182,0,0,0.002,-4.543,14.259,-15.456,-4.249,0.076086,0.060587
23:31:10:801444,0.000174533,-0.58198,1.18736,-6.98132e-05,1.3519,-0.000139626,0,0,0,0,0,0,0.006,0.063,-0.113,0,0,0.001,-4.977,14.301,-15.862,-3.759,0.102857,0.1409
23:31:10:806390,0.000174533,-0.58198,1.18736,-6.98132e-05,1.3519,-0.000139626,0,0,0,0,0,0,0.04,0.044,-0.072,0,0,0,-4.403,13.678,-16.268,-3.822,0.074677,0.104266
23:31:10:811586,0.000174533,-0.58198,1.18736,-6.98132e-05,1.3519,-0.000139626,0,0,0,0,0,0,0.051,0.025,-0.087,0,0,0,-4.858,13.139,-15.498,-3.92,0.187397,0.021135
23:31:10:816536,0.000174533,-0.58198,1.18736,-6.98132e-05,1.3519,-0.000139626,0,0,0,0,0,0,0.03,0.008,-0.084,0,0,0,-4.62,14.49,-15.799,-3.647,0.122583,0.080313
23:31:10:821698,0.000174533,-0.58198,1.18736,-6.98132e-05,1.3519,-0.000139626,0,0,0,0,0,0,0.002,0.004,-0.039,0,0,0,-5.061,13.874,-15.701,-3.283,0.194442,0
23:31:10:826657,0.000174533,-0.58198,1.18736,-6.98132e-05,1.3519,-0.000139626,0,0,0,0,0,0,-0.023,0.003,0.016,0,0,0,-5.117,14.49,-15.799,-3.941,0.173307,0.081722
23:31:10:831710,0.000174533,-0.58198,1.18736,-6.98132e-05,1.3519,-0.000139626,0,0,0,0,0,0,-0.018,0.005,-0.013,0,0,0,-4.578,13.37,-15.988,-4.277,0.104266,0.023953
23:31:10:836819,0.000174533,-0.58198,1.18736,-6.98132e-05,1.3519,-0.000139626,0,0,0,0,0,0,0.007,0.013,-0.158,0,0,0.001,-4.9,13.251,-16.17,-3.878,0.202896,0.019726
23:31:10:841788,0.000174533,-0.58198,1.18736,-6.98132e-05,1.3519,-0.000139626,0,0,0,0,0,0,0.023,0.018,-0.274,0,0,0.001,-4.207,14.14,-15.827,-3.528,0.163444,0.001409
23:31:10:846957,0.000174533,-0.58198,1.18736,-6.98132e-05,1.3519,-0.000139626,0,0,0,0,0,0,0.017,0.017,-0.266,0,0,0.001,-4.529,13.909,-15.694,-3.801,0.233894,0.036634
23:31:10:851960,0.000174533,-0.58198,1.18736,-6.98132e-05,1.3519,-0.000139626,0,0,0,0,0,0,-0.009,0.014,-0.14,0,0,0,-5.215,13.762,-16.051,-3.899,0.107084,0.064814
23:31:10:857072,0.000174533,-0.58198,1.18736,-6.98132e-05,1.3519,-0.000139626,0,0,0,0,0,0,-0.022,0.014,-0.041,0,0,0,-4.984,14.028,-15.757,-3.724,0.162035,0
23:31:10:862073,0.000174533,-0.58198,1.18736,-6.98132e-05,1.3519,-0.000139626,0,0,0,0,0,0,-0.014,0.029,0.023,0,0,0,-4.767,13.832,-15.162,-3.78,0.147945,-0.059178
23:31:10:867220,0.000174533,-0.58198,1.18736,-6.98132e-05,1.3519,-0.000139626,0,0,0,0,0,0,0.001,0.051,-0.014,0,0,0,-4.613,13.832,-14.833,-4.501,0.200078,0.040861
23:31:10:872197,0.000174533,-0.58198,1.18736,-6.98132e-05,1.3519,-0.000139626,0,0,0,0,0,0,0.016,0.084,-0.143,0,0,0.002,-4.557,14.028,-15.701,-3.871,0.135264,0.001409
23:31:10:877317,0.000174533,-0.58198,1.18736,-6.98132e-05,1.3519,-0.000139626,0,0,0,0,0,0,0.011,0.085,-0.214,0,0,0.002,-4.249,14.217,-15.617,-3.948,0.12681,0.040861
23:31:10:882320,0.000174533,-0.58198,1.18736,-6.98132e-05,1.3519,-0.000139626,0,0,0,0,0,0,-0.006,0.039,-0.225,0,0,0.001,-4.914,13.755,-15.498,-3.955,0.207123,0.060587
23:31:10:887360,0.000174533,-0.58198,1.18736,-6.98132e-05,1.3519,-0.000139626,0,0,0,0,0,0,-0.016,-0.001,-0.18,0,0,0.001,-4.046,14.182,-16.219,-3.402,0.061996,0.018317
23:31:10:892455,0.000174533,-0.58198,1.18736,-6.98132e-05,1.3519,-0.000139626,0,0,0,0,0,0,-0.028,-0.022,-0.093,0,0,0.001,-4.515,14.14,-15.778,-4.27,0.009863,0.023953
23:31:10:897446,0.000174533,-0.58198,1.18736,-6.98132e-05,1.3519,-0.000139626,0,0,0,0,0,0,-0.035,-0.003,-0.031,0,0,0,-4.837,14.609,-15.932,-3.668,0.095812,0.04227
23:31:10:902569,0.000174533,-0.58198,1.18736,-6.98132e-05,1.3519,-0.000139626,0,0,0,0,0,0,-0.037,0.031,0.078,0,0,0,-4.725,14.182,-15.064,-3.948,0.170489,0.081722
23:31:10:907584,0.000174533,-0.58198,1.18736,-6.98132e-05,1.3519,-0.000139626,0,0,0,0,0,0,-0.035,0.034,0.144,0,0,0,-4.809,14.385,-15.624,-3.829,0.090176,0.063405
23:31:10:912708,0.000174533,-0.58198,1.18736,-6.98132e-05,1.3519,-0.000139626,0,0,0,0,0,0,-0.038,0.021,0.148,0,0,-0.001,-4.599,13.993,-16.261,-3.367,0.054951,0.078904
23:31:10:917708,0.000174533,-0.58198,1.18736,-6.98132e-05,1.3519,-0.000139626,0,0,0,0,0,0,-0.047,0.026,0.054,0,0,0,-4.935,14.259,-15.141,-3.976,0.102857,0.083131
23:31:10:922819,0.000174533,-0.58198,1.18736,-6.98132e-05,1.3519,-0.000139626,0,0,0,0,0,0,-0.052,0.065,-0.18,0,0,0.001,-4.417,14.42,-15.512,-4.431,0.135264,-0.018317
23:31:10:927815,0.000174533,-0.58198,1.18736,-6.98132e-05,1.3519,-0.000139626,0,0,0,0,0,0,-0.03,0.095,-0.35,0,0,0.002,-4.249,13.727,-14.875,-3.703,0.190215,0.039452
23:31:10:932942,0.000174533,-0.58198,1.18736,-6.98132e-05,1.3519,-0.000139626,0,0,0,0,0,0,-0.013,0.083,-0.347,0,0,0.002,-5.047,14.917,-15.904,-3.507,0.163444,0
23:31:10:937940,0.000174533,-0.58198,1.18736,-6.98132e-05,1.3519,-0.000139626,0,0,0,0,0,0,-0.016,0.022,-0.188,0,0,0.002,-5.019,13.839,-15.785,-3.815,0.123992,0.180352
23:31:10:943076,0.000174533,-0.58198,1.18736,-6.98132e-05,1.3519,-0.000139626,0,0,0,0,0,0,-0.035,-0.019,-0.065,0,0,0.001,-4.62,14.84,-15.974,-3.829,0.133855,0.060587
23:31:10:948068,0.000174533,-0.58198,1.18736,-6.98132e-05,1.3519,-0.000139626,0,0,0,0,0,0,-0.048,-0.041,0.007,0,0.001,0,-5.089,13.944,-15.512,-4.102,0.109902,0.061996
23:31:10:953068,0.000174533,-0.58198,1.18736,-6.98132e-05,1.3519,-0.000139626,0,0,0,0,0,0,-0.033,-0.024,-0.029,0,0,0,-4.732,14.147,-15.624,-3.801,0.133855,-0.038043
23:31:10:958206,0.000174533,-0.58198,1.18736,-6.98132e-05,1.3519,-0.000139626,0,0,0,0,0,0,0.002,0.016,-0.12,0,0,0,-5.18,14.105,-15.967,-4.172,0.077495,-0.038043
23:31:10:963216,0.000174533,-0.58198,1.18736,-6.98132e-05,1.3519,-0.000139626,0,0,0,0,0,0,0.013,0.034,-0.132,0,0,0,-5.026,14.224,-15.967,-3.738,0.097221,-0.118356
23:31:10:968332,0.000174533,-0.58198,1.18736,-6.98132e-05,1.3519,-0.000139626,0,0,0,0,0,0,0.006,0.035,-0.025,0,0,0,-4.249,14.343,-15.827,-4.116,0.119765,0.001409
23:31:10:973318,0.000174533,-0.58198,1.18736,-6.98132e-05,1.3519,-0.000139626,0,0,0,0,0,0,-0.004,0.019,0.096,0,0,-0.001,-4.662,14.301,-15.498,-3.5,0.16908,0.059178
23:31:10:978263,0.000174533,-0.58198,1.18736,-6.98132e-05,1.3519,-0.000139626,0,0,0,0,0,0,-0.019,-0.012,0.206,0,0,-0.001,-4.662,14.525,-16.562,-3.92,0.187397,0.060587
23:31:10:983479,0.000174533,-0.58198,1.18736,-6.98132e-05,1.3519,-0.000139626,0,0,0,0,0,0,-0.023,-0.023,0.157,0,0,0,-4.613,14.182,-15.701,-3.787,0.147945,-0.019726
23:31:10:988426,0.000174533,-0.58198,1.18736,-6.98132e-05,1.3519,-0.000139626,0,0,0,0,0,0,-0.001,-0.01,-0.067,0,0,0,-4.844,13.678,-15.603,-3.934,0.061996,0.018317
23:31:10:993565,0.000174533,-0.58198,1.18736,-6.98132e-05,1.3519,-0.000139626,0,0,0,0,0,0,0.027,0.003,-0.199,0,0,0.001,-4.732,14.567,-15.932,-3.759,0.142309,0.078904
23:31:10:998513,0.000174533,-0.58198,1.18736,-6.98132e-05,1.3519,-0.000139626,0,0,0,0,0,0,0.045,-0.011,-0.186,0,0,0.001,-4.879,13.643,-15.722,-3.892,0.119765,-0.039452
23:31:11:3692,0.000174533,-0.581998,1.18736,-6.98132e-05,1.3519,-0.000139626,0,0,0,0,0,0,0.019,-0.043,-0.06,0,0,0,-4.613,13.881,-15.82,-4.655,0.194442,-0.001409
23:31:11:8636,0.000174533,-0.581998,1.18736,-6.98132e-05,1.3519,-0.000139626,0,0,0,0,0,0,-0.036,-0.073,0.083,0,0,-0.001,-5.292,14.644,-15.512,-4.067,0.229667,-0.001409
23:31:11:13810,0.000174533,-0.581998,1.18736,-6.98132e-05,1.3519,-0.000139626,0,0,0,0,0,0,-0.027,-0.042,-0.013,0,0,0,-4.571,13.692,-15.701,-4.207,0.080313,0.205714
23:31:11:18830,0.000174533,-0.581998,1.18736,-6.98132e-05,1.3519,-0.000139626,0,0,0,0,0,0,0.021,-0.016,-0.152,0,0,0.001,-4.564,13.524,-15.694,-3.955,0.170489,0.004227
23:31:11:23953,0.000174533,-0.581998,1.18736,-6.98132e-05,1.3519,-0.000139626,0,0,0,0,0,0,0.074,-0.016,-0.264,0,0,0.003,-5.138,14.217,-15.848,-3.766,0.104266,0.142309
23:31:11:28952,0.000174533,-0.581998,1.18736,-6.98132e-05,1.3519,-0.000139626,0,0,0,0,0,0,0.062,-0.034,-0.215,0,0,0.002,-4.949,14.805,-15.778,-3.969,0.139491,0.04227
23:31:11:34076,0.000174533,-0.581998,1.18736,-6.98132e-05,1.3519,-0.000139626,0,0,0,0,0,0,0.005,-0.038,-0.024,0,0,0,-4.865,14.602,-15.967,-3.969,-0.001409,0.083131
23:31:11:39066,0.000174533,-0.581998,1.18736,-6.98132e-05,1.3519,-0.000139626,0,0,0,0,0,0,-0.011,-0.022,0.102,0,0,-0.001,-4.641,14.378,-15.862,-3.899,0.033816,-0.019726
23:31:11:44011,0.000174533,-0.581998,1.18736,-6.98132e-05,1.3519,-0.000139626,0,0,0,0,0,0,0.017,-0.001,0.189,0,0,-0.002,-4.802,13.398,-14.476,-3.521,0.095812,0.016908
23:31:11:49192,0.000174533,-0.581998,1.18736,-6.98132e-05,1.3519,-0.000139626,0,0,0,0,0,0,0.042,-0.001,0.17,0,0,-0.002,-4.914,14.147,-15.022,-3.633,0.146536,0.002818
23:31:11:54187,0.000174533,-0.581998,1.18736,-6.98132e-05,1.3519,-0.000139626,0,0,0,0,0,0,0.031,-0.014,0.11,0,0,-0.001,-5.194,14.322,-15.211,-3.934,0.083131,0.097221
23:31:11:59313,0.000174533,-0.581998,1.18736,-6.98132e-05,1.3519,-0.000139626,0,0,0,0,0,0,-0.007,-0.021,0.107,0,0,0,-5.187,13.916,-15.554,-3.654,0.054951,0.040861
23:31:11:64260,0.000174533,-0.581998,1.18736,-6.98132e-05,1.3519,-0.000139626,0,0,0,0,0,0,-0.059,-0.02,0.14,0,0,0,-4.62,14.987,-15.582,-3.934,0.123992,0.142309
23:31:11:69314,0.000174533,-0.581998,1.18736,-6.98132e-05,1.3519,-0.000139626,0,0,0,0,0,0,-0.062,-0.007,0.11,0,0,0,-4.375,14.07,-16.149,-4.389,0.214168,0.001409
23:31:11:74436,0.000174533,-0.581998,1.18736,-6.98132e-05,1.3519,-0.000139626,0,0,0,0,0,0,-0.031,0.024,-0.065,0,0,0.001,-4.515,13.188,-15.456,-4.424,0.059178,0.038043
23:31:11:79578,0.000174533,-0.581998,1.18736,-6.98132e-05,1.3519,-0.000139626,0,0,0,0,0,0,-0.017,0.039,-0.191,0,0,0.002,-4.879,14.266,-15.47,-3.997,0.145127,0.09863
23:31:11:84519,0.000174533,-0.581998,1.18736,-6.98132e-05,1.3519,-0.000139626,0,0,0,0,0,0,-0.041,0.043,-0.23,0,0,0.001,-4.641,14.49,-15.736,-3.906,0.102857,-0.019726
23:31:11:89707,0.000174533,-0.581998,1.18736,-6.98132e-05,1.3519,-0.000139626,0,0,0,0,0,0,-0.071,0.044,-0.159,0,0,0,-4.97,14.021,-16.149,-4.361,0.085949,0.040861
23:31:11:94698,0.000174533,-0.581998,1.18736,-6.98132e-05,1.3519,-0.000139626,0,0,0,0,0,0,-0.083,0.053,-0.055,0,0,-0.001,-4.641,14.182,-16.023,-4.081,0.085949,0.102857
23:31:11:99806,0.000174533,-0.581998,1.18736,-6.98132e-05,1.3519,-0.000139626,0,0,0,0,0,0,-0.047,0.04,-0.029,0,0,-0.001,-4.718,14.14,-15.946,-3.955,0.167671,0.143718
23:31:11:104772,0.000174533,-0.581998,1.18736,-6.98132e-05,1.3519,-0.000139626,0,0,0,0,0,0,-0.021,0.006,-0.013,0,0,0,-4.697,13.65,-16.093,-4.305,0.09863,0.081722
23:31:11:109957,0.000174533,-0.581998,1.18736,-6.98132e-05,1.3519,-0.000139626,0,0,0,0,0,0,-0.005,-0.049,0.041,0,0,0,-5.082,13.944,-15.624,-3.899,0.119765,0.145127
23:31:11:114948,0.000174533,-0.581998,1.18736,-6.98132e-05,1.3519,-0.000139626,0,0,0,0,0,0,-0.006,-0.058,0.071,0,0,0,-4.963,14.224,-15.89,-3.724,0.121174,0.004227
23:31:11:120071,0.000174533,-0.581998,1.18736,-6.98132e-05,1.3519,-0.000139626,0,0,0,0,0,0,-0.013,-0.025,0.072,0,0,0,-4.655,14.378,-16.023,-3.416,0.156399,0.018317
23:31:11:125020,0.000174533,-0.581998,1.18736,-6.98132e-05,1.3519,-0.000139626,0,0,0,0,0,0,-0.023,-0.005,0.057,0,0,0,-4.452,14.301,-15.379,-4.445,0.078904,0.019726
23:31:11:130071,0.000174533,-0.581998,1.18736,-6.98132e-05,1.3519,-0.000139626,0,0,0,0,0,0,-0.036,-0.013,0.022,0,0,0,-5.033,14.14,-16.331,-3.983,0.232485,0.101448
23:31:11:135181,0.000174533,-0.581998,1.18736,-6.98132e-05,1.3519,-0.000139626,0,0,0,0,0,0,-0.03,-0.033,-0.022,0,0,0,-4.746,13.804,-16.177,-3.703,0.107084,0.001409
23:31:11:140306,0.000174533,-0.581998,1.18736,-6.98132e-05,1.3519,-0.000139626,0,0,0,0,0,0,0.013,-0.045,-0.088,0,0,0.001,-4.508,14.455,-15.232,-3.703,0.125401,0.081722
23:31:11:145306,0.000174533,-0.581998,1.18736,-6.98132e-05,1.3519,-0.000139626,0,0,0,0,0,0,0.048,-0.039,-0.077,0,0,0.001,-4.69,13.79,-15.337,-3.717,0.136673,0.018317
23:31:11:150308,0.000174533,-0.581998,1.18736,-6.98132e-05,1.3519,-0.000139626,0,0,0,0,0,0,0.071,-0.031,0.036,0,-0.001,0,-4.746,14.252,-16.373,-3.08,0.09863,0.040861
23:31:11:155431,0.000174533,-0.581998,1.18736,-6.98132e-05,1.3519,-0.000139626,0,0,0,0,0,0,0.06,-0.031,0.109,0,-0.001,0,-4.417,14.07,-15.225,-4.305,0.142309,0.019726
23:31:11:160429,0.000174533,-0.581998,1.18736,-6.98132e-05,1.3519,-0.000139626,0,0,0,0,0,0,0.024,-0.025,0.085,0,0,0,-5.264,14.07,-15.869,-3.843,0.104266,-0.081722
23:31:11:165554,0.000174533,-0.581998,1.18736,-6.98132e-05,1.3519,-0.000139626,0,0,0,0,0,0,0.003,-0.014,-0.019,0,0,0,-4.879,14.602,-15.512,-3.5,0.131037,-0.018317
23:31:11:170501,0.000174533,-0.581998,1.18736,-6.98132e-05,1.3519,-0.000139626,0,0,0,0,0,0,-0.016,-0.003,-0.182,0,0,0.001,-4.858,13.951,-16.051,-3.836,0.076086,0.040861
23:31:11:175698,0.000174533,-0.581998,1.18736,-6.98132e-05,1.3519,-0.000139626,0,0,0,0,0,0,-0.024,-0.006,-0.213,0,0,0.001,-5.215,13.958,-15.932,-4.165,0.122583,0.019726
23:31:11:180647,0.000174533,-0.581998,1.18736,-6.98132e-05,1.3519,-0.000139626,0,0,0,0,0,0,-0.015,-0.013,-0.123,0,0,0.001,-4.809,13.993,-15.904,-4.123,0.076086,0.039452
23:31:11:185646,0.000174533,-0.581998,1.18736,-6.98132e-05,1.3519,-0.000139626,0,0,0,0,0,0,0.009,-0.008,-0.028,0,0,0.001,-4.473,13.23,-15.967,-4.123,0.036634,0.04227
23:31:11:190764,0.000174533,-0.581998,1.18736,-6.98132e-05,1.3519,-0.000139626,0,0,0,0,0,0,0.053,0.008,0.049,0,0,0,-4.305,14.441,-15.799,-4.389,0.08454,0.040861
23:31:11:195805,0.000174533,-0.581998,1.18736,-6.98132e-05,1.3519,-0.000139626,0,0,0,0,0,0,0.053,0.019,0.026,0,0,0,-4.62,14.798,-15.617,-3.822,0.171898,-0.080313
23:31:11:200959,0.000174533,-0.581998,1.18736,-6.98132e-05,1.3519,-0.000139626,0,0,0,0,0,0,0.023,0.02,0.004,0,0,0,-5.117,13.839,-15.043,-3.787,0.123992,0.081722
23:31:11:205950,0.000174533,-0.581998,1.18736,-6.98132e-05,1.3519,-0.000139626,0,0,0,0,0,0,-0.025,0.016,0.018,0,0,0,-4.277,14.441,-15.645,-3.353,0.131037,0.083131
23:31:11:211070,0.000174533,-0.581998,1.18736,-8.72665e-05,1.3519,-0.000139626,0,0,0,0,0,0,-0.033,0.012,0.043,0,0,0,-5.25,13.146,-15.778,-3.85,0.104266,-0.019726
23:31:11:216068,0.000174533,-0.581998,1.18736,-8.72665e-05,1.3519,-0.000139626,0,0,0,0,0,0,-0.007,0.006,0.052,0,0,0,-5.089,14.791,-15.645,-3.486,0.12681,0.039452
23:31:11:221054,0.000174533,-0.581998,1.18736,-8.72665e-05,1.3519,-0.000139626,0,0,0,0,0,0,0.016,0.002,0.039,0,0,0,-4.396,14,-15.694,-3.325,0.080313,0.08454
23:31:11:226180,0.000174533,-0.581998,1.18736,-8.72665e-05,1.3519,-0.000139626,0,0,0,0,0,0,0.034,-0.008,0.019,0,0,0,-4.361,14.042,-15.701,-3.941,0.104266,-0.05636
23:31:11:231277,0.000174533,-0.581998,1.18736,-8.72665e-05,1.3519,-0.000139626,0,0,0,0,0,0,0.037,-0.013,0.003,0,0,0,-4.578,13.412,-15.743,-3.787,0.085949,0.039452
23:31:11:236318,0.000174533,-0.581998,1.18736,-8.72665e-05,1.3519,-0.000139626,0,0,0,0,0,0,0.044,0.002,-0.044,0,0,0.001,-4.235,13.762,-14.987,-3.423,0.125401,0.101448
23:31:11:241303,0.000174533,-0.581998,1.18736,-8.72665e-05,1.3519,-0.000139626,0,0,0,0,0,0,0.052,0.028,-0.075,0,0,0.001,-4.599,13.79,-15.925,-4.536,0.291663,0.060587
23:31:11:246431,0.000174533,-0.581998,1.18736,-8.72665e-05,1.3519,-0.000139626,0,0,0,0,0,0,0.054,0.055,-0.066,0,0,0.001,-5.264,13.909,-15.932,-3.85,0.040861,0
23:31:11:251443,0.000174533,-0.581998,1.18736,-8.72665e-05,1.3519,-0.000139626,0,0,0,0,0,0,0.042,0.043,-0.024,0,0,0,-4.648,14.413,-15.582,-3.682,0.100039,0.016908
23:31:11:256577,0.000174533,-0.581998,1.18736,-8.72665e-05,1.3519,-0.000139626,0,0,0,0,0,0,0.008,-0.006,0.035,0,0,0,-4.634,13.615,-15.967,-4.011,0.142309,0.083131
23:31:11:261524,0.000174533,-0.581998,1.18736,-8.72665e-05,1.3519,-0.000139626,0,0,0,0,0,0,-0.015,-0.026,0.04,0,0,0,-4.543,14.182,-15.617,-3.934,0.214168,0.021135
23:31:11:266550,0.000174533,-0.581998,1.18736,-8.72665e-05,1.3519,-0.000139626,0,0,0,0,0,0,-0.043,-0.004,-0.01,0,0,0,-4.109,14.378,-15.449,-3.85,0.166262,-0.018317
23:31:11:271622,0.000174533,-0.581998,1.18736,-8.72665e-05,1.3519,-0.000139626,0,0,0,0,0,0,-0.058,0.032,-0.061,0,0,0,-4.354,13.328,-15.582,-3.801,0.080313,0.159217
23:31:11:276697,0.000174533,-0.581998,1.18736,-8.72665e-05,1.3519,-0.000139626,0,0,0,0,0,0,-0.083,0.066,-0.115,0,0,0,-4.508,14.567,-15.694,-3.801,0.038043,0.04227
23:31:11:281798,0.000174533,-0.581998,1.18736,-8.72665e-05,1.3519,-0.000139626,0,0,0,0,0,0,-0.11,0.042,-0.132,0,0,0,-4.914,13.958,-15.274,-4.123,0.207123,0.039452
23:31:11:286818,0.000174533,-0.581998,1.18736,-8.72665e-05,1.3519,-0.000139626,0,0,0,0,0,0,-0.116,0.005,-0.141,0,0,0,-4.879,14.378,-14.903,-3.815,0.212759,0.119765
23:31:11:291942,0.000174533,-0.581998,1.18736,-8.72665e-05,1.3519,-0.000139626,0,0,0,0,0,0,-0.092,-0.032,-0.157,0,0,0,-4.781,13.335,-16.009,-3.871,0.040861,0.019726
23:31:11:296942,0.000174533,-0.581998,1.18736,-8.72665e-05,1.3519,-0.000139626,0,0,0,0,0,0,-0.061,-0.03,-0.14,0,0,0,-4.655,14.735,-16.093,-3.773,0.107084,0.019726
23:31:11:301875,0.000174533,-0.581998,1.18736,-8.72665e-05,1.3519,-0.000139626,0,0,0,0,0,0,-0.027,0,-0.02,0,0,0,-4.298,13.762,-15.974,-4.277,0.076086,0.142309
23:31:11:307050,0.000174533,-0.581998,1.18736,-8.72665e-05,1.3519,-0.000139626,0,0,0,0,0,0,-0.024,0.011,0.1,0,0,0,-5.383,13.713,-15.498,-3.92,0.061996,0.001409
23:31:11:312018,0.000174533,-0.581998,1.18736,-8.72665e-05,1.3519,-0.000139626,0,0,0,0,0,0,-0.029,-0.004,0.231,0,0,-0.001,-4.144,13.608,-15.47,-3.969,0.039452,0.019726
23:31:11:317133,0.000174533,-0.581998,1.18736,-8.72665e-05,1.3519,-0.000139626,0,0,0,0,0,0,-0.02,-0.023,0.226,0,0,-0.001,-4.935,14.105,-15.414,-3.766,0.077495,0.021135
23:31:11:322188,0.000174533,-0.581998,1.18736,-8.72665e-05,1.3519,-0.000139626,0,0,0,0,0,0,0.013,-0.028,0.09,0,0,0,-4.599,14.413,-15.554,-4.102,0.123992,0.040861
23:31:11:327298,0.000174533,-0.581998,1.18736,-8.72665e-05,1.3519,-0.000139626,0,0,0,0,0,0,0.034,-0.014,-0.015,0,0,0.001,-5.047,14.028,-15.778,-3.787,0.118356,-0.016908
23:31:11:332269,0.000174533,-0.581998,1.18736,-8.72665e-05,1.3519,-0.000139626,0,0,0,0,0,0,0.045,0.006,-0.079,0,0,0.001,-4.438,14,-15.512,-3.801,0.107084,0.040861
23:31:11:337465,0.000174533,-0.581998,1.18736,-8.72665e-05,1.3519,-0.000139626,0,0,0,0,0,0,0.041,0.015,-0.065,0,0,0.001,-5.131,13.811,-15.435,-3.808,0.049315,-0.036634
23:31:11:342367,0.000174533,-0.581998,1.18736,-8.72665e-05,1.3519,-0.000139626,0,0,0,0,0,0,0.024,0.026,-0.065,0,0,0.001,-4.543,14.028,-15.89,-3.906,0.142309,0.060587
23:31:11:347546,0.000174533,-0.581998,1.18736,-8.72665e-05,1.3519,-0.000139626,0,0,0,0,0,0,0.005,0.029,-0.105,0,0,0.001,-5.026,14.616,-15.932,-3.822,0.011272,0.043679
23:31:11:352547,0.000174533,-0.581998,1.18736,-8.72665e-05,1.3519,-0.000139626,0,0,0,0,0,0,-0.013,0.01,-0.12,0,0,0.001,-5.306,14.07,-15.722,-3.668,0.063405,0.002818
23:31:11:357670,0.000174533,-0.581998,1.18736,-8.72665e-05,1.3519,-0.000139626,0,0,0,0,0,0,-0.007,-0.013,-0.026,0,0,0.001,-4.949,14.875,-16.359,-3.99,0.125401,0.123992
23:31:11:362670,0.000174533,-0.581998,1.18736,-8.72665e-05,1.3519,-0.000139626,0,0,0,0,0,0,0.021,-0.036,0.229,0,-0.001,0,-4.949,13.874,-15.799,-3.864,0.188806,-0.018317
23:31:11:367812,0.000174533,-0.581998,1.18736,-8.72665e-05,1.3519,-0.000139626,0,0,0,0,0,0,0.017,-0.024,0.386,0,-0.001,-0.002,-4.872,13.58,-16.086,-3.535,0.181761,0.040861
23:31:11:372794,0.000174533,-0.581998,1.18736,-8.72665e-05,1.3519,-0.000139626,0,0,0,0,0,0,-0.018,-0.014,0.349,0,0,-0.002,-3.843,14.301,-16.086,-3.955,0.178943,0.163444
23:31:11:377921,0.000174533,-0.581998,1.18736,-8.72665e-05,1.3519,-0.000139626,0,0,0,0,0,0,-0.08,-0.023,0.17,0,0,-0.001,-4.151,14.147,-15.624,-4.102,0.249393,0.060587
23:31:11:382945,0.000174533,-0.581998,1.18736,-8.72665e-05,1.3519,-0.000139626,0,0,0,0,0,0,-0.093,-0.042,0.071,0,0,0,-5.509,13.748,-15.694,-3.92,0.171898,-0.063405
23:31:11:388054,0.000174533,-0.581998,1.18736,-8.72665e-05,1.3519,-0.000139626,0,0,0,0,0,0,-0.062,-0.053,0.03,0,0,0,-4.543,14.224,-15.82,-4.424,0.080313,0
23:31:11:393059,0.000174533,-0.581998,1.18736,-8.72665e-05,1.3519,-0.000139626,0,0,0,0,0,0,-0.034,-0.038,0.047,0,0,0,-4.746,14.574,-15.624,-4.053,0.185988,0.039452
23:31:11:397988,0.000174533,-0.581998,1.18736,-8.72665e-05,1.3519,-0.000139626,0,0,0,0,0,0,-0.011,-0.004,0.082,0,0,0,-4.508,14.644,-15.848,-3.969,0.170489,0.001409
23:31:11:403213,0.000174533,-0.581998,1.18736,-8.72665e-05,1.3519,-0.000139626,0,0,0,0,0,0,-0.003,0.009,0.097,0,0,-0.001,-4.676,13.958,-15.351,-3.731,0.167671,0.038043
23:31:11:408149,0.000174533,-0.581998,1.18736,-8.72665e-05,1.3519,-0.000139626,0,0,0,0,0,0,0.019,0.014,0.085,0,0,-0.001,-4.851,14.077,-15.477,-3.633,0.185988,0.064814
23:31:11:413172,0.000174533,-0.581998,1.18736,-8.72665e-05,1.3519,-0.000139626,0,0,0,0,0,0,0.034,0.018,0.05,0,0,0,-4.326,14.798,-16.296,-3.619,0.25362,0.021135
23:31:11:418293,0.000174533,-0.581998,1.18736,-8.72665e-05,1.3519,-0.000139626,0,0,0,0,0,0,0.032,0.022,0.008,0,0,0,-4.578,14.224,-16.093,-4.193,0.09863,0.019726
23:31:11:423443,0.000174533,-0.581998,1.18736,-8.72665e-05,1.3519,-0.000139626,0,0,0,0,0,0,0.016,0.013,0.03,0,0,0,-4.711,14.028,-15.89,-4.249,0.053542,0
23:31:11:428436,0.000174533,-0.581998,1.18736,-8.72665e-05,1.3519,-0.000139626,0,0,0,0,0,0,-0.005,-0.026,0.129,0,0,0,-4.935,14.497,-15.393,-3.934,0.040861,0.163444
23:31:11:433366,0.000174533,-0.581998,1.18736,-8.72665e-05,1.3519,-0.000139626,0,0,0,0,0,0,-0.009,-0.053,0.181,0,0,-0.001,-5.04,14.567,-16.254,-3.563,0.118356,-0.038043
23:31:11:438492,0.000174533,-0.581998,1.18736,-8.72665e-05,1.3519,-0.000139626,0,0,0,0,0,0,-0.002,-0.062,0.149,0,0,0,-4.844,14.259,-16.17,-4.291,0.125401,0.04227
23:31:11:443546,0.000174533,-0.581998,1.18736,-8.72665e-05,1.3519,-0.000139626,0,0,0,0,0,0,0.011,-0.042,0.049,0,0,0,-4.375,14.756,-15.358,-3.367,0.142309,0.142309
23:31:11:448672,0.000174533,-0.581998,1.18736,-8.72665e-05,1.3519,-0.000139626,0,0,0,0,0,0,0.047,-0.003,-0.128,0,0,0.001,-4.368,13.993,-16.177,-4.018,0.198669,0.060587
23:31:11:453628,0.000174533,-0.581998,1.18736,-8.72665e-05,1.3519,-0.000139626,0,0,0,0,0,0,0.064,0.005,-0.183,0,0,0.002,-5.152,13.419,-15.603,-4.088,0.191624,0.143718
23:31:11:458795,0.000174533,-0.581998,1.18736,-8.72665e-05,1.3519,-0.000139626,0,0,0,0,0,0,0.033,-0.009,-0.096,0,0,0.001,-5.152,15.001,-15.225,-4.018,0.078904,-0.039452
23:31:11:463747,0.000174533,-0.581998,1.18736,-8.72665e-05,1.3519,-0.000139626,0,0,0,0,0,0,-0.028,-0.017,0.023,0,0,0,-4.697,14.105,-16.072,-3.948,0.060587,-0.016908
23:31:11:468920,0.000174533,-0.581998,1.18736,-8.72665e-05,1.3519,-0.000139626,0,0,0,0,0,0,-0.118,-0.001,0.114,0,0,-0.001,-4.655,13.454,-15.498,-3.598,0.145127,0.019726
23:31:11:473944,0.000174533,-0.581998,1.18736,-8.72665e-05,1.3519,-0.000139626,0,0,0,0,0,0,-0.114,0.019,0.027,0,0,-0.001,-4.97,14.14,-15.785,-4.004,0.173307,0.043679
23:31:11:479059,0.000174533,-0.581998,1.18736,-8.72665e-05,1.3519,-0.000139626,0,0,0,0,0,0,-0.057,0.016,-0.058,0,0,0,-4.445,13.671,-15.267,-4.172,0.094403,0.002818
23:31:11:484041,0.000174533,-0.581998,1.18736,-8.72665e-05,1.3519,-0.000139626,0,0,0,0,0,0,0.037,-0.003,-0.144,0,0,0,-4.214,13.608,-15.904,-4.186,0.080313,0.039452
23:31:11:489184,0.000174533,-0.581998,1.18736,-8.72665e-05,1.3519,-0.000139626,0,0,0,0,0,0,0.064,-0.001,-0.187,0,0,0.001,-4.781,14.77,-16.065,-3.99,0.142309,-0.04227
23:31:11:494182,0.000174533,-0.581998,1.18736,-8.72665e-05,1.3519,-0.000139626,0,0,0,0,0,0,0.045,0.028,-0.246,0,0,0.002,-4.613,13.657,-15.582,-4.165,0.05636,0.078904
23:31:11:499141,0.000174533,-0.581998,1.18736,-8.72665e-05,1.3519,-0.000139626,0,0,0,0,0,0,0.019,0.044,-0.236,0,0,0.002,-5.25,13.762,-16.135,-4.41,0.259256,-0.059178
23:31:11:504306,0.000174533,-0.581998,1.18736,-8.72665e-05,1.3519,-0.000139626,0,0,0,0,0,0,0.011,0.025,-0.092,0,0,0.001,-4.438,14.805,-15.848,-3.745,0.080313,-0.001409
23:31:11:509427,0.000174533,-0.581998,1.18736,-8.72665e-05,1.3519,-0.000139626,0,0,0,0,0,0,0.03,-0.01,0.033,0,0,0,-4.9,14.371,-16.457,-3.493,0.21135,0.060587
23:31:11:514414,0.000174533,-0.581998,1.18736,-8.72665e-05,1.3519,-0.000139626,0,0,0,0,0,0,0.072,-0.052,0.105,0,0,0,-4.963,13.657,-15.785,-3.731,0.252211,0.081722
23:31:11:519429,0.000174533,-0.581998,1.18736,-8.72665e-05,1.3519,-0.000139626,0,0,0,0,0,0,0.088,-0.048,0.043,0,0,0,-4.487,14.14,-16.093,-3.969,0.076086,0.061996
23:31:11:524554,0.000174533,-0.581998,1.18736,-8.72665e-05,1.3519,-0.000139626,0,0,0,0,0,0,0.076,0.004,-0.11,0,0,0,-4.41,14.189,-16.149,-3.906,0.207123,0.038043
23:31:11:529549,0.000174533,-0.581998,1.18736,-8.72665e-05,1.3519,-0.00015708,0,0,0,0,0,0,0.051,0.04,-0.171,0,0,0,-4.494,14.301,-15.666,-3.514,0.229667,0.021135
23:31:11:534623,0.000174533,-0.581998,1.18736,-8.72665e-05,1.3519,-0.00015708,0,0,0,0,0,0,0.006,0.042,-0.15,0,0,0,-4.732,13.741,-15.904,-3.752,0.108493,0.040861
23:31:11:539670,0.000174533,-0.581998,1.18736,-8.72665e-05,1.3519,-0.00015708,0,0,0,0,0,0,-0.021,0.006,-0.082,0,0,0,-4.529,13.321,-15.645,-4.018,0.092994,0.080313
23:31:11:544784,0.000174533,-0.581998,1.18736,-8.72665e-05,1.3519,-0.00015708,0,0,0,0,0,0,-0.061,-0.046,0.049,0,0,0,-4.515,14.847,-15.799,-3.92,0.119765,0.104266
23:31:11:549786,0.000174533,-0.581998,1.18736,-8.72665e-05,1.3519,-0.00015708,0,0,0,0,0,0,-0.081,-0.05,0.131,-0.001,0,-0.001,-4.984,14.231,-15.82,-3.458,0.119765,0.001409
23:31:11:554748,0.000174533,-0.581998,1.18736,-8.72665e-05,1.3519,-0.00015708,0,0,0,0,0,0,-0.075,-0.02,0.189,0,0,-0.001,-4.305,13.636,-15.351,-3.514,0.21135,0.081722
23:31:11:559928,0.000174533,-0.581998,1.18736,-8.72665e-05,1.3519,-0.00015708,0,0,0,0,0,0,-0.022,0,0.095,0,0,0,-5.236,14.077,-15.309,-4.018,0.036634,0
23:31:11:565050,0.000174533,-0.581998,1.18736,-8.72665e-05,1.3519,-0.00015708,0,0,0,0,0,0,0.021,0.004,-0.045,0,0,0,-5.432,14.273,-15.974,-3.948,0.143718,0.04227
23:31:11:569998,0.000174533,-0.581998,1.18736,-8.72665e-05,1.3519,-0.00015708,0,0,0,0,0,0,0.061,0.018,-0.226,0,0,0.001,-5.026,14.574,-15.974,-3.297,0.081722,-0.019726
23:31:11:575179,0.000174533,-0.581998,1.18736,-8.72665e-05,1.3519,-0.00015708,0,0,0,0,0,0,0.062,0.032,-0.226,0,0,0.001,-4.634,15.071,-16.233,-3.633,0.231076,0.061996
23:31:11:580121,0.000174533,-0.581998,1.18736,-8.72665e-05,1.3519,-0.00015708,0,0,0,0,0,0,0.038,0.036,-0.041,0,0,0,-4.613,14.077,-16.128,-3.535,0.245166,0.101448
23:31:11:585163,0.000174533,-0.581998,1.18736,-8.72665e-05,1.3519,-0.00015708,0,0,0,0,0,0,0.018,0.027,0.091,0,0,0,-4.34,14.203,-15.372,-3.703,0.146536,0.101448
23:31:11:590299,0.000174533,-0.581998,1.18736,-8.72665e-05,1.3519,-0.00015708,0,0,0,0,0,0,0.002,0.016,0.137,0,0,0,-4.97,14,-15.337,-3.899,0.121174,0.039452
23:31:11:595244,0.000174533,-0.581998,1.18736,-8.72665e-05,1.3519,-0.00015708,0,0,0,0,0,0,0.002,0.012,0.093,0,-0.001,0,-5.299,14.035,-15.617,-3.563,0.138082,0.040861
23:31:11:600426,0.000174533,-0.581998,1.18736,-8.72665e-05,1.3519,-0.00015708,0,0,0,0,0,0,0.005,-0.001,0.069,0,0,0,-4.949,13.657,-15.806,-3.766,0.08454,0.018317
23:31:11:605427,0.000174533,-0.581998,1.18736,-8.72665e-05,1.3519,-0.00015708,0,0,0,0,0,0,0,-0.015,0.093,0,0,0,-4.984,14.203,-15.904,-3.934,0.066223,0.021135
23:31:11:610536,0.000174533,-0.581998,1.18736,-8.72665e-05,1.3519,-0.00015708,0,0,0,0,0,0,-0.012,-0.018,0.052,0,0,0,-4.823,13.958,-15.785,-3.794,0.150763,0.021135
23:31:11:615534,0.000174533,-0.581998,1.18736,-8.72665e-05,1.3519,-0.00015708,0,0,0,0,0,0,-0.014,-0.004,-0.055,0,0,0,-4.767,12.915,-15.841,-4.116,0.053542,-0.061996
23:31:11:620655,0.000174533,-0.581998,1.18736,-8.72665e-05,1.3519,-0.00015708,0,0,0,0,0,0,-0.001,0.012,-0.204,0,0,0.001,-4.802,13.678,-16.03,-3.479,0.191624,0.083131
23:31:11:625654,0.000174533,-0.581998,1.18736,-8.72665e-05,1.3519,-0.00015708,0,0,0,0,0,0,0.013,0.01,-0.225,0,0,0.002,-5.152,14.679,-15.659,-3.682,0.083131,0.081722
23:31:11:630659,0.000174533,-0.581998,1.18736,-8.72665e-05,1.3519,-0.00015708,0,0,0,0,0,0,0.033,0.002,-0.193,0.001,0,0.001,-4.515,13.755,-15.414,-4.004,0.018317,-0.018317
23:31:11:635798,0.000174533,-0.581998,1.18736,-8.72665e-05,1.3519,-0.00015708,0,0,0,0,0,0,0.036,0.018,-0.192,0,0,0.001,-5.019,12.971,-15.701,-3.92,0.104266,0.104266
23:31:11:640780,0.000174533,-0.581998,1.18736,-8.72665e-05,1.3519,-0.00015708,0,0,0,0,0,0,0.014,0.034,-0.176,0,0,0.001,-4.767,14.917,-15.701,-3.458,0.142309,0.063405
23:31:11:645917,0.000174533,-0.581998,1.18736,-8.72665e-05,1.3519,-0.00015708,0,0,0,0,0,0,-0.048,0.028,-0.065,0,0,0,-4.529,13.797,-15.477,-3.906,0.150763,-0.001409
23:31:11:650908,0.000174533,-0.581998,1.18736,-8.72665e-05,1.3519,-0.00015708,0,0,0,0,0,0,-0.081,0.007,0.017,0,0,0,-4.312,14.063,-16.023,-3.703,0.101448,0.057769
23:31:11:655904,0.000174533,-0.581998,1.18736,-8.72665e-05,1.3519,-0.00015708,0,0,0,0,0,0,-0.075,-0.01,0.023,0,0,0,-5.026,14.021,-16.065,-3.731,0.114129,0.101448
23:31:11:661105,0.000174533,-0.581998,1.18736,-8.72665e-05,1.3519,-0.00015708,0,0,0,0,0,0,-0.038,-0.002,-0.049,0,0,0,-4.144,14.105,-15.596,-4.123,0.178943,0.060587
23:31:11:666175,0.000174533,-0.581998,1.18736,-8.72665e-05,1.3519,-0.00015708,0,0,0,0,0,0,0.02,0.01,-0.148,0,0,0.001,-4.788,13.384,-15.974,-3.402,0.012681,-0.018317
23:31:11:671166,0.000174533,-0.581998,1.18736,-8.72665e-05,1.3519,-0.00015708,0,0,0,0,0,0,0.04,0.001,-0.154,0,0,0.001,-4.697,13.797,-15.904,-4.193,0.102857,0.021135
23:31:11:676103,0.000174533,-0.581998,1.18736,-8.72665e-05,1.3519,-0.00015708,0,0,0,0,0,0,0.043,-0.024,-0.063,0,0,0,-5.25,14.364,-16.198,-3.633,0.209941,0.018317
23:31:11:681287,0.000174533,-0.581998,1.18736,-8.72665e-05,1.3519,-0.00015708,0,0,0,0,0,0,0.036,-0.032,0.038,0,0,0,-4.655,13.72,-15.932,-3.395,0.123992,0
23:31:11:686236,0.000174533,-0.581998,1.18736,-8.72665e-05,1.3519,-0.00015708,0,0,0,0,0,0,0.019,-0.022,0.184,0,0,0,-4.004,13.86,-15.778,-3.906,0.125401,0.019726
23:31:11:691408,0.000174533,-0.581998,1.18736,-8.72665e-05,1.3519,-0.00015708,0,0,0,0,0,0,0.003,-0.014,0.225,0,0,0,-4.858,13.65,-15.659,-3.92,0.224031,-0.019726
23:31:11:696354,0.000174533,-0.581998,1.18736,-8.72665e-05,1.3519,-0.00015708,0,0,0,0,0,0,-0.03,-0.013,0.157,0,0,0,-4.816,14.161,-15.883,-3.766,0.100039,0.080313
23:31:11:701562,0.000174533,-0.581998,1.18736,-8.72665e-05,1.3519,-0.00015708,0,0,0,0,0,0,-0.063,-0.014,0.053,0,0,0,-4.186,13.713,-16.17,-3.92,0.136673,-0.016908
23:31:11:706498,0.000174533,-0.581998,1.18736,-8.72665e-05,1.3519,-0.00015708,0,0,0,0,0,0,-0.113,-0.005,-0.109,0,0.001,0,-4.403,13.615,-15.617,-3.647,0.121174,0.04227
23:31:11:711658,0.000174533,-0.581998,1.18736,-8.72665e-05,1.3519,-0.00015708,0,0,0,0,0,0,-0.129,0.007,-0.196,0,0,0,-4.249,14.084,-15.561,-4.004,0.181761,0.081722
23:31:11:716621,0.000174533,-0.581998,1.18736,-8.72665e-05,1.3519,-0.00015708,0,0,0,0,0,0,-0.111,0.023,-0.266,0,0,0.001,-4.928,14.574,-15.911,-3.906,0.238121,0.040861
23:31:11:721782,0.000174533,-0.581998,1.18736,-8.72665e-05,1.3519,-0.00015708,0,0,0,0,0,0,-0.07,0.02,-0.232,0,0,0.001,-4.613,14.063,-15.267,-3.906,0.057769,0.040861
23:31:11:726798,0.000174533,-0.581998,1.18736,-8.72665e-05,1.3519,-0.00015708,0,0,0,0,0,0,-0.046,0.003,-0.155,0,0,0,-4.823,14.266,-16.191,-3.745,0.174716,-0.040861
23:31:11:731904,0.000174533,-0.581998,1.18736,-8.72665e-05,1.3519,-0.00015708,0,0,0,0,0,0,-0.015,-0.028,-0.025,0,0,0,-4.746,13.965,-15.883,-4.263,0.040861,0.122583
23:31:11:736906,0.000174533,-0.581998,1.18736,-8.72665e-05,1.3519,-0.00015708,0,0,0,0,0,0,0.005,-0.045,0.033,0,0,0,-4.718,14.434,-16.702,-4.004,0.057769,0.019726
23:31:11:741862,0.000174533,-0.581998,1.18736,-8.72665e-05,1.3519,-0.00015708,0,0,0,0,0,0,0.012,-0.046,0.064,0,0,0,-4.858,13.608,-16.156,-4.095,0.149354,0.121174
23:31:11:747030,0.000174533,-0.581998,1.18736,-8.72665e-05,1.3519,-0.00015708,0,0,0,0,0,0,-0.008,-0.033,0.058,0,0,0,-4.655,14.679,-15.603,-4.368,0.143718,0.038043
23:31:11:752046,0.000174533,-0.581998,1.18736,-8.72665e-05,1.3519,-0.00015708,0,0,0,0,0,0,-0.05,-0.014,0.036,0,0,0,-4.676,14.413,-15.414,-3.458,0.074677,-0.019726
23:31:11:757172,0.000174533,-0.581998,1.18736,-8.72665e-05,1.3519,-0.00015708,0,0,0,0,0,0,-0.054,-0.015,0.036,0,0,0,-4.564,14.532,-15.862,-3.878,0.177534,0.019726
23:31:11:762170,0.000174533,-0.581998,1.18736,-8.72665e-05,1.3519,-0.00015708,0,0,0,0,0,0,-0.013,-0.036,0.083,0,0,0,-4.879,14.756,-15.19,-2.968,0.012681,-0.019726
23:31:11:767113,0.000174533,-0.581998,1.18736,-8.72665e-05,1.3519,-0.00015708,0,0,0,0,0,0,0.016,-0.047,0.13,0,0,0,-5.117,13.881,-15.19,-3.052,0.166262,0.162035
23:31:11:772320,0.000174533,-0.581998,1.18736,-8.72665e-05,1.3519,-0.00015708,0,0,0,0,0,0,0.019,-0.033,0.156,0,0,-0.001,-5.152,13.734,-15.988,-3.829,0.053542,0.083131
23:31:11:777242,0.000174533,-0.581998,1.18736,-8.72665e-05,1.3519,-0.00015708,0,0,0,0,0,0,-0.005,-0.005,0.101,0,0,0,-4.718,13.328,-16.38,-3.864,-0.009863,-0.018317
23:31:11:782398,0.000174533,-0.581998,1.18736,-8.72665e-05,1.3519,-0.00015708,0,0,0,0,0,0,-0.037,0.034,-0.094,0,0,0,-4.62,13.468,-15.701,-4.032,0.233894,0.001409
23:31:11:787423,0.000174533,-0.581998,1.18736,-8.72665e-05,1.3519,-0.00015708,0,0,0,0,0,0,-0.038,0.04,-0.246,0,0,0.001,-4.606,14.119,-16.093,-1.386,0.235303,0.101448
23:31:11:792545,0.000174533,-0.581998,1.18736,-8.72665e-05,1.3519,-0.00015708,0,0,0,0,0,0,-0.02,0.013,-0.348,0,0,0.002,-4.081,14.455,-16.093,-2.226,0.083131,0.038043
23:31:11:797526,0.000174533,-0.581998,1.18736,-8.72665e-05,1.3519,-0.00015708,0,0,0,0,0,0,-0.008,-0.01,-0.286,0,0,0.001,-5.138,13.678,-15.624,-3.297,0.095812,0.021135
23:31:11:802604,0.000174533,-0.581998,1.18736,-8.72665e-05,1.3519,-0.00015708,0,0,0,0,0,0,-0.004,-0.022,-0.1,0,0,0,-4.207,14.413,-16.051,-3.514,0.157808,0.063405
23:31:11:807668,0.000174533,-0.581998,1.18736,-8.72665e-05,1.3519,-0.00015708,0,0,0,0,0,0,-0.01,-0.012,-0.011,0,0,0,-4.655,14.161,-16.401,-3.269,0.102857,-0.018317
23:31:11:812789,0.000174533,-0.581998,1.18736,-8.72665e-05,1.3519,-0.00015708,0,0,0,0,0,0,-0.025,-0.001,0.04,0,0,0,-4.676,13.349,-15.666,-3.556,0.181761,0.081722
23:31:11:817735,0.000174533,-0.581998,1.18736,-8.72665e-05,1.3519,-0.00015708,0,0,0,0,0,0,-0.035,-0.009,0.067,0,0,0,-4.879,14.301,-15.848,-4.137,0.100039,0.083131
23:31:11:822916,0.000174533,-0.581998,1.18736,-8.72665e-05,1.3519,-0.00015708,0,0,0,0,0,0,-0.034,-0.023,0.104,0,0,0,-4.403,13.636,-15.617,-4.543,0.136673,0.121174
23:31:11:827917,0.000174533,-0.581998,1.18736,-8.72665e-05,1.3519,-0.00015708,0,0,0,0,0,0,-0.01,-0.009,0.041,0,0,0,-4.746,13.923,-15.848,-3.773,0.101448,-0.139491
23:31:11:832842,0.000174533,-0.581998,1.18736,-8.72665e-05,1.3519,-0.00015708,0,0,0,0,0,0,0.006,0.012,-0.049,0,0,0.001,-4.97,13.832,-15.827,-4.032,0.1409,0.061996
23:31:11:838089,0.000174533,-0.581998,1.18736,-8.72665e-05,1.3519,-0.00015708,0,0,0,0,0,0,0.006,0.036,-0.134,0,0,0.001,-4.69,14.224,-15.267,-3.283,0.054951,0
23:31:11:843086,0.000174533,-0.581998,1.18736,-8.72665e-05,1.3519,-0.00015708,0,0,0,0,0,0,-0.008,0.039,-0.128,0,0,0.001,-4.669,13.391,-16.562,-3.892,0.064814,0.022544
23:31:11:848118,0.000174533,-0.581998,1.18736,-8.72665e-05,1.3519,-0.00015708,0,0,0,0,0,0,-0.03,0.031,-0.113,0,0,0,-4.249,13.706,-16.086,-4.06,0.09863,0.039452
23:31:11:853163,0.000174533,-0.581998,1.18736,-8.72665e-05,1.3519,-0.00015708,0,0,0,0,0,0,-0.035,0.023,-0.136,0,0,0,-4.487,14.042,-16.331,-3.689,0.11272,0.102857
23:31:11:858290,0.000174533,-0.581998,1.18736,-8.72665e-05,1.3519,-0.00015708,0,0,0,0,0,0,-0.037,0.01,-0.147,0,0,0,-4.27,14.567,-16.009,-3.92,0.12681,0.019726
23:31:11:863288,0.000174533,-0.581998,1.18736,-8.72665e-05,1.3519,-0.00015708,0,0,0,0,0,0,-0.038,0.001,-0.08,0,0,0,-5.341,13.986,-15.603,-3.689,0.100039,0.102857
23:31:11:868411,0.000174533,-0.581998,1.18736,-8.72665e-05,1.3519,-0.00015708,0,0,0,0,0,0,-0.023,-0.003,0.077,-0.001,0,0,-5.25,14.273,-15.848,-3.598,0.123992,0.040861
23:31:11:873420,0.000174533,-0.581998,1.18736,-8.72665e-05,1.3519,-0.00015708,0,0,0,0,0,0,0.009,0.007,0.123,-0.001,0,-0.001,-4.802,14.147,-15.967,-3.976,0.100039,0.060587
23:31:11:878525,0.000174533,-0.581998,1.18736,-8.72665e-05,1.3519,-0.00015708,0,0,0,0,0,0,0.085,0.05,0.035,-0.003,0.002,-0.001,-4.354,13.979,-15.869,-3.472,0.121174,0.080313
23:31:11:883536,0.000174533,-0.581998,1.18736,-8.72665e-05,1.3519,-0.00015708,0,0,0,0,0,0,0.134,0.086,-0.059,-0.004,0.003,0,-4.879,14.063,-15.904,-3.703,0.162035,0.080313
23:31:11:888678,0.000174533,-0.581998,1.18736,-8.72665e-05,1.3519,-0.00015708,0,0,0,0,0,0,0.18,0.133,-0.116,-0.006,0.005,0,-4.781,13.083,-15.603,-4.046,0.030998,0.019726
23:31:11:893664,0.000174533,-0.581998,1.18736,-8.72665e-05,1.3519,-0.00015708,0,0,0,0,0,0,0.196,0.162,-0.108,-0.008,0.005,-0.001,-4.655,13.041,-16.373,-3.626,0.015499,0.019726
23:31:11:898650,0.000174533,-0.581998,1.18736,-8.72665e-05,1.3519,-0.00015708,0,0,0,0,0,0,0.222,0.226,-0.134,-0.011,0.007,-0.001,-5.25,14.364,-15.351,-3.283,0.123992,0.081722
23:31:11:903621,0.000174533,-0.581998,1.18736,-8.72665e-05,1.3519,-0.00015708,0,0,0,0,0,0,0.252,0.29,-0.185,-0.013,0.009,-0.001,-4.809,14.266,-16.289,-3.731,0.16908,0
23:31:11:908720,0.000174533,-0.581998,1.18736,-8.72665e-05,1.3519,-0.00015708,0,0,0,0,0,0,0.329,0.4,-0.227,-0.018,0.014,-0.001,-4.431,13.468,-15.736,-3.864,0.123992,0.061996
23:31:11:913786,0.000174533,-0.581998,1.18736,-8.72665e-05,1.3519,-0.00015708,0,0,0,0,0,0,0.396,0.476,-0.207,-0.023,0.018,-0.001,-4.844,13.72,-15.33,-3.5,0.123992,0.060587
23:31:11:918850,0.000174533,-0.581998,1.18736,-8.72665e-05,1.3519,-0.00015708,0,0,0,0,0,0,0.499,0.618,-0.174,-0.031,0.024,0,-4.928,14.455,-15.435,-4.123,0.16908,0.142309
23:31:11:924026,0.000174533,-0.581998,1.18736,-8.72665e-05,1.3519,-0.00015708,0,0,0,0,0,0,0.587,0.806,-0.2,-0.041,0.029,0,-5.173,13.965,-15.309,-3.731,0.1409,0.040861
23:31:11:929026,0.000174533,-0.581998,1.18736,-8.72665e-05,1.3519,-0.00015708,0,0,0,0,0,0,0.641,0.935,-0.23,-0.048,0.032,0.001,-4.312,14.609,-15.596,-4.263,0.167671,0.043679
23:31:11:934144,0.000174533,-0.581998,1.18736,-8.72665e-05,1.3519,-0.00015708,0,0,0,0,0,0,0.716,1.071,-0.225,-0.056,0.036,0.001,-4.445,14.658,-15.694,-4.249,0.085949,0.08454
23:31:11:939175,0.000174533,-0.581998,1.18736,-8.72665e-05,1.3519,-0.00015708,0,0,0,0,0,0,0.752,1.105,-0.168,-0.061,0.037,0.001,-4.27,14.077,-15.946,-3.43,0.193033,0.083131
23:31:11:944160,0.000174533,-0.581998,1.18736,-8.72665e-05,1.3519,-0.00015708,0,0,0,0,0,0,0.759,1.088,-0.026,-0.065,0.038,0.001,-3.913,14.343,-14.763,-3.759,0.011272,0.145127
23:31:11:949285,0.000174533,-0.581998,1.18736,-8.72665e-05,1.3519,-0.000139626,0,0,0,0,0,0,0.736,1.057,0.05,-0.065,0.036,0.001,-4.074,14.714,-14.476,-4.179,0.011272,0.18317
23:31:11:954216,0.000174533,-0.581998,1.18736,-8.72665e-05,1.3519,-0.000139626,0,0,0,0,0,0,0.689,1.03,0.04,-0.064,0.032,0.002,-3.836,14.959,-14.469,-4.137,0.060587,0.145127
23:31:11:959274,0.000174533,-0.581998,1.18736,-8.72665e-05,1.3519,-0.000139626,0,0,0,0,0,0,0.651,1.036,-0.031,-0.063,0.029,0.002,-3.584,15.575,-13.587,-4.018,-0.021135,0.122583
23:31:11:964392,0.000174533,-0.581998,1.18736,-8.72665e-05,1.3519,-0.000139626,0,0,0,0,0,0,0.543,1.064,-0.064,-0.063,0.021,0.002,-3.472,14.574,-14.07,-4.109,-0.026771,0.246575
23:31:11:969341,0.000174533,-0.581998,1.18736,-8.72665e-05,1.3519,-0.000139626,0,0,0,0,0,0,0.413,1.085,0.03,-0.065,0.015,0.002,-3.857,15.393,-13.671,-3.892,-0.026771,0.229667
23:31:11:974518,0.000174533,-0.581998,1.18736,-8.72665e-05,1.3519,-0.000122173,0,0,0,0,0,0.00261799,0.15,1.123,0.266,-0.07,0.001,0,-3.178,15.82,-13.223,-3.815,-0.046497,0.164853
23:31:11:979674,0.000174533,-0.581998,1.18736,-8.72665e-05,1.3519,-0.00010472,0,0,0,0,0,0.00268781,-0.042,1.16,0.398,-0.075,-0.01,-0.001,-2.737,15.967,-12.544,-3.458,-0.08454,0.247984
23:31:11:984609,0.000174533,-0.581998,1.18736,-8.72665e-05,1.3519,-8.72665e-05,0,0,0,0,0,0.00225147,-0.358,1.229,0.536,-0.084,-0.032,-0.003,-3.15,15.701,-12.208,-3.759,-0.045088,0.293072
23:31:11:989646,0.000174533,-0.581998,1.18736,-8.72665e-05,1.3519,-6.98132e-05,0,0,0,0,0,0.00472984,-0.598,1.276,0.626,-0.09,-0.048,-0.005,-2.24,16.52,-11.886,-4.396,-0.033816,0.377612
23:31:11:994785,0.000174533,-0.581998,1.18736,-8.72665e-05,1.3519,-5.23599e-05,0,0,0,0,0,0.00441568,-0.976,1.348,0.757,-0.099,-0.071,-0.008,-1.491,16.198,-12.607,-3.626,-0.107084,0.187397
23:31:11:999771,0.000174533,-0.581998,1.18736,-8.72665e-05,1.35188,0,0,0,0,0,0,0.00520108,-1.19,1.402,0.813,-0.103,-0.085,-0.01,-1.393,16.317,-11.928,-3.906,-0.12681,0.180352
23:31:12:4899,0.000174533,-0.581998,1.18736,-8.72665e-05,1.35188,1.74533e-05,0,0,0,0,0,0.00823795,-1.386,1.468,0.854,-0.106,-0.099,-0.011,-0.658,16.198,-12.397,-4.095,-0.038043,0.266301
23:31:12:9920,0.000191986,-0.581998,1.18736,-8.72665e-05,1.35188,6.98132e-05,0,0,0,0,0,0.00836013,-1.443,1.468,0.882,-0.105,-0.105,-0.011,-0.511,16.597,-12.215,-3.381,-0.108493,0.269119
23:31:12:15076,0.000191986,-0.581998,1.18736,-8.72665e-05,1.35186,0.000122173,0,0,0,0,0,0.0107338,-1.441,1.432,0.874,-0.103,-0.104,-0.01,-0.189,15.736,-12.236,-3.731,0.01409,0.216986
23:31:12:19970,0.000191986,-0.581998,1.18736,-8.72665e-05,1.35186,0.000191986,0,0,0,0,0,0.0133169,-1.422,1.379,0.798,-0.098,-0.101,-0.009,-0.133,15.288,-13.328,-3.92,0.052133,0.149354
23:31:12:25142,0.000191986,-0.581998,1.18736,-8.72665e-05,1.35186,0.000279253,0,0,0,0,0,0.0143466,-1.411,1.364,0.747,-0.095,-0.1,-0.008,0.308,15.841,-13.202,-4.312,0.061996,0.170489
23:31:12:30282,0.00020944,-0.581998,1.18736,-8.72665e-05,1.35186,0.000349066,0,0,0,0,0,0.0153065,-1.405,1.33,0.748,-0.091,-0.102,-0.008,0.861,15.715,-13.825,-3.787,-0.046497,0.177534
23:31:12:35268,0.00020944,-0.581998,1.18736,-8.72665e-05,1.35188,0.000436332,0.00174533,0,0,0,0,0.0159523,-1.417,1.26,0.787,-0.086,-0.105,-0.009,0.805,14.616,-14.497,-4.095,0.040861,0.08454
23:31:12:40280,0.000244346,-0.581998,1.18736,-8.72665e-05,1.35188,0.000523599,0.00301942,0,0,0,0,0.0161967,-1.478,1.06,0.857,-0.072,-0.112,-0.012,0.903,14.511,-15.386,-3.745,0.038043,0.108493
23:31:12:45389,0.000261799,-0.581998,1.18736,-8.72665e-05,1.35188,0.000610865,0.0044855,0,0,0,0,0.0180467,-1.549,0.894,0.927,-0.06,-0.117,-0.015,1.701,14.084,-15.834,-4.081,0.078904,0.045088
23:31:12:50395,0.000279253,-0.581998,1.18736,-8.72665e-05,1.3519,0.000715585,0.00413643,0,0,0,0,0.0183609,-1.661,0.677,1.07,-0.044,-0.125,-0.019,1.659,13.881,-16.891,-3.976,0.193033,0.067632
23:31:12:55519,0.000314159,-0.582015,1.18736,-8.72665e-05,1.3519,0.000802851,0.00457276,0,0,0,0,0.0171042,-1.702,0.6,1.114,-0.038,-0.126,-0.02,2.52,13.118,-18.221,-4.277,0.170489,0.063405
23:31:12:60516,0.000331613,-0.582015,1.18735,-8.72665e-05,1.3519,0.000890118,0.00479966,0,-0.00253073,0,0,0.0181863,-1.665,0.623,0.953,-0.04,-0.121,-0.019,2.492,11.662,-18.333,-4.452,0.208532,0.01409
23:31:12:65638,0.000366519,-0.582032,1.18731,-8.72665e-05,1.35191,0.000977384,0.00466003,-0.00268781,-0.00347321,0,0.00293215,0.0175929,-1.571,0.724,0.724,-0.046,-0.113,-0.017,2.625,12.698,-19.411,-4.004,0.222622,-0.021135
23:31:12:70654,0.000383972,-0.582067,1.18728,-8.72665e-05,1.35195,0.00106465,0.00486947,-0.00513127,-0.00790634,0,0.00513127,0.0171042,-1.351,0.941,0.438,-0.058,-0.097,-0.015,2.905,11.907,-19.418,-4.235,0.22544,-0.030998
23:31:12:75653,0.000401426,-0.58212,1.18719,-8.72665e-05,1.35198,0.00115192,0.00417134,-0.00755728,-0.0128631,0,0.00698132,0.0166155,-1.179,1.077,0.394,-0.065,-0.086,-0.014,3.017,11.97,-18.767,-3.647,0.247984,-0.061996
23:31:12:80765,0.000436332,-0.582189,1.18707,-8.72665e-05,1.35204,0.00122173,0.0047822,-0.0116239,-0.0198269,0,0.00804597,0.015708,-0.922,1.22,0.497,-0.075,-0.069,-0.015,3.745,12.656,-18.109,-4.095,0.194442,0.07045
23:31:12:85780,0.000453786,-0.582259,1.18691,-8.72665e-05,1.35207,0.001309,0.00516617,-0.0134565,-0.0268781,0,0.00855211,0.0165108,-0.764,1.281,0.57,-0.081,-0.058,-0.015,3.955,12.803,-17.969,-3.99,0.355068,-0.066223
23:31:12:90903,0.000488692,-0.582347,1.18672,-8.72665e-05,1.35212,0.00137881,0.00577704,-0.0157429,-0.0343655,0,0.00965167,0.0157603,-0.552,1.383,0.595,-0.088,-0.042,-0.016,4.144,12.866,-16.114,-3.801,0.250802,-0.035225
23:31:12:95905,0.000523599,-0.582434,1.18649,-8.72665e-05,1.35218,0.00144862,0.00696386,-0.0164934,-0.0414341,0,0.00888373,0.0148178,-0.38,1.529,0.604,-0.098,-0.029,-0.016,4.375,12.817,-14.532,-4.165,0.269119,-0.094403
23:31:12:101011,0.000575959,-0.582521,1.18625,-8.72665e-05,1.35223,0.00153589,0.00745256,-0.0178198,-0.0448201,0,0.0093026,0.0161792,-0.277,1.632,0.641,-0.104,-0.021,-0.017,5.264,12.922,-13.846,-4.109,0.362113,-0.054951
23:31:12:106016,0.000610865,-0.582608,1.18604,-8.72665e-05,1.35226,0.0016057,0.00753982,-0.0181689,-0.0445234,0,0.00853466,0.0152542,-0.097,1.743,0.673,-0.113,-0.008,-0.017,5.152,12.754,-13.475,-3.843,0.340978,-0.108493
23:31:12:111155,0.000645772,-0.582696,1.18583,-8.72665e-05,1.35232,0.00169297,0.00836013,-0.018326,-0.0404393,0,0.00856957,0.014748,0.048,1.785,0.632,-0.117,0,-0.017,5.243,12.719,-13.573,-4.263,0.43679,0.011272
23:31:12:116101,0.000698132,-0.582783,1.18565,-8.72665e-05,1.35235,0.00174533,0.00949459,-0.0175755,-0.037926,0,0.00876155,0.0138579,0.256,1.848,0.543,-0.122,0.012,-0.016,5.362,12.663,-13.951,-3.864,0.340978,0
23:31:12:121089,0.000750492,-0.58287,1.1855,-8.72665e-05,1.35239,0.00181514,0.00938987,-0.0174358,-0.0348019,0,0.00870919,0.0141023,0.345,1.921,0.544,-0.126,0.019,-0.017,6.153,13.076,-14.469,-3.948,0.355068,0.308571
23:31:12:126208,0.000802851,-0.582957,1.18536,-8.72665e-05,1.35244,0.00190241,0.00980875,-0.0171391,-0.0312239,0,0.00973894,0.0156731,0.39,2.072,0.656,-0.135,0.026,-0.018,6.391,12.971,-15.113,-4.431,0.425518,0.122583
23:31:12:131277,0.000855211,-0.583045,1.1852,-8.72665e-05,1.35249,0.00197222,0.0110479,-0.0161443,-0.0279951,0,0.0103149,0.0140499,0.396,2.169,0.749,-0.14,0.028,-0.019,6.937,12.635,-14.224,-4.011,0.370567,0.09863
23:31:12:136391,0.000925025,-0.583115,1.18506,-8.72665e-05,1.35254,0.00202458,0.0113097,-0.0148353,-0.0282918,0,0.00918043,0.0128631,0.428,2.249,0.867,-0.145,0.03,-0.021,6.321,13.307,-14.812,-3.591,0.428336,0.08454
23:31:12:141382,0.000994838,-0.583184,1.1849,-8.72665e-05,1.35258,0.00211185,0.0133692,-0.0152367,-0.03084,0,0.00891863,0.0151495,0.473,2.237,0.958,-0.145,0.033,-0.023,7.595,12.418,-14.084,-4.046,0.393111,0.287436
23:31:12:146512,0.00106465,-0.583254,1.18469,-8.72665e-05,1.35261,0.00221657,0.0148004,-0.0139801,-0.0357967,0,0.00780162,0.0177675,0.555,2.111,1.127,-0.14,0.038,-0.025,7.448,12.628,-12.873,-4.683,0.470606,0.191624
23:31:12:151570,0.00116937,-0.583324,1.18449,-8.72665e-05,1.35265,0.00228638,0.0185354,-0.0138405,-0.0404044,0,0.00640536,0.0174358,0.606,1.973,1.192,-0.135,0.042,-0.027,6.622,13.104,-10.836,-4.06,0.462152,0.246575
23:31:12:156682,0.00129154,-0.583394,1.18428,-8.72665e-05,1.35268,0.00237365,0.0217294,-0.0134565,-0.0409629,0,0.00596903,0.0156731,0.648,1.742,1.071,-0.125,0.046,-0.027,6.881,12.607,-10.682,-3.892,0.419882,0.329706
23:31:12:161653,0.00141372,-0.583464,1.1841,-8.72665e-05,1.35272,0.00247837,0.0238063,-0.0140848,-0.0363378,0,0.00745256,0.0182736,0.629,1.599,0.843,-0.117,0.046,-0.027,6.244,12.187,-10.661,-4.095,0.412837,0.346614
23:31:12:166658,0.00155334,-0.583516,1.18398,-8.72665e-05,1.35275,0.00258309,0.0259007,-0.011781,-0.0280125,0,0.00715585,0.0213105,0.502,1.389,0.478,-0.104,0.042,-0.026,5.859,12.362,-11.27,-3.78,0.484696,0.504422
23:31:12:171779,0.00169297,-0.583568,1.18391,-8.72665e-05,1.35279,0.00268781,0.0266337,-0.0105941,-0.0191812,0,0.00703368,0.0213803,0.368,1.232,0.364,-0.095,0.035,-0.026,6.09,12.908,-12.516,-4.172,0.45088,0.456516
23:31:12:176900,0.0018326,-0.583603,1.18387,-8.72665e-05,1.35282,0.00279253,0.0262498,-0.00806342,-0.0126013,0,0.00689405,0.0213977,0.166,0.986,0.458,-0.082,0.024,-0.029,6.741,12.082,-13.559,-3.92,0.476242,0.629823
23:31:12:181901,0.00193732,-0.583638,1.18384,-8.72665e-05,1.35286,0.0029147,0.023719,-0.00771436,-0.00801106,0,0.00656244,0.0216944,0.043,0.809,0.672,-0.073,0.017,-0.035,5.824,12.348,-14.784,-4.445,0.443835,0.449471
23:31:12:186907,0.00205949,-0.583673,1.18384,-8.72665e-05,1.35287,0.00305433,0.0237714,-0.00776672,-0.0039619,0,0.00513127,0.0248884,0.007,0.754,0.738,-0.069,0.014,-0.038,6.461,11.914,-15.337,-3.969,0.462152,0.501604
23:31:12:191970,0.00218166,-0.583708,1.18382,-8.72665e-05,1.35291,0.00321141,0.0237016,-0.00719076,-0.00214676,0,0.0060912,0.0289201,-0.025,0.712,0.651,-0.066,0.011,-0.041,7.112,11.991,-16.226,-3.843,0.586144,0.526966
23:31:12:197026,0.00232129,-0.583743,1.1838,-8.72665e-05,1.35293,0.00338594,0.025796,-0.00705113,-0.00333358,0,0.00527089,0.0332311,-0.051,0.661,0.527,-0.063,0.009,-0.043,7.063,11.781,-16.646,-4.074,0.407201,0.455107
23:31:12:202146,0.00246091,-0.583778,1.18379,-8.72665e-05,1.35294,0.00357793,0.0276809,-0.00589921,-0.00383972,0,0.0045204,0.0375595,-0.078,0.509,0.411,-0.056,0.008,-0.045,6.853,11.214,-15.855,-4.235,0.501604,0.322661
23:31:12:207094,0.00258309,-0.583795,1.18375,-8.72665e-05,1.35298,0.00380482,0.0266337,-0.00616101,-0.00565487,0,0.0055676,0.04016,-0.072,0.376,0.434,-0.05,0.009,-0.047,7.119,12.18,-16.618,-4.018,0.594598,0.178943
23:31:12:212253,0.00272271,-0.58383,1.18372,-0.00010472,1.353,0.00401426,0.0262498,-0.00546288,-0.00724312,0,0.00528835,0.0408756,-0.056,0.195,0.539,-0.042,0.014,-0.05,6.251,11.466,-16.324,-4.263,0.515694,0.288845
23:31:12:217275,0.00286234,-0.583848,1.18366,-0.00010472,1.35301,0.00417134,0.0261101,-0.00521853,-0.00820305,0,0.00495674,0.0331264,-0.079,0.114,0.553,-0.038,0.016,-0.051,6.594,11.746,-16.625,-4.277,0.556555,0.200078
23:31:12:222419,0.00300197,-0.583882,1.18361,-0.00010472,1.35305,0.0042586,0.0277856,-0.00572468,-0.00851721,0,0.00445059,0.025604,-0.194,0.04,0.409,-0.034,0.015,-0.051,6.223,11.732,-15.876,-4.263,0.61996,0.19726
23:31:12:227398,0.00315905,-0.583917,1.18356,-0.00010472,1.35307,0.00436332,0.0292168,-0.00692896,-0.00935496,0,0.00403171,0.0230733,-0.292,-0.001,0.255,-0.032,0.011,-0.051,6.923,11.039,-16.737,-4.186,0.45088,0.25362
23:31:12:232531,0.00331613,-0.58397,1.18351,-0.00010472,1.35308,0.00450295,0.0318174,-0.00729548,-0.0106291,0,0.00516617,0.0248884,-0.405,-0.071,0.086,-0.027,0.003,-0.052,5.327,11.445,-15.547,-4.032,0.397338,0.191624
23:31:12:237505,0.00350811,-0.584005,1.18346,-0.00010472,1.35312,0.00464258,0.0346099,-0.0074351,-0.0117461,0,0.00605629,0.0262847,-0.452,-0.105,0.057,-0.024,-0.002,-0.053,5.236,12.509,-15.806,-4.354,0.504422,0.240939
23:31:12:242649,0.00368264,-0.584057,1.1834,-0.00010472,1.35314,0.0047822,0.0349415,-0.00923279,-0.0109432,0,0.00493928,0.026913,-0.526,-0.094,0.129,-0.023,-0.011,-0.056,3.92,12.663,-15.96,-4.158,0.562191,0.319843
23:31:12:247650,0.00387463,-0.584109,1.18335,-0.00010472,1.35317,0.00490437,0.0356571,-0.00986111,-0.010664,0,0.00411898,0.0243299,-0.603,-0.046,0.234,-0.025,-0.016,-0.058,4.494,13.244,-15.393,-4.347,0.543874,0.236712
23:31:12:252649,0.00403171,-0.584179,1.1833,-0.00010472,1.35319,0.0050091,0.033615,-0.0115715,-0.00972148,0,0.00359538,0.023527,-0.764,0.046,0.399,-0.029,-0.022,-0.059,3.703,13.328,-15.645,-4.137,0.525557,0.083131
23:31:12:257754,0.00417134,-0.584249,1.18326,-0.00010472,1.35321,0.00513127,0.0305258,-0.0128631,-0.00935496,0,0.00542797,0.0234747,-0.888,0.093,0.451,-0.031,-0.025,-0.058,4.319,13.93,-15.897,-4.613,0.625596,0.201487
23:31:12:262773,0.00429351,-0.584319,1.18321,-0.00010472,1.35324,0.00523599,0.0260578,-0.0140499,-0.00933751,0,0.00488692,0.0222355,-1.049,0.125,0.411,-0.031,-0.03,-0.056,5.257,13.699,-16.135,-3.696,0.417064,0.229667
23:31:12:267908,0.00439823,-0.584389,1.18316,-0.00010472,1.35328,0.00534071,0.0235794,-0.0144339,-0.00897099,0,0.00586431,0.0216072,-1.122,0.131,0.352,-0.029,-0.033,-0.052,5.684,13.839,-16.38,-4.606,0.531193,0.287436
23:31:12:272838,0.00450295,-0.584458,1.18311,-0.00010472,1.35329,0.00544543,0.0220435,-0.0137532,-0.00972148,0,0.0060912,0.021485,-1.114,0.132,0.378,-0.027,-0.033,-0.05,5.859,14.161,-16.184,-4.326,0.33816,0.245166
23:31:12:278005,0.00460767,-0.584511,1.18305,-0.00010472,1.35336,0.00555015,0.0211883,-0.0116239,-0.0108385,0,0.0084823,0.0208916,-1.073,0.123,0.508,-0.021,-0.033,-0.047,5.831,14.168,-17.22,-4.34,0.421291,0.487514
23:31:12:282967,0.00471239,-0.584563,1.18298,-0.00010472,1.3534,0.00565487,0.0209963,-0.0105941,-0.0122871,0,0.00863938,0.0212756,-1.064,0.093,0.594,-0.014,-0.033,-0.046,5.782,14.035,-15.365,-4.459,0.411428,0.429745
23:31:12:288029,0.00483456,-0.584615,1.18291,-0.00010472,1.35343,0.00577704,0.0217468,-0.0109956,-0.0142244,0,0.00862193,0.0227591,-1.099,-0.001,0.61,0.001,-0.033,-0.042,6.818,13.811,-16.219,-4.123,0.307162,0.350841
23:31:12:293127,0.00493928,-0.584668,1.18283,-0.00010472,1.35349,0.00588176,0.0204204,-0.00994838,-0.0161094,0,0.00986111,0.0216421,-1.135,-0.085,0.519,0.013,-0.034,-0.039,6.986,13.783,-16.66,-4.417,0.370567,0.417064
23:31:12:298131,0.00502655,-0.58472,1.18272,-0.000122173,1.35354,0.00598648,0.0198269,-0.0111527,-0.0189368,0,0.00891863,0.0209265,-1.17,-0.211,0.304,0.032,-0.035,-0.032,6.685,14.504,-15.274,-4.046,0.22544,0.45088
23:31:12:303203,0.00511381,-0.584773,1.1826,-0.000122173,1.35361,0.00610865,0.019251,-0.0111701,-0.0225147,0,0.0122173,0.0228289,-1.18,-0.29,0.217,0.044,-0.035,-0.028,6.629,14.133,-14.063,-4.417,0.200078,0.597416
23:31:12:308202,0.00521853,-0.584842,1.18246,-0.000122173,1.35366,0.00621337,0.0186401,-0.0122348,-0.0253945,0,0.0128805,0.0226893,-1.2,-0.404,0.285,0.061,-0.038,-0.023,7.098,14.364,-13.062,-4.858,0.273346,0.490332
23:31:12:313377,0.00532325,-0.584895,1.18234,-0.000122173,1.35373,0.006353,0.0207694,-0.0110654,-0.0240332,0,0.0131074,0.0225147,-1.227,-0.464,0.399,0.071,-0.04,-0.02,6.79,13.853,-13.769,-4.361,0.170489,0.531193
23:31:12:318377,0.00544543,-0.584947,1.18223,-0.000122173,1.3538,0.00647517,0.0233351,-0.0106291,-0.0216944,0,0.0131598,0.0238063,-1.276,-0.472,0.439,0.08,-0.043,-0.014,6.055,14.7,-13.93,-4.424,0.170489,0.467788
23:31:12:323381,0.00558505,-0.585,1.18215,-0.000122173,1.35385,0.0066148,0.0261625,-0.00984366,-0.0194081,0,0.0112225,0.0266686,-1.294,-0.401,0.322,0.082,-0.045,-0.009,5.719,13.069,-14,-4.62,0.067632,0.356477
23:31:12:328447,0.00572468,-0.585017,1.18206,-0.000122173,1.3539,0.00675442,0.0260578,-0.00785398,-0.017017,0,0.0105592,0.0287281,-1.247,-0.208,0.086,0.082,-0.042,0,5.894,13.734,-14.385,-4.221,0.132446,0.346614
23:31:12:333501,0.00584685,-0.585069,1.18199,-0.000122173,1.35394,0.0069115,0.0250978,-0.00762709,-0.01494,0,0.00947714,0.0307702,-1.143,-0.067,0.011,0.081,-0.036,0.003,4.949,13.027,-15.407,-4.788,0.264892,0.222622
23:31:12:338581,0.00595157,-0.585104,1.18194,-0.000122173,1.35399,0.00706858,0.0215897,-0.0069115,-0.0139452,0,0.00991347,0.0296881,-0.862,0.09,0.055,0.078,-0.02,0.008,5.229,13.034,-15.512,-4.725,0.100039,0.081722
23:31:12:343772,0.00603884,-0.585139,1.18187,-0.000122173,1.35406,0.00720821,0.0184656,-0.00647517,-0.0123918,0,0.0113621,0.0289201,-0.595,0.142,0.114,0.076,-0.006,0.01,5.579,12.789,-16.128,-4.221,0.060587,-0.04227
23:31:12:348695,0.00610865,-0.585174,1.1818,-0.000122173,1.35411,0.00733038,0.015865,-0.00689405,-0.0116239,0,0.0111177,0.0255865,-0.087,0.14,0.157,0.076,0.019,0.013,5.677,12.173,-16.513,-4.746,0.101448,0.026771
23:31:12:353750,0.00617847,-0.585209,1.18174,-0.000122173,1.35417,0.00741765,0.0156731,-0.00753982,-0.0119555,0,0.0103847,0.0203854,0.314,0.096,0.168,0.079,0.041,0.013,5.593,12.033,-15.897,-4.543,0.143718,0.009863
23:31:12:358875,0.00624828,-0.585244,1.18168,-0.000139626,1.35422,0.00748746,0.0142419,-0.00705113,-0.0124093,0,0.01028,0.0168424,0.984,-0.007,0.182,0.084,0.079,0.013,5.327,12.397,-17.024,-4.424,-0.046497,-0.01409
23:31:12:363894,0.00631809,-0.585279,1.18161,-0.000139626,1.35427,0.00755728,0.0145386,-0.0068766,-0.0135263,0,0.0104022,0.0153764,1.68,-0.113,0.117,0.091,0.121,0.011,5.775,12.278,-16.73,-4.361,0.004227,0.009863
23:31:12:368876,0.00638791,-0.585296,1.18152,-0.000139626,1.35431,0.00762709,0.0148353,-0.0058294,-0.0157429,0,0.00839503,0.0135787,2.114,-0.161,-0.019,0.094,0.146,0.01,4.809,12.103,-16.079,-4.025,-0.021135,0.001409
23:31:12:373999,0.00647517,-0.585331,1.18143,-0.000139626,1.35434,0.00767945,0.0157778,-0.0060912,-0.0173835,0,0.00844739,0.0117635,2.644,-0.195,-0.304,0.097,0.175,0.006,4.942,12.131,-15.225,-4.606,-0.080313,0.011272
23:31:12:378968,0.00656244,-0.585366,1.18131,-0.000139626,1.35438,0.00771436,0.0154462,-0.00579449,-0.0205949,0,0.00570723,0.00991347,2.885,-0.204,-0.456,0.097,0.186,0.002,4.529,11.837,-14.819,-4.095,-0.038043,0.033816
23:31:12:384072,0.00663225,-0.585401,1.1812,-0.000139626,1.35439,0.00776672,0.0153938,-0.00600393,-0.0215374,0,0.0058294,0.0100007,3.072,-0.222,-0.547,0.096,0.192,-0.004,3.927,12.586,-12.327,-3.962,-0.053542,0.132446
23:31:12:389131,0.00670206,-0.585418,1.1811,-0.000139626,1.35443,0.00781908,0.0132645,-0.00551524,-0.0208218,0,0.00493928,0.00898845,3.1,-0.239,-0.55,0.094,0.188,-0.009,4.284,13.006,-11.375,-4.543,-0.05636,0.046497
23:31:12:394248,0.00675442,-0.585436,1.18101,-0.000139626,1.35443,0.00783653,0.0122348,-0.00466003,-0.0184132,0,0.00329867,0.00630064,3.034,-0.254,-0.527,0.09,0.174,-0.016,3.689,14,-11.095,-4.137,0.038043,0.033816
23:31:12:399279,0.00680678,-0.585453,1.18096,-0.000139626,1.35443,0.00785398,0.0111701,-0.00357793,-0.0134041,0,0,0.00492183,2.927,-0.245,-0.479,0.086,0.162,-0.02,4.228,13.958,-10.115,-3.941,-0.046497,0.061996
23:31:12:404399,0.00685914,-0.585453,1.18094,-0.000139626,1.35443,0.00788889,0.0100182,0,-0.0069115,0,0,0.00544543,2.69,-0.193,-0.359,0.08,0.143,-0.028,3.521,13.839,-10.059,-4.445,-0.176125,0.054951
23:31:12:409373,0.00689405,-0.585453,1.18094,-0.000139626,1.35443,0.00790634,0.0087441,0,-0.00233874,0,0,0.00453786,2.513,-0.141,-0.318,0.077,0.131,-0.032,3.78,14.805,-9.835,-4.207,-0.164853,0.290254
23:31:12:414505,0.00692896,-0.585453,1.18094,-0.000139626,1.35443,0.00792379,0.00734784,0,0,0,0,0.00274017,2.282,-0.07,-0.414,0.073,0.113,-0.037,4.207,15.533,-9.296,-4.494,-0.15499,0.111311
23:31:12:419514,0.00696386,-0.585453,1.18094,-0.000139626,1.35443,0.00794125,0.0066148,0,0,0,0,0.00328122,2.171,-0.047,-0.526,0.071,0.101,-0.04,4.025,15.498,-8.134,-4.116,-0.063405,0.074677
23:31:12:424448,0.00698132,-0.585453,1.18094,-0.000139626,1.35441,0.00794125,0.00485202,0,0,0,0,0.00228638,2.064,-0.058,-0.548,0.07,0.088,-0.045,4.557,16.478,-7.504,-4.305,-0.115538,0.119765
23:31:12:429640,0.00699877,-0.585453,1.18096,-0.00015708,1.35439,0.0079587,0.00493928,0,0,0,0,0,2.029,-0.081,-0.406,0.07,0.083,-0.049,3.675,16.786,-6.874,-3.738,-0.132446,0.045088
23:31:12:434772,0.00703368,-0.585453,1.18096,-0.00015708,1.35438,0.00797615,0.00516617,0,0,0,-0.00441568,0,2.032,-0.102,-0.063,0.07,0.081,-0.058,2.786,17.472,-5.117,-3.955,-0.491741,0.067632
23:31:12:439764,0.00705113,-0.585453,1.18098,-0.00015708,1.35434,0.00797615,0.00413643,0,0.0018675,0,-0.00439823,0.00228638,2.068,-0.09,0.135,0.069,0.082,-0.063,3.066,18.116,-4.788,-4.305,-0.391702,0.218395
23:31:12:444748,0.00706858,-0.585453,1.18099,-0.00015708,1.35432,0.00797615,0.00394444,0,0.00298451,0,-0.00544543,0,2.13,-0.027,0.244,0.067,0.083,-0.069,3.15,19.453,-4.438,-4.361,-0.410019,0.195851
23:31:12:449888,0.00706858,-0.585453,1.18103,-0.00015708,1.35427,0.00799361,0.0015708,0,0.00509636,0,-0.00719076,0,2.104,0.087,0.103,0.063,0.076,-0.074,3.598,19.201,-3.178,-4.039,-0.359295,0.107084
23:31:12:455021,0.00706858,-0.585436,1.18106,-0.00015708,1.35422,0.00799361,0,0,0.00593412,0,-0.0093026,0,1.99,0.189,-0.059,0.058,0.065,-0.076,3.318,20.433,-2.877,-4.739,-0.336751,0.057769
23:31:12:460011,0.00706858,-0.585436,1.18112,-0.00015708,1.35417,0.00799361,0,0,0.00876155,0,-0.00996583,0,1.677,0.37,-0.228,0.047,0.038,-0.081,3.017,21.105,-2.359,-4.074,-0.477651,-0.116947
23:31:12:464941,0.00706858,-0.585418,1.18117,-0.00015708,1.35411,0.00799361,0,0.0021293,0.0106116,0,-0.0101753,0,1.434,0.498,-0.212,0.039,0.018,-0.085,3.157,21.518,-1.561,-4.207,-0.231076,0.143718
23:31:12:470119,0.00706858,-0.585418,1.18126,-0.00015708,1.35404,0.00799361,0,0.00169297,0.0133518,0,-0.0142419,0,1.177,0.672,-0.02,0.026,-0.007,-0.09,3.745,22.036,-1.456,-4.494,-0.349432,0.152172
23:31:12:475128,0.00706858,-0.585401,1.18134,-0.00015708,1.35396,0.00799361,0,0,0.0157429,0,-0.0162141,0,1.137,0.762,0.117,0.02,-0.017,-0.092,2.422,22.533,-1.806,-4.382,-0.393111,-0.076086
23:31:12:480245,0.00706858,-0.585401,1.18143,-0.00015708,1.35387,0.00799361,0,0.0018675,0.0180816,0,-0.0151844,0,1.252,0.853,0.12,0.016,-0.019,-0.09,3.185,21.987,-1.785,-4.634,-0.318434,-0.219804
23:31:12:485243,0.00706858,-0.585383,1.18155,-0.00015708,1.3538,0.00799361,0,0.00219911,0.0215723,0,-0.0145386,0,1.374,0.885,-0.067,0.018,-0.015,-0.088,3.29,23.835,-1.876,-4.508,-0.228258,-0.111311
23:31:12:490393,0.00706858,-0.585366,1.18169,-0.00015708,1.35375,0.00799361,0,0.00263545,0.0252549,0,-0.0118857,0,1.514,0.873,-0.476,0.024,-0.007,-0.083,2.618,23.394,-2.996,-4.291,-0.29589,-0.102857
23:31:12:495375,0.00706858,-0.585366,1.18185,-0.00015708,1.35369,0.00799361,0,0.00181514,0.028763,0,-0.0122522,0,1.557,0.812,-0.646,0.03,-0.004,-0.082,2.247,24.64,-3.465,-3.976,-0.442426,-0.170489
23:31:12:500364,0.00706858,-0.585348,1.18202,-0.00015708,1.35362,0.00799361,0,0.00205949,0.0307003,0,-0.0110828,0,1.595,0.65,-0.573,0.04,-0.002,-0.081,2.485,24.563,-4.193,-4.032,-0.15499,-0.061996
23:31:12:505508,0.00706858,-0.585331,1.18216,-0.00015708,1.35356,0.00799361,0,0.00225147,0.0290074,0,-0.014015,0,1.639,0.531,-0.403,0.046,-0.001,-0.081,2.555,24.864,-4.018,-4.319,-0.15499,-0.18317
23:31:12:510442,0.00706858,-0.585331,1.18229,-0.00015708,1.35349,0.00799361,0,0,0.0252724,0,-0.0135088,0,1.743,0.416,-0.288,0.052,0.004,-0.08,1.743,24.871,-3.605,-4.319,-0.190215,-0.242348
23:31:12:515640,0.00706858,-0.585331,1.18237,-0.00015708,1.35343,0.00799361,0,0,0.0224275,0,-0.0120253,0,1.81,0.405,-0.373,0.054,0.008,-0.079,2.604,26.348,-3.066,-3.92,-0.188806,-0.107084
23:31:12:520566,0.00706858,-0.585314,1.18248,-0.00015708,1.35338,0.00799361,0,0.00200713,0.0201935,0,-0.0113795,0,1.874,0.452,-0.55,0.055,0.012,-0.077,2.289,26.306,-2.408,-4.333,-0.229667,-0.147945
23:31:12:525741,0.00706858,-0.585296,1.18257,-0.00015708,1.35335,0.00799361,0,0.00167552,0.0181514,0,-0.00921534,0,1.91,0.481,-0.566,0.055,0.013,-0.077,3.024,25.886,-1.953,-4.172,-0.218395,-0.170489
23:31:12:530756,0.00706858,-0.585296,1.18265,-0.00015708,1.35329,0.00797615,0,0.00226893,0.0182212,0,-0.00829031,0,1.998,0.464,-0.427,0.056,0.012,-0.08,1.981,26.635,-2.751,-3.948,-0.273346,-0.180352
23:31:12:535880,0.00706858,-0.585279,1.18274,-0.00015708,1.35324,0.00797615,0,0.00263545,0.018326,0,-0.00940732,0,2.124,0.392,-0.299,0.059,0.008,-0.083,1.722,27.475,-0.875,-3.948,-0.256438,-0.188806
23:31:12:540817,0.00706858,-0.585261,1.18286,-0.000174533,1.35317,0.00794125,0,0.00368264,0.0218166,0,-0.0127234,-0.00321141,2.184,0.355,-0.298,0.06,0.003,-0.085,0.518,28.105,-1.624,-3.892,-0.200078,-0.342387
23:31:12:546008,0.00706858,-0.585244,1.183,-0.000174533,1.35312,0.00794125,0,0.00387463,0.0245742,0,-0.0125664,-0.00258309,2.17,0.389,-0.402,0.061,-0.007,-0.087,0.931,27.594,-2.541,-3.836,-0.046497,-0.250802
23:31:12:550988,0.00706858,-0.585209,1.18316,-0.000174533,1.35305,0.00792379,0,0.00466003,0.0278904,0,-0.0120079,-0.00364774,2.088,0.479,-0.512,0.059,-0.017,-0.088,0.287,28.056,-3.542,-4.634,-0.208532,-0.228258
23:31:12:555941,0.00706858,-0.585174,1.18333,-0.000174533,1.353,0.00788889,0,0.0055676,0.0320093,0,-0.0109258,-0.00417134,1.92,0.664,-0.699,0.053,-0.037,-0.089,0.707,27.783,-4.039,-4.774,-0.245166,-0.391702
23:31:12:561082,0.00706858,-0.585139,1.18349,-0.000174533,1.35294,0.00788889,0,0.00705113,0.0329867,0,-0.0105767,-0.00296706,1.838,0.769,-0.791,0.05,-0.048,-0.09,0.623,27.741,-4.921,-4.179,-0.219804,-0.30998
23:31:12:566117,0.00706858,-0.585104,1.18365,-0.000174533,1.35291,0.00787144,0,0.00682424,0.0318697,0,-0.00914553,-0.003735,1.841,0.848,-0.779,0.046,-0.054,-0.091,-0.868,28.035,-4.935,-4.634,-0.088767,-0.146536
23:31:12:571251,0.00705113,-0.585069,1.18379,-0.000174533,1.35286,0.00783653,0,0.0068766,0.0283441,0,-0.00862193,-0.00548033,1.942,0.86,-0.674,0.046,-0.047,-0.092,-0.651,27.902,-5.285,-4.095,-0.087358,-0.328297
23:31:12:576243,0.00705113,-0.585052,1.18391,-0.000174533,1.35282,0.00780162,0,0.00567232,0.0260927,0,-0.00849975,-0.00598648,2.199,0.861,-0.499,0.049,-0.028,-0.093,-0.469,28.77,-5.341,-3.92,-0.066223,-0.46497
23:31:12:581251,0.00703368,-0.585017,1.184,-0.000174533,1.35279,0.00778417,0,0.00513127,0.0221133,0,-0.00762709,-0.00469494,2.383,0.859,-0.417,0.052,-0.014,-0.094,-0.931,28.399,-4.781,-3.92,-0.097221,-0.397338
23:31:12:586377,0.00703368,-0.585,1.18408,-0.000174533,1.35277,0.00774926,0,0.00492183,0.0166504,0,-0.0055676,-0.00548033,2.572,0.838,-0.295,0.055,-0.001,-0.096,-1.862,28.84,-4.473,-4.487,-0.233894,-0.376203
23:31:12:591506,0.00701622,-0.584965,1.18412,-0.000174533,1.35275,0.00771436,-0.00233874,0.00493928,0.0118508,0,-0.00443314,-0.00600393,2.613,0.807,-0.189,0.057,0,-0.098,-1.932,28.49,-4.018,-4.207,-0.092994,-0.332524
23:31:12:596503,0.00701622,-0.584947,1.18415,-0.000174533,1.35272,0.00767945,-0.00162316,0.00593412,0.0076969,0,-0.0039968,-0.00479966,2.582,0.755,-0.071,0.06,-0.002,-0.099,-1.393,28.896,-3.017,-4.291,-0.150763,-0.367749
23:31:12:601613,0.00699877,-0.584912,1.18417,-0.000174533,1.3527,0.007662,-0.00204204,0.00460767,0.00535816,0,-0.00359538,-0.00670206,2.534,0.734,-0.073,0.062,-0.006,-0.1,-2.002,28.917,-2.065,-4.466,-0.238121,-0.345205
23:31:12:606626,0.00698132,-0.584895,1.18419,-0.000174533,1.35267,0.00760964,-0.00228638,0.00563741,0.00436332,0,-0.00544543,-0.00783653,2.436,0.743,-0.164,0.066,-0.014,-0.1,-1.449,28.721,-1.645,-4.291,-0.092994,-0.4227
23:31:12:611647,0.00696386,-0.58486,1.18421,-0.000174533,1.35265,0.00757473,-0.00312414,0.00561996,0.0039968,0,-0.00481711,-0.00815069,2.342,0.777,-0.226,0.068,-0.022,-0.101,-1.932,28.84,-1.176,-4.291,-0.145127,-0.531193
23:31:12:616737,0.00694641,-0.584842,1.18422,-0.000174533,1.35261,0.00752237,-0.00411898,0.00541052,0.00457276,0,-0.00586431,-0.00827286,2.189,0.836,-0.305,0.068,-0.035,-0.101,-2.317,29.064,-0.462,-4.004,-0.235303,-0.410019
23:31:12:621734,0.0069115,-0.584807,1.18426,-0.000174533,1.3526,0.00748746,-0.00471239,0.00532325,0.00572468,0,-0.00471239,-0.00844739,2.141,0.849,-0.398,0.068,-0.043,-0.102,-2.247,28.959,-0.616,-4.207,-0.15499,-0.696046
23:31:12:626714,0.00689405,-0.58479,1.18429,-0.000174533,1.35256,0.00745256,-0.00507891,0.00514872,0.00612611,0,-0.00563741,-0.00893609,2.271,0.781,-0.625,0.074,-0.042,-0.101,-2.758,28.945,-0.637,-4.06,-0.185988,-0.374794
23:31:12:631878,0.00685914,-0.584755,1.18433,-0.000174533,1.35256,0.0074002,-0.00539307,0.00525344,0.00596903,0,-0.00331613,-0.0102102,2.668,0.617,-0.812,0.086,-0.024,-0.102,-3.367,29.113,-0.714,-4.207,-0.247984,-0.555146
23:31:12:636826,0.00684169,-0.584738,1.18436,-0.000174533,1.35254,0.00733038,-0.00544543,0.00544543,0.00544543,0,-0.00378736,-0.0120428,3.016,0.483,-0.813,0.095,-0.004,-0.103,-3.479,28.924,-1.029,-3.857,-0.224031,-0.463561
23:31:12:642003,0.00680678,-0.58472,1.18438,-0.000174533,1.35253,0.00726057,-0.00600393,0.00446804,0.00432842,0,-0.00286234,-0.0123046,3.527,0.293,-0.667,0.108,0.026,-0.107,-3.325,29.323,-0.077,-3.836,-0.293072,-0.384657
23:31:12:647125,0.00677188,-0.584685,1.1844,-0.000174533,1.35251,0.00719076,-0.00638791,0.0044855,0.00385718,0,-0.00237365,-0.0141197,3.814,0.19,-0.604,0.115,0.044,-0.109,-3.633,28.602,-0.511,-4.515,-0.247984,-0.373385
23:31:12:652125,0.00673697,-0.584668,1.18442,-0.000174533,1.35249,0.00710349,-0.00645772,0.00476475,0.00280998,0,-0.00342085,-0.0154811,4.155,0.08,-0.728,0.121,0.067,-0.113,-4.263,29.323,0.203,-4.235,-0.343796,-0.446653
23:31:12:657233,0.00670206,-0.584633,1.18443,-0.000174533,1.35247,0.00699877,-0.00656244,0.00584685,0.00345575,0,-0.00418879,-0.0174707,4.337,0.038,-0.92,0.125,0.08,-0.114,-4.2,29.141,0.686,-3.948,-0.260665,-0.322661
23:31:12:662254,0.00666716,-0.584598,1.18443,-0.000174533,1.35246,0.00689405,-0.0071733,0.00614356,0.00294961,0,-0.0045204,-0.0198444,4.546,0.029,-1.197,0.128,0.097,-0.117,-4.529,28.91,0.896,-4.123,-0.260665,-0.348023
23:31:12:667398,0.00663225,-0.584546,1.18447,-0.000174533,1.35244,0.00677188,-0.00752237,0.007662,0.00424115,0,-0.00431096,-0.0229511,4.63,0.064,-1.327,0.129,0.103,-0.119,-4.62,28.847,0.392,-3.801,-0.307162,-0.274755
23:31:12:672377,0.00657989,-0.584511,1.1845,-0.000174533,1.35242,0.0066497,-0.00938987,0.00853466,0.0066497,0,-0.00427606,-0.0245742,4.648,0.162,-1.446,0.128,0.103,-0.122,-4.921,28.609,1.33,-4.403,-0.274755,-0.118356
23:31:12:677308,0.00652753,-0.584458,1.18456,-0.000174533,1.35239,0.00651008,-0.0102451,0.00959931,0.00909317,0,-0.00561996,-0.0277507,4.595,0.233,-1.465,0.125,0.098,-0.124,-5.306,28.959,1.001,-4.41,-0.319843,-0.094403
23:31:12:682485,0.00645772,-0.584389,1.18462,-0.000174533,1.35233,0.006353,-0.0111876,0.0107861,0.0107163,0,-0.00572468,-0.0290772,4.477,0.318,-1.381,0.12,0.087,-0.128,-5.852,28.903,1.19,-4.228,-0.243757,-0.035225
23:31:12:687528,0.00638791,-0.584336,1.18469,-0.000174533,1.35232,0.00621337,-0.0133692,0.0112225,0.0146433,0,-0.00706858,-0.0280474,4.418,0.375,-1.283,0.116,0.082,-0.131,-4.963,28.7,1.694,-4.354,-0.242348,0.1409
23:31:12:692447,0.00630064,-0.584266,1.1848,-0.000174533,1.35226,0.00605629,-0.0146259,0.0121126,0.0170868,0,-0.00781908,-0.0287979,4.411,0.489,-1.196,0.11,0.081,-0.133,-5.425,29.127,1.624,-4.438,-0.271937,0.060587
23:31:12:697608,0.00621337,-0.584197,1.1849,-0.000174533,1.35223,0.00595157,-0.0168075,0.0139452,0.0206996,0,-0.00677188,-0.0253073,4.47,0.575,-1.223,0.108,0.084,-0.134,-5.299,28.644,1.344,-3.605,-0.343796,0.066223
23:31:12:702624,0.00612611,-0.584109,1.18503,-0.000174533,1.35219,0.0058294,-0.0179769,0.0160221,0.0234049,0,-0.00624828,-0.0223053,4.637,0.664,-1.395,0.106,0.091,-0.132,-5.222,28.539,0.952,-4.347,-0.39452,0.214168
23:31:12:707768,0.00603884,-0.584005,1.1852,-0.000174533,1.35214,0.00572468,-0.0163537,0.0174707,0.0282394,0,-0.00888373,-0.0221308,4.766,0.686,-1.556,0.106,0.094,-0.132,-5.222,28.287,0.546,-3.836,-0.340978,0.092994
23:31:12:712746,0.00596903,-0.5839,1.18539,-0.000174533,1.35209,0.00561996,-0.0152542,0.0204204,0.0350637,0,-0.0095644,-0.0216944,4.893,0.708,-1.746,0.106,0.096,-0.132,-6.755,27.993,-1.113,-4.522,-0.411428,0.107084
23:31:12:717875,0.00591667,-0.583778,1.18562,-0.000174533,1.35204,0.00553269,-0.0132121,0.0229685,0.0409803,0,-0.00975639,-0.019984,4.886,0.768,-1.765,0.105,0.096,-0.135,-6.559,27.111,-2.457,-4.088,-0.359295,0.039452
23:31:12:722894,0.00586431,-0.583638,1.18585,-0.000174533,1.35198,0.00542797,-0.0123918,0.0248011,0.0435634,0,-0.0104371,-0.0191114,4.843,0.818,-1.701,0.104,0.096,-0.138,-7.252,26.705,-3.367,-3.5,-0.371976,-0.040861
23:31:12:727997,0.00577704,-0.583516,1.18607,-0.000174533,1.35193,0.00532325,-0.0132645,0.0245568,0.0442092,0,-0.00907571,-0.0197746,4.827,0.877,-1.627,0.101,0.095,-0.142,-7.364,26.621,-3.465,-4.06,-0.39452,-0.147945
23:31:12:732945,0.00568977,-0.583411,1.18628,-0.000174533,1.3519,0.00523599,-0.0157952,0.0238761,0.0434936,0,-0.00942478,-0.0198444,4.868,0.917,-1.658,0.099,0.092,-0.143,-7.861,26.936,-3.178,-4.06,-0.546692,0.043679
23:31:12:738124,0.00558505,-0.583289,1.18649,-0.000174533,1.35186,0.00514872,-0.0189019,0.0228638,0.0423591,0,-0.00858702,-0.0185354,4.929,1.03,-1.813,0.093,0.086,-0.146,-7.749,26.901,-3.395,-3.976,-0.456516,-0.118356
23:31:12:743123,0.00546288,-0.583184,1.18668,-0.000174533,1.35181,0.005044,-0.0224449,0.0226195,0.0391303,0,-0.0095644,-0.0202284,4.917,1.155,-1.934,0.088,0.082,-0.148,-7.231,27.559,-3.22,-3.605,-0.484696,-0.040861
23:31:12:748252,0.00534071,-0.583062,1.18688,-0.000174533,1.35174,0.00493928,-0.0230733,0.023178,0.0392175,0,-0.0117461,-0.0208567,4.827,1.377,-2.059,0.079,0.075,-0.151,-7.518,27.265,-2.289,-3.892,-0.556555,-0.231076
23:31:12:753242,0.00521853,-0.582957,1.18709,-0.000174533,1.35169,0.00481711,-0.0240332,0.022794,0.0407534,0,-0.0123918,-0.0222704,4.773,1.514,-2.09,0.075,0.072,-0.153,-7.518,27.076,-2.387,-4.144,-0.646731,-0.157808
23:31:12:758358,0.00509636,-0.582835,1.18733,-0.000174533,1.35162,0.00469494,-0.0246615,0.0226195,0.0444535,0,-0.0119381,-0.0222355,4.77,1.667,-2.072,0.069,0.068,-0.155,-7.322,27.517,-2.996,-3.836,-0.529784,-0.302935
23:31:12:763367,0.00495674,-0.582713,1.18759,-0.000174533,1.35155,0.00459022,-0.0264941,0.0232827,0.0502131,0,-0.0136834,-0.0230907,4.797,1.744,-2.052,0.066,0.066,-0.156,-6.391,27.237,-4.095,-3.416,-0.497377,-0.302935
23:31:12:768306,0.00481711,-0.582591,1.18787,-0.000174533,1.35144,0.00446804,-0.0289027,0.0235096,0.0519759,0,-0.0169995,-0.0231082,4.764,1.857,-2.117,0.062,0.059,-0.158,-6.713,27.594,-4.228,-3.752,-0.381839,-0.350841
23:31:12:773425,0.00464258,-0.582469,1.18808,-0.000174533,1.35136,0.00432842,-0.0305956,0.0250106,0.0450295,0,-0.0167726,-0.0255342,4.65,1.949,-2.263,0.059,0.05,-0.159,-5.439,27.909,-3.36,-3.668,-0.639686,-0.287436
23:31:12:778478,0.00450295,-0.582329,1.18824,-0.000174533,1.35127,0.00420624,-0.0300895,0.025604,0.0380133,0,-0.0180118,-0.0255516,4.4,2.099,-2.535,0.054,0.03,-0.16,-5.824,27.279,-2.149,-3.689,-0.421291,-0.377612
23:31:12:783622,0.00436332,-0.582207,1.18839,-0.000174533,1.35118,0.00408407,-0.0280998,0.0249582,0.0314857,0,-0.0167901,-0.024679,4.27,2.176,-2.621,0.052,0.018,-0.161,-6.524,27.51,-0.763,-3.612,-0.600234,-0.287436
23:31:12:788605,0.00424115,-0.582102,1.18852,-0.000174533,1.35109,0.0039619,-0.0242601,0.02337,0.0281871,0,-0.0163014,-0.0233525,4.249,2.222,-2.507,0.05,0.012,-0.163,-6.447,28.119,0.483,-3.668,-0.552328,-0.30998
23:31:12:793783,0.00415388,-0.58198,1.18864,-0.000174533,1.35099,0.00383972,-0.0221831,0.0217119,0.0268432,0,-0.0187972,-0.0256389,4.351,2.221,-2.349,0.049,0.016,-0.165,-7.035,28.875,1.148,-3.017,-0.388884,-0.353659
23:31:12:798736,0.00404916,-0.581875,1.18878,-0.000174533,1.35087,0.00366519,-0.0199142,0.0227242,0.0271748,0,-0.0239634,-0.0289899,4.58,2.245,-2.172,0.046,0.029,-0.17,-7.777,28.966,1.288,-3.5,-0.390293,-0.256438
23:31:12:803870,0.00394444,-0.581753,1.18894,-0.000174533,1.35071,0.00349066,-0.0206996,0.0232652,0.0282394,0,-0.0265465,-0.0327598,4.745,2.345,-2.09,0.039,0.04,-0.175,-8.435,28.091,1.225,-3.773,-0.350841,-0.247984
23:31:12:808868,0.00383972,-0.581648,1.18911,-0.000174533,1.35057,0.00328122,-0.021677,0.0228289,0.0327424,0,-0.0281173,-0.0371057,4.751,2.442,-2.04,0.033,0.042,-0.18,-7.672,28.196,0.035,-3.836,-0.2818,-0.163444
23:31:12:813822,0.00371755,-0.581526,1.18932,-0.000174533,1.35041,0.00307178,-0.0217992,0.0225671,0.0391477,0,-0.0270002,-0.0399855,4.64,2.548,-1.99,0.027,0.038,-0.184,-8.561,29.085,-0.336,-3.78,-0.1409,0.002818
23:31:12:818999,0.00361283,-0.581422,1.18958,-0.000174533,1.35031,0.00289725,-0.020909,0.0217119,0.0457974,0,-0.0257785,-0.0370359,4.246,2.738,-1.985,0.018,0.019,-0.19,-7.938,27.951,-0.819,-3.724,-0.016908,0.039452
23:31:12:823950,0.00350811,-0.581317,1.18986,-0.000174533,1.35022,0.00275762,-0.0198793,0.0220784,0.0518886,0,-0.0186925,-0.031381,3.706,3.019,-2.073,0.005,-0.009,-0.194,-8.106,28.455,-2.898,-3.724,-0.091585,-0.004227
23:31:12:829103,0.00342085,-0.581195,1.19012,-0.000174533,1.35017,0.00263545,-0.0195128,0.0239285,0.0513825,0,-0.0158301,-0.0270352,3.418,3.25,-2.102,-0.006,-0.027,-0.196,-8.491,28.315,-2.59,-3.556,-0.35225,-0.094403
23:31:12:834136,0.00331613,-0.581072,1.19035,-0.000174533,1.35008,0.00253073,-0.0195477,0.0238761,0.0475079,0,-0.0138056,-0.0233001,3.327,3.546,-1.957,-0.024,-0.035,-0.199,-9.429,27.797,-3.185,-3.612,-0.100039,-0.050724
23:31:12:839231,0.00321141,-0.580968,1.19056,-0.000174533,1.35003,0.00242601,-0.0211708,0.0221133,0.0438427,0,-0.0141372,-0.0204378,3.522,3.636,-1.748,-0.031,-0.025,-0.202,-8.652,28.7,-2.009,-3.437,-0.166262,-0.142309
23:31:12:844246,0.00308923,-0.580863,1.19077,-0.000174533,1.34996,0.00233874,-0.0224798,0.0204553,0.0426035,0,-0.0131423,-0.0208567,3.985,3.588,-1.476,-0.03,0.008,-0.209,-8.05,28.602,-3.031,-3.899,-0.228258,-0.009863
23:31:12:849354,0.00294961,-0.580758,1.19098,-0.000174533,1.34991,0.00223402,-0.0265116,0.0204902,0.042237,0,-0.0110654,-0.0191288,4.21,3.481,-1.438,-0.025,0.031,-0.214,-7.336,28.553,-2.842,-3.556,-0.226849,-0.092994
23:31:12:854371,0.00279253,-0.580654,1.1912,-0.000174533,1.34984,0.00216421,-0.0287456,0.0207869,0.0439125,0,-0.0121649,-0.0163886,4.216,3.315,-1.577,-0.016,0.046,-0.222,-6.44,27.881,-2.73,-4.172,-0.22544,-0.250802
23:31:12:859439,0.0026529,-0.580531,1.19145,-0.000174533,1.34979,0.00209439,-0.028571,0.0214152,0.0456229,0,-0.0112399,-0.0152018,4.017,3.24,-1.691,-0.014,0.039,-0.227,-6.293,28.14,-3.927,-3.773,-0.288845,-0.336751
23:31:12:864476,0.00251327,-0.580427,1.19169,-0.000174533,1.34972,0.00202458,-0.0259181,0.02337,0.0467748,0,-0.013439,-0.0146957,3.591,3.221,-1.767,-0.015,0.013,-0.234,-6.433,28.231,-4.991,-4.179,-0.240939,-0.411428
23:31:12:869622,0.00240855,-0.580305,1.19192,-0.000174533,1.34965,0.00195477,-0.0243299,0.0243997,0.0456578,0,-0.0150447,-0.0138405,3.299,3.281,-1.776,-0.018,-0.007,-0.236,-7.217,28.021,-4.277,-3.64,-0.224031,-0.246575
23:31:12:874619,0.00230383,-0.580165,1.19209,-0.000174533,1.34958,0.0018675,-0.021293,0.0249233,0.0374722,0,-0.0131598,-0.0142244,2.862,3.468,-1.785,-0.026,-0.036,-0.238,-7.469,27.384,-3.556,-3.948,-0.38043,-0.370567
23:31:12:879746,0.00219911,-0.580025,1.1922,-0.000174533,1.34952,0.00179769,-0.0200015,0.0263545,0.0287456,0,-0.0109432,-0.0129154,2.561,3.631,-1.764,-0.034,-0.053,-0.24,-7.273,27.706,-1.925,-3.64,-0.22544,-0.332524
23:31:12:884746,0.00211185,-0.579903,1.19227,-0.000174533,1.34947,0.00174533,-0.018867,0.0250804,0.0200015,0,-0.0103673,-0.0138754,2.194,3.873,-1.623,-0.049,-0.076,-0.243,-7.567,27.566,-0.448,-3.521,-0.297299,-0.525557
