srisadhan/powerball/bin/HRI_project/2021/admittance/Stiff env/admittance_lf.csv
TimeStamp , Q1, Q2, Q3, Q4, Q5, Q6, dQ1, dQ2, dQ3, dQ4, dQ5, dQ6, Fx, Fy, Fz, Mx, My, Mz, Joint1_torque, Joint2_torque, Joint3_torque, Joint4_torque, Joint5_torque, Joint6_torque 
23:29:42:721570,0.000139626,-0.58191,1.1874,1.74533e-05,1.35184,1.74533e-05,0,-0.0018675,-0.00174533,0,0,0,0,0,0,0,0,0,-5.033,13.09,-14.462,2.751,0.07045,0.435381
23:29:42:726571,0.000139626,-0.58191,1.1874,1.74533e-05,1.35184,1.74533e-05,0,0,0,0,0,0,0,0,0,0,0,0,-5.537,13.818,-15.183,2.646,0.133855,0.359295
23:29:42:731527,0.000139626,-0.58191,1.1874,1.74533e-05,1.35184,1.74533e-05,0,0,0,0,0,0,0,0,0,0,0,0,-5.138,13.188,-15.694,2.583,-0.030998,0.311389
23:29:42:736706,0.000139626,-0.58191,1.1874,1.74533e-05,1.35184,1.74533e-05,0,0,0,0,0,0,0,0,0,0,0,0,-5.439,13.566,-14.539,3.122,0.123992,0.33816
23:29:42:741634,0.000139626,-0.58191,1.1874,1.74533e-05,1.35184,1.74533e-05,0,0,0,0,0,0,0,0,0,0,0,0,-5.432,13.132,-14.994,2.674,-0.02818,0.387475
23:29:42:746854,0.000139626,-0.58191,1.1874,1.74533e-05,1.35184,1.74533e-05,0,0,0,0,0,0,0,0,0,0,0,0,-5.208,14.329,-14.847,2.779,0,0.428336
23:29:42:751760,0.000139626,-0.581928,1.1874,1.74533e-05,1.35184,1.74533e-05,0,0,0,0,0,0,0,0,0,0,0,0,-5.229,13.363,-14.427,2.975,0.060587,0.332524
23:29:42:756761,0.000139626,-0.581928,1.1874,1.74533e-05,1.35184,1.74533e-05,0,0,0,0,0,0,0,0,0,0,0,0,-5.124,14.217,-15.323,2.471,0.032407,0.369158
23:29:42:761901,0.000139626,-0.581928,1.1874,1.74533e-05,1.35184,1.74533e-05,0,0,0,0,0,0,0,0,0,0,0,0,-5.327,13.874,-15.89,3.143,0.121174,0.336751
23:29:42:766937,0.000139626,-0.581928,1.1874,1.74533e-05,1.35184,1.74533e-05,0,0,0,0,0,0,0,0,0,0,0,0,-5.6,13.419,-15.274,2.737,0.162035,0.349432
23:29:42:772062,0.000139626,-0.581928,1.1874,1.74533e-05,1.35184,1.74533e-05,0,0,0,0,0,0,0,0,0,0,0,0,-4.627,14.441,-15.148,2.905,0.081722,0.457925
23:29:42:777186,0.000139626,-0.581928,1.1874,3.49066e-05,1.35184,1.74533e-05,0,0,0,0,0,0,0,0,0,0,0,0,-4.935,12.621,-14.56,2.611,0.146536,0.428336
23:29:42:782201,0.000122173,-0.581928,1.1874,3.49066e-05,1.35186,1.74533e-05,0,0,0,0,0,0,0,0,0,0,0,0,-4.816,13.391,-15.043,2.135,0.04227,0.398747
23:29:42:787213,0.000122173,-0.581928,1.1874,3.49066e-05,1.35186,1.74533e-05,0,0,0,0,0,0,0,0,0,0,0,0,-5.229,14.161,-14.616,2.212,-0.029589,0.384657
23:29:42:792324,0.000122173,-0.581928,1.1874,3.49066e-05,1.35186,1.74533e-05,0,0,0,0,0,0,0,0,0,0,0,0,-5.033,13.874,-15.036,2.891,0.109902,0.418473
23:29:42:797331,0.000122173,-0.581928,1.1874,3.49066e-05,1.35186,1.74533e-05,0,0,0,0,0,0,0,0,0,0,0,0,-4.627,13.93,-14.581,2.926,-0.02818,0.402974
23:29:42:802451,0.000122173,-0.581928,1.1874,3.49066e-05,1.35186,1.74533e-05,0,0,0,0,0,0,0,0,0,0,0,0,-4.718,13.3,-14.532,2.317,0.146536,0.314207
23:29:42:807452,0.000122173,-0.581928,1.1874,3.49066e-05,1.35186,1.74533e-05,0,0,0,0,0,0,0,0,0,0,0,0,-5.222,13.111,-15.302,2.198,0.008454,0.428336
23:29:42:812433,0.000122173,-0.581928,1.1874,3.49066e-05,1.35186,1.74533e-05,0,0,0,0,0,0,0,0,0,0,0,0,-5.026,13.531,-14.854,2.863,0.180352,0.342387
23:29:42:817560,0.000122173,-0.581928,1.1874,3.49066e-05,1.35186,1.74533e-05,0,0,0,0,0,0,0,0,0,0,0,0,-5.026,13.076,-15.498,2.471,0.040861,0.333933
23:29:42:822705,0.000122173,-0.581928,1.1874,3.49066e-05,1.35186,1.74533e-05,0,0,0,0,0,0,0,0,0,0,0,0,-4.816,13.531,-15.806,2.898,0.052133,0.371976
23:29:42:827702,0.000122173,-0.581928,1.1874,3.49066e-05,1.35186,1.74533e-05,0,0,0,0,0,0,0,0,0,0,0,0,-5.432,13.51,-15.421,2.919,0.128219,0.360704
23:29:42:832629,0.000122173,-0.581928,1.1874,3.49066e-05,1.35186,1.74533e-05,0,0,0,0,0,0,0,0,0,0,0,0,-4.921,14.567,-14.84,3.395,0.12681,0.359295
23:29:42:837825,0.000122173,-0.581928,1.1874,3.49066e-05,1.35186,1.74533e-05,0,0,0,0,0,0,0,0,0,0,0,0,-5.229,14.329,-14.805,2.779,0.080313,0.443835
23:29:42:842773,0.000122173,-0.581928,1.1874,3.49066e-05,1.35186,1.74533e-05,0,0,0,0,0,0,0,0,0,0,0,0,-5.334,14.014,-15.183,2.177,0,0.4227
23:29:42:847948,0.000122173,-0.581928,1.1874,3.49066e-05,1.35186,1.74533e-05,0,0,0,0,0,0,0,0,0,0,0,0,-4.515,13.559,-14.651,3.556,0.097221,0.364931
23:29:42:852883,0.000122173,-0.581928,1.1874,3.49066e-05,1.35186,1.74533e-05,0,0,0,0,0,0,0,0,0,0,0,0,-5.222,13.419,-15.141,2.471,0.049315,0.410019
23:29:42:858062,0.000122173,-0.581928,1.1874,3.49066e-05,1.35186,1.74533e-05,0,0,0,0,0,0,0,0,0,0,0,0,-4.914,13.93,-14.931,2.534,0.122583,0.38043
23:29:42:863085,0.000122173,-0.581928,1.1874,3.49066e-05,1.35186,1.74533e-05,0,0,0,0,0,0,0,0,0,0,0,0,-5.229,14.077,-14.567,3.43,0.139491,0.304344
23:29:42:868006,0.000122173,-0.581928,1.1874,3.49066e-05,1.35186,1.74533e-05,0,0,0,0,0,0,0,0,0,0,0,0,-4.816,14.014,-15.351,2.135,0.04227,0.339569
23:29:42:873187,0.000122173,-0.581928,1.1874,3.49066e-05,1.35186,1.74533e-05,0,0,0,0,0,0,0,0,0,0,0,0,-5.222,13.356,-14.665,2.828,0.147945,0.377612
23:29:42:878145,0.000122173,-0.581928,1.1874,3.49066e-05,1.35186,1.74533e-05,0,0,0,0,0,0,0,0,0,0,0,0,-4.522,14.581,-15.218,2.527,0.08454,0.398747
23:29:42:883324,0.000122173,-0.581928,1.1874,3.49066e-05,1.35186,1.74533e-05,0,0,0,0,0,0,0,0,0,0,0,0,-4.711,13.398,-14.616,2.429,0.162035,0.524148
23:29:42:888269,0.000122173,-0.581928,1.1874,3.49066e-05,1.35186,1.74533e-05,0,0,0,0,0,0,0,0,0,0,0,0,-5.124,14.532,-14.805,2.226,-0.018317,0.402974
23:29:42:893448,0.000122173,-0.581928,1.1874,3.49066e-05,1.35186,1.74533e-05,0,0,0,0,0,0,0,0,0,0,0,0,-5.012,13.79,-15.61,2.744,0.069041,0.336751
23:29:42:898379,0.000122173,-0.581928,1.1874,3.49066e-05,1.35186,1.74533e-05,0,0,0,0,0,0,0,0,0,0,0,0,-5.523,14.532,-15.113,2.534,0.15499,0.278982
23:29:42:903390,0.000122173,-0.581928,1.1874,3.49066e-05,1.35186,1.74533e-05,0,0,0,0,0,0,0,0,0,0,0,0,-4.417,13.531,-14.77,3.031,-0.071859,0.284618
23:29:42:908554,0.000122173,-0.581928,1.1874,3.49066e-05,1.35186,1.74533e-05,0,0,0,0,0,0,0,0,0,0,0,0,-5.53,12.663,-14.504,2.534,0.080313,0.359295
23:29:42:913697,0.000122173,-0.581928,1.1874,3.49066e-05,1.35186,1.74533e-05,0,0,0,0,0,0,0,0,0,0,0,0,-5.327,14.441,-14.658,2.877,0.121174,0.322661
23:29:42:918691,0.000122173,-0.581928,1.1874,3.49066e-05,1.35186,1.74533e-05,0,0,0,0,0,0,0,0,0,0,0,0,-4.935,14.448,-14.917,2.996,0.033816,0.348023
23:29:42:923819,0.000122173,-0.581928,1.1874,3.49066e-05,1.35186,1.74533e-05,0,0,0,0,0,0,0,0,0,0,0,0,-5.026,13.426,-15.351,2.562,0.102857,0.342387
23:29:42:928826,0.000122173,-0.581928,1.1874,3.49066e-05,1.35186,1.74533e-05,0,0,0,0,0,0,0,0,0,0,0,0,-5.327,12.831,-15.113,2.226,0.142309,0.376203
23:29:42:933929,0.000122173,-0.581928,1.1874,3.49066e-05,1.35186,1.74533e-05,0,0,0,0,0,0,0,0,0,0,0,0,-4.823,13.965,-14.959,3.031,0.123992,0.45088
23:29:42:938940,0.000122173,-0.581928,1.1874,3.49066e-05,1.35186,1.74533e-05,0,0,0,0,0,0,0,0,0,0,0,0,-5.418,13.482,-15.232,2.562,0.061996,0.405792
23:29:42:943894,0.000122173,-0.581928,1.1874,3.49066e-05,1.35186,1.74533e-05,0,0,0,0,0,0,0,0,0,0,0,0,-5.019,13.825,-15.309,2.345,0.18317,0.271937
23:29:42:948997,0.000122173,-0.581928,1.1874,3.49066e-05,1.35186,1.74533e-05,0,0,0,0,0,0,0,0,0,0,0,0,-4.816,13.146,-14.721,2.513,0.022544,0.405792
23:29:42:954188,0.000122173,-0.581928,1.1874,3.49066e-05,1.35186,1.74533e-05,0,0,0,0,0,0,0,0,0,0,0,0,-4.823,13.93,-15.183,2.541,0.088767,0.398747
23:29:42:959195,0.000122173,-0.581928,1.1874,3.49066e-05,1.35186,1.74533e-05,0,0,0,0,0,0,0,0,0,0,0,0,-5.138,13.678,-14.616,2.66,0.035225,0.498786
23:29:42:964178,0.000122173,-0.581928,1.1874,3.49066e-05,1.35186,1.74533e-05,0,0,0,0,0,0,-0.006,-0.024,-0.129,0,0,0,-5.124,13.139,-15.232,2.821,0.150763,0.391702
23:29:42:969301,0.000122173,-0.581928,1.1874,3.49066e-05,1.35186,1.74533e-05,0,0,0,0,0,0,0.031,0.035,-0.159,0,0,0.001,-5.124,13.328,-15.316,2.912,0.15499,0.342387
23:29:42:974311,0.000122173,-0.581928,1.1874,3.49066e-05,1.35186,1.74533e-05,0,0,0,0,0,0,0.044,0.049,-0.247,0,0,0.002,-5.425,13.426,-14.427,2.779,0.167671,0.377612
23:29:42:979433,0.000122173,-0.581928,1.1874,3.49066e-05,1.35186,1.74533e-05,0,0,0,0,0,0,0.035,0.052,-0.313,0,0,0.002,-5.334,13.23,-14.679,2.695,-0.04227,0.274755
23:29:42:984432,0.000122173,-0.581928,1.1874,3.49066e-05,1.35186,1.74533e-05,0,0,0,0,0,0,0.011,0.058,-0.379,-0.001,0.001,0.003,-4.928,13.307,-14.882,2.66,0.069041,0.39452
23:29:42:989577,0.000122173,-0.581928,1.1874,3.49066e-05,1.35186,1.74533e-05,0,0,0,0,0,0,0,0.051,-0.353,-0.001,0.001,0.002,-5.327,13.37,-15.036,3.031,0.146536,0.401565
23:29:42:994568,0.000122173,-0.581928,1.1874,3.49066e-05,1.35186,1.74533e-05,0,0,0,0,0,0,-0.003,0.014,-0.202,0,0,0.001,-5.222,13.272,-15.071,2.667,0.125401,0.363522
23:29:42:999694,0.000122173,-0.581928,1.1874,3.49066e-05,1.35186,1.74533e-05,0,0,0,0,0,0,0,-0.019,-0.07,0,0,0,-5.404,13.223,-15.358,2.611,0.231076,0.376203
23:29:43:4693,0.000122173,-0.581928,1.1874,3.49066e-05,1.35186,1.74533e-05,0,0,0,0,0,0,0,-0.054,0.096,0,0,-0.001,-4.326,13.146,-14.889,2.947,-0.046497,0.400156
23:29:43:9619,0.000122173,-0.581928,1.1874,3.49066e-05,1.35186,1.74533e-05,0,0,0,0,0,0,-0.005,-0.059,0.153,0,0,-0.001,-4.606,13.503,-15.386,2.975,0.021135,0.312798
23:29:43:14814,0.000122173,-0.581928,1.1874,3.49066e-05,1.35186,1.74533e-05,0,0,0,0,0,0,-0.019,-0.047,0.119,0,0,-0.001,-4.914,12.936,-15.183,3.108,0.16908,0.371976
23:29:43:19766,0.000122173,-0.581928,1.1874,3.49066e-05,1.35186,1.74533e-05,0,0,0,0,0,0,-0.021,-0.035,0.028,0,0,0,-4.816,13.615,-14.693,2.604,0.207123,0.301526
23:29:43:24887,0.000122173,-0.581928,1.1874,3.49066e-05,1.35186,1.74533e-05,0,0,0,0,0,0,-0.001,-0.02,-0.101,0,0,0,-5.446,13.195,-14.581,2.142,0.061996,0.311389
23:29:43:29896,0.000122173,-0.581928,1.1874,3.49066e-05,1.35186,1.74533e-05,0,0,0,0,0,0,0.022,-0.017,-0.118,0,0,0,-4.823,12.999,-15.106,2.828,0.102857,0.22544
23:29:43:35071,0.000122173,-0.581928,1.1874,3.49066e-05,1.35186,1.74533e-05,0,0,0,0,0,0,0.053,-0.024,-0.063,0,0,0,-5.53,13.874,-14.917,2.506,0.033816,0.364931
23:29:43:40011,0.000122173,-0.581928,1.1874,3.49066e-05,1.35186,1.74533e-05,0,0,0,0,0,0,0.066,-0.028,-0.045,0,0,0,-4.627,13.51,-14.994,3.164,0.08454,0.412837
23:29:43:45192,0.000122173,-0.581928,1.1874,3.49066e-05,1.35186,1.74533e-05,0,0,0,0,0,0,0.072,-0.017,-0.073,0,0,0,-5.432,13.951,-15.036,2.506,0.173307,0.429745
23:29:43:50200,0.000122173,-0.581928,1.1874,3.49066e-05,1.35186,1.74533e-05,0,0,0,0,0,0,0.06,-0.002,-0.056,0,0,0,-4.928,13.622,-15.148,1.918,0.188806,0.412837
23:29:43:55337,0.000122173,-0.581928,1.1874,3.49066e-05,1.35186,1.74533e-05,0,0,0,0,0,0,0.01,0.015,0.06,0,0,-0.001,-4.816,14.637,-15.617,2.66,0.123992,0.362113
23:29:43:60315,0.000122173,-0.581928,1.1874,3.49066e-05,1.35186,1.74533e-05,0,0,0,0,0,0,-0.027,0.016,0.078,0,0,0,-4.627,13.853,-15.274,2.646,0.059178,0.362113
23:29:43:65437,0.000122173,-0.581928,1.1874,3.49066e-05,1.35186,1.74533e-05,0,0,0,0,0,0,-0.015,0.012,-0.022,0,0,0,-4.732,13.853,-14.917,2.289,-0.005636,0.359295
23:29:43:70439,0.000122173,-0.581928,1.1874,5.23599e-05,1.35186,1.74533e-05,0,0,0,0,0,0,0.032,0,-0.122,0,0,0.001,-5.124,13.419,-15.19,3.381,0.12681,0.429745
23:29:43:75574,0.000122173,-0.581928,1.1874,5.23599e-05,1.35186,1.74533e-05,0,0,0,0,0,0,0.044,-0.016,-0.029,0,0,0,-5.327,13.825,-14.539,2.443,0.085949,0.359295
23:29:43:80559,0.000122173,-0.581928,1.1874,5.23599e-05,1.35186,1.74533e-05,0,0,0,0,0,0,0.01,-0.041,0.201,0,0,-0.001,-4.823,14.049,-15.575,3.164,0.01409,0.53542
23:29:43:85564,0.000122173,-0.581928,1.1874,5.23599e-05,1.35186,1.74533e-05,0,0,0,0,0,0,-0.014,-0.045,0.22,0,0,-0.001,-5.215,13.727,-15.309,1.967,0.039452,0.317025
23:29:43:90635,0.000122173,-0.581928,1.1874,5.23599e-05,1.35186,1.74533e-05,0,0,0,0,0,0,-0.006,-0.027,-0.002,0,0,0,-5.124,12.831,-14.616,2.331,0.080313,0.336751
23:29:43:95686,0.000122173,-0.581928,1.1874,5.23599e-05,1.35186,1.74533e-05,0,0,0,0,0,0,0.013,-0.016,-0.141,0,0,0.001,-4.907,13.314,-15.267,2.506,0.05636,0.387475
23:29:43:100793,0.000122173,-0.581928,1.1874,5.23599e-05,1.35186,1.74533e-05,0,0,0,0,0,0,0.009,-0.026,-0.088,0,0,0,-4.921,13.349,-15.379,2.457,0.166262,0.433972
23:29:43:105938,0.000122173,-0.581928,1.1874,5.23599e-05,1.35186,1.74533e-05,0,0,0,0,0,0,-0.017,-0.04,0.069,0,0,0,-4.928,13.706,-15.687,2.877,-0.008454,0.429745
23:29:43:110883,0.000122173,-0.581928,1.1874,5.23599e-05,1.35186,1.74533e-05,0,0,0,0,0,0,-0.034,-0.041,0.218,0,0,-0.001,-5.117,13.195,-15.967,2.737,-0.01409,0.367749
23:29:43:115919,0.000122173,-0.581928,1.1874,5.23599e-05,1.35186,1.74533e-05,0,0,0,0,0,0,-0.013,-0.028,0.18,0,0,-0.001,-4.718,12.887,-14.385,2.793,0.061996,0.383248
23:29:43:121045,0.000122173,-0.581928,1.1874,5.23599e-05,1.35186,1.74533e-05,0,0,0,0,0,0,0.027,-0.014,0.024,0,0,0,-5.229,13.937,-14.966,2.891,0.149354,0.384657
23:29:43:125997,0.000122173,-0.581928,1.1874,5.23599e-05,1.35186,1.74533e-05,0,0,0,0,0,0,0.027,-0.017,-0.049,0,0,0,-4.921,13.874,-14.77,2.443,0.047906,0.343796
23:29:43:131187,0.000122173,-0.581928,1.1874,5.23599e-05,1.35186,1.74533e-05,0,0,0,0,0,0,-0.003,-0.022,-0.105,0,0,0,-4.823,13.993,-15.687,2.632,0.064814,0.348023
23:29:43:136180,0.000122173,-0.581928,1.1874,5.23599e-05,1.35186,1.74533e-05,0,0,0,0,0,0,-0.011,-0.017,-0.167,0,0,0,-5.537,13.594,-14.721,2.73,0.011272,0.340978
23:29:43:141305,0.000122173,-0.581928,1.1874,5.23599e-05,1.35186,1.74533e-05,0,0,0,0,0,0,0.011,0.002,-0.315,0,0,0.002,-5.537,14.336,-14.609,2.317,0.046497,0.376203
23:29:43:146311,0.000122173,-0.581928,1.1874,5.23599e-05,1.35186,1.74533e-05,0,0,0,0,0,0,0.025,0.025,-0.357,0,0,0.002,-4.823,13.258,-15.232,1.981,0.063405,0.376203
23:29:43:151418,0.000122173,-0.581928,1.1874,5.23599e-05,1.35186,1.74533e-05,0,0,0,0,0,0,0.008,0.04,-0.266,0,0,0.002,-4.928,13.573,-15.379,2.59,0.128219,0.452289
23:29:43:156436,0.000122173,-0.581928,1.1874,5.23599e-05,1.35186,1.74533e-05,0,0,0,0,0,0,-0.029,0.057,-0.081,0,0,0,-4.62,13.237,-14.889,2.387,-0.009863,0.467788
23:29:43:161365,0.000122173,-0.581928,1.1874,5.23599e-05,1.35186,1.74533e-05,0,0,0,0,0,0,-0.042,0.061,-0.034,0,0,0,-5.733,13.363,-15.54,2.877,0.057769,0.419882
23:29:43:166550,0.000122173,-0.581928,1.1874,5.23599e-05,1.35186,1.74533e-05,0,0,0,0,0,0,-0.044,0.044,-0.082,0,0,0,-5.53,13.65,-15.078,2.66,0.063405,0.377612
23:29:43:171668,0.000122173,-0.581928,1.1874,5.23599e-05,1.35186,1.74533e-05,0,0,0,0,0,0,-0.041,0.02,-0.103,0,0,0,-5.327,13.538,-15.113,3.066,0.123992,0.336751
23:29:43:176683,0.000122173,-0.581928,1.1874,5.23599e-05,1.35186,1.74533e-05,0,0,0,0,0,0,-0.023,-0.016,-0.034,0,0,0,-4.83,13.482,-15.449,2.702,0.078904,0.301526
23:29:43:181792,0.000122173,-0.581945,1.1874,5.23599e-05,1.35186,1.74533e-05,0,0,0,0,0,0,0,-0.028,0.037,0,0,0,-5.026,13.216,-14.924,1.925,0.023953,0.412837
23:29:43:186808,0.000122173,-0.581945,1.1874,5.23599e-05,1.35186,1.74533e-05,0,0,0,0,0,0,0.035,-0.016,0.074,0,0,0,-5.026,14.315,-15.078,2.443,0.150763,0.274755
23:29:43:191933,0.000122173,-0.581945,1.1874,5.23599e-05,1.35186,1.74533e-05,0,0,0,0,0,0,0.039,0.002,0.026,0,0,0,-5.222,14.35,-15.113,2.954,0.145127,0.376203
23:29:43:196934,0.000122173,-0.581945,1.1874,5.23599e-05,1.35186,1.74533e-05,0,0,0,0,0,0,0.015,0.018,-0.118,0,0,0,-5.439,13.622,-14.952,2.765,0.133855,0.308571
23:29:43:201881,0.000122173,-0.581945,1.1874,5.23599e-05,1.35186,1.74533e-05,0,0,0,0,0,0,-0.004,0.013,-0.212,0,0,0.001,-5.222,14.105,-15.155,2.716,-0.002818,0.340978
23:29:43:207040,0.000122173,-0.581945,1.1874,5.23599e-05,1.35186,1.74533e-05,0,0,0,0,0,0,-0.022,-0.005,-0.257,0,0.001,0.001,-4.522,12.95,-15.533,2.632,0.149354,0.35225
23:29:43:211985,0.000122173,-0.581945,1.1874,5.23599e-05,1.35186,1.74533e-05,0,0,0,0,0,0,-0.026,-0.017,-0.195,0,0.001,0.001,-4.816,13.937,-14.931,3.052,0.09863,0.367749
23:29:43:217164,0.000122173,-0.581945,1.1874,5.23599e-05,1.35186,1.74533e-05,0,0,0,0,0,0,-0.022,-0.034,-0.016,0,0,0,-5.327,13.902,-15.197,2.548,-0.007045,0.359295
23:29:43:222179,0.000122173,-0.581945,1.1874,5.23599e-05,1.35186,1.74533e-05,0,0,0,0,0,0,-0.015,-0.048,0.09,0,0,0,-5.019,13.489,-15.309,2.807,0.185988,0.383248
23:29:43:227307,0.000122173,-0.581945,1.1874,5.23599e-05,1.35186,1.74533e-05,0,0,0,0,0,0,-0.002,-0.066,0.12,0,0,-0.001,-5.32,13.51,-15.148,2.59,0.061996,0.417064
23:29:43:232308,0.000122173,-0.581945,1.1874,5.23599e-05,1.35186,1.74533e-05,0,0,0,0,0,0,0.018,-0.058,-0.02,0,0,0,-5.439,14.532,-15.351,1.925,0.123992,0.277573
23:29:43:237422,0.000122173,-0.581945,1.1874,5.23599e-05,1.35186,1.74533e-05,0,0,0,0,0,0,0.036,-0.034,-0.133,0,0,0,-4.914,13.804,-14.273,2.919,0.08454,0.435381
23:29:43:242424,0.000122173,-0.581945,1.1874,5.23599e-05,1.35186,1.74533e-05,0,0,0,0,0,0,0.052,0.014,-0.191,0,0,0.001,-5.215,14.084,-15.421,2.947,0.107084,0.301526
23:29:43:247541,0.000122173,-0.581945,1.1874,5.23599e-05,1.35186,1.74533e-05,0,0,0,0,0,0,0.037,0.037,-0.145,0,0,0.001,-4.921,13.979,-14.616,2.702,0.143718,0.325479
23:29:43:252560,0.000122173,-0.581945,1.1874,5.23599e-05,1.35186,1.74533e-05,0,0,0,0,0,0,-0.034,0.04,-0.058,0,0,0,-5.635,14.021,-14.959,2.359,0.123992,0.266301
23:29:43:257506,0.000122173,-0.581945,1.1874,5.23599e-05,1.35186,1.74533e-05,0,0,0,0,0,0,-0.09,0.019,-0.036,0,0,0,-5.019,14.476,-15.351,2.877,0.039452,0.472015
23:29:43:262680,0.000122173,-0.581945,1.1874,5.23599e-05,1.35186,1.74533e-05,0,0,0,0,0,0,-0.129,-0.027,-0.018,0,0,-0.002,-5.019,14.756,-15.351,3.458,0.142309,0.435381
23:29:43:267623,0.000122173,-0.581945,1.1874,5.23599e-05,1.35186,1.74533e-05,0,0,0,0,0,0,-0.105,-0.053,0.014,0,0,-0.002,-5.229,13.377,-15.043,2.821,0.049315,0.359295
23:29:43:272802,0.000122173,-0.581945,1.1874,5.23599e-05,1.35186,1.74533e-05,0,0,0,0,0,0,-0.026,-0.063,0.05,0,0,-0.001,-5.425,13.104,-15.547,2.632,0.039452,0.377612
23:29:43:277788,0.000122173,-0.581945,1.1874,5.23599e-05,1.35186,1.74533e-05,0,0,0,0,0,0,0.018,-0.05,0.015,0,0,0,-4.816,13.902,-15.071,2.702,0.063405,0.387475
23:29:43:282912,0.000122173,-0.581945,1.1874,5.23599e-05,1.35186,1.74533e-05,0,0,0,0,0,0,0.042,-0.026,-0.097,0,0,0,-5.733,13.461,-14.651,1.939,-0.02818,0.456516
23:29:43:287916,0.000122173,-0.581945,1.1874,5.23599e-05,1.35186,1.74533e-05,0,0,0,0,0,0,0.036,-0.018,-0.155,0,0,0.001,-4.403,13.804,-15.232,2.982,0.057769,0.270528
23:29:43:293053,0.000122173,-0.581945,1.1874,5.23599e-05,1.35186,1.74533e-05,0,0,0,0,0,0,0.023,-0.02,-0.202,0,0,0.001,-5.124,13.482,-15.421,2.688,0.149354,0.329706
23:29:43:298041,0.000122173,-0.581945,1.1874,5.23599e-05,1.35186,1.74533e-05,0,0,0,0,0,0,0.018,-0.022,-0.258,0,0,0.002,-5.74,14.413,-15.379,2.555,0.163444,0.412837
23:29:43:303181,0.000122173,-0.581945,1.1874,5.23599e-05,1.35186,1.74533e-05,0,0,0,0,0,0,0.009,-0.012,-0.389,0,0,0.003,-4.816,13.531,-14.847,2.765,0.162035,0.386066
23:29:43:308193,0.000122173,-0.581945,1.1874,5.23599e-05,1.35186,1.74533e-05,0,0,0,0,0,0,0.006,-0.001,-0.431,0,0,0.003,-5.124,13.573,-15.071,2.639,0.067632,0.363522
23:29:43:313290,0.000122173,-0.581945,1.1874,5.23599e-05,1.35186,1.74533e-05,0,0,0,0,0,0,0.015,0.006,-0.316,0,0,0.002,-4.816,13.979,-14.805,3.29,0.08454,0.384657
23:29:43:318305,0.000122173,-0.581945,1.1874,5.23599e-05,1.35186,1.74533e-05,0,0,0,0,0,0,0.024,0,-0.103,0,0,0,-4.718,13.412,-14.763,2.485,-0.007045,0.343796
23:29:43:323418,0.000122173,-0.581945,1.1874,5.23599e-05,1.35186,1.74533e-05,0,0,0,0,0,0,0.011,-0.006,-0.023,0,0,0,-4.613,13.608,-14.966,2.065,-0.067632,0.371976
23:29:43:328361,0.000122173,-0.581945,1.1874,5.23599e-05,1.35186,1.74533e-05,0,0,0,0,0,0,-0.027,-0.01,-0.034,0,0,0,-4.515,14.315,-15.232,2.737,0.040861,0.459334
23:29:43:333552,0.000122173,-0.581945,1.1874,5.23599e-05,1.35186,1.74533e-05,0,0,0,0,0,0,-0.04,-0.009,-0.059,0,0,0.001,-5.124,13.181,-14.525,2.877,0.039452,0.370567
23:29:43:338483,0.000122173,-0.581945,1.1874,5.23599e-05,1.35186,1.74533e-05,0,0,0,0,0,0,-0.018,-0.009,-0.014,0,0,0,-4.823,13.608,-14.966,2.485,0.054951,0.414246
23:29:43:343484,0.000122173,-0.581945,1.1874,5.23599e-05,1.35186,1.74533e-05,0,0,0,0,0,0,0.006,-0.013,0.058,0,0,0,-4.816,14.287,-15.687,3.423,-0.011272,0.342387
23:29:43:348665,0.000122173,-0.581945,1.1874,5.23599e-05,1.35186,1.74533e-05,0,0,0,0,0,0,0.019,-0.017,0.098,0,0,0,-5.026,13.188,-14.616,3.094,0.040861,0.355068
23:29:43:353640,0.000122173,-0.581945,1.1874,5.23599e-05,1.35186,3.49066e-05,0,0,0,0,0,0,0.011,-0.01,0.018,0,0,0,-4.718,13.972,-15.043,2.688,0.002818,0.349432
23:29:43:358803,0.000122173,-0.581945,1.1874,5.23599e-05,1.35186,3.49066e-05,0,0,0,0,0,0,0.014,0.02,-0.191,0,0,0,-4.823,14.049,-14.623,2.828,0.101448,0.321252
23:29:43:363790,0.000122173,-0.581945,1.1874,5.23599e-05,1.35186,3.49066e-05,0,0,0,0,0,0,0.033,0.042,-0.269,0,0,0.001,-4.816,14.476,-14.763,2.548,0.053542,0.411428
23:29:43:368908,0.000122173,-0.581945,1.1874,5.23599e-05,1.35186,3.49066e-05,0,0,0,0,0,0,0.054,0.044,-0.155,0,0,0,-5.026,12.803,-14.889,2.968,0.104266,0.364931
23:29:43:373856,0.000122173,-0.581945,1.1874,5.23599e-05,1.35186,3.49066e-05,0,0,0,0,0,0,0.032,0.017,0.026,0,0,0,-5.425,14.217,-14.994,2.422,0.002818,0.348023
23:29:43:379032,0.000122173,-0.581945,1.1874,5.23599e-05,1.35186,3.49066e-05,0,0,0,0,0,0,-0.042,-0.039,0.251,0,0,-0.002,-5.229,14.084,-15.001,2.233,-0.064814,0.331115
23:29:43:383978,0.000122173,-0.581945,1.1874,5.23599e-05,1.35186,3.49066e-05,0,0,0,0,0,0,-0.084,-0.062,0.3,0,0,-0.002,-5.229,13.622,-15.141,2.751,0.100039,0.284618
23:29:43:389160,0.000122173,-0.581945,1.1874,5.23599e-05,1.35186,3.49066e-05,0,0,0,0,0,0,-0.084,-0.056,0.248,0,0,-0.002,-4.816,14.259,-14.651,2.73,0.163444,0.398747
23:29:43:394112,0.000122173,-0.581945,1.1874,5.23599e-05,1.35186,3.49066e-05,0,0,0,0,0,0,-0.048,-0.039,0.179,0,0,-0.001,-4.816,14.154,-14.847,2.534,0.170489,0.353659
23:29:43:399287,0.000122173,-0.581945,1.1874,5.23599e-05,1.35186,3.49066e-05,0,0,0,0,0,0,0.009,-0.032,0.088,0,0,0,-5.222,13.692,-15.071,2.464,0.119765,0.388884
23:29:43:404285,0.000122173,-0.581945,1.1874,5.23599e-05,1.35186,3.49066e-05,0,0,0,0,0,0,0.034,-0.057,0.056,0,0,0,-5.635,14.049,-15.197,2.744,0.187397,0.318434
23:29:43:409288,0.000122173,-0.581945,1.1874,5.23599e-05,1.35186,3.49066e-05,0,0,0,0,0,0,0.032,-0.067,0.059,0,0,0,-5.635,14.042,-14.994,2.499,-0.008454,0.359295
23:29:43:414410,0.000122173,-0.581945,1.1874,5.23599e-05,1.35186,3.49066e-05,0,0,0,0,0,0,0.01,-0.039,0.051,0,-0.001,0,-5.32,13.72,-15.379,2.779,0.115538,0.353659
23:29:43:419353,0.000122173,-0.581945,1.1874,5.23599e-05,1.35186,3.49066e-05,0,0,0,0,0,0,-0.008,-0.002,0.031,0,0,0,-4.914,13.958,-14.924,2.142,0.101448,0.364931
23:29:43:424541,0.000122173,-0.581945,1.1874,5.23599e-05,1.35186,3.49066e-05,0,0,0,0,0,0,-0.016,0.031,0.022,0,0,0,-4.718,13.741,-14.812,2.576,0.059178,0.429745
23:29:43:429492,0.000122173,-0.581945,1.1874,5.23599e-05,1.35186,3.49066e-05,0,0,0,0,0,0,0.004,0.024,0.027,0,0,0,-5.222,13.426,-14.756,2.52,0.080313,0.421291
23:29:43:434483,0.000122173,-0.581945,1.1874,5.23599e-05,1.35186,3.49066e-05,0,0,0,0,0,0,0.06,-0.004,-0.028,0,0,0.001,-5.936,13.727,-15.141,2.702,0.109902,0.412837
23:29:43:439675,0.000122173,-0.581945,1.1874,5.23599e-05,1.35186,3.49066e-05,0,0,0,0,0,0,0.088,-0.013,-0.121,0,-0.001,0.001,-5.124,13.426,-14.616,2.219,0.121174,0.326888
23:29:43:444802,0.000122173,-0.581945,1.1874,5.23599e-05,1.35186,3.49066e-05,0,0,0,0,0,0,0.074,-0.008,-0.234,0,-0.001,0.001,-5.117,14.098,-14.812,3.045,0.125401,0.359295
23:29:43:449781,0.000122173,-0.581945,1.1874,5.23599e-05,1.35186,3.49066e-05,0,0,0,0,0,0,0.034,-0.004,-0.224,0,0,0.001,-5.425,14.168,-15.463,2.618,0.123992,0.418473
23:29:43:454746,0.000122173,-0.581945,1.1874,5.23599e-05,1.35186,3.49066e-05,0,0,0,0,0,0,-0.023,0,-0.126,0,0,0,-4.816,13.048,-14.112,3.157,-0.002818,0.393111
23:29:43:459924,0.000122173,-0.581945,1.1874,5.23599e-05,1.35186,3.49066e-05,0,0,0,0,0,0,-0.039,0.003,-0.08,0,0,0,-5.327,13.727,-15.071,3.108,0.167671,0.307162
23:29:43:464921,0.000122173,-0.581945,1.1874,5.23599e-05,1.35186,3.49066e-05,0,0,0,0,0,0,-0.026,0.008,-0.083,0,0,0.001,-5.222,13.146,-15.316,2.527,0.080313,0.312798
23:29:43:470047,0.000122173,-0.581945,1.1874,5.23599e-05,1.35186,3.49066e-05,0,0,0,0,0,0,-0.004,0.004,-0.09,0,0,0.001,-5.019,13.762,-15.736,2.576,0,0.349432
23:29:43:475050,0.000122173,-0.581945,1.1874,5.23599e-05,1.35186,3.49066e-05,0,0,0,0,0,0,0.024,-0.005,-0.057,0,-0.001,0,-5.327,13.342,-13.461,2.625,0.105675,0.342387
23:29:43:480017,0.000122173,-0.581945,1.1874,5.23599e-05,1.35186,3.49066e-05,0,0,0,0,0,0,0.029,-0.005,-0.035,0,0,0,-5.019,13.769,-15.036,2.317,0.074677,0.302935
23:29:43:485155,0.000122173,-0.581945,1.1874,5.23599e-05,1.35186,3.49066e-05,0,0,0,0,0,0,0.001,0.006,-0.087,0,0,0,-4.711,13.552,-14.49,2.639,0.083131,0.325479
23:29:43:490296,0.000122173,-0.581945,1.1874,5.23599e-05,1.35186,3.49066e-05,0,0,0,0,0,0,-0.058,0.012,-0.221,0,0,0,-4.914,14.28,-15.372,3.185,0.12681,0.412837
23:29:43:495282,0.000122173,-0.581945,1.1874,5.23599e-05,1.35186,3.49066e-05,0,0,0,0,0,0,-0.088,0.001,-0.257,0,0,0,-4.823,13.937,-14.7,3.087,-0.018317,0.371976
23:29:43:500226,0.000122173,-0.581945,1.1874,5.23599e-05,1.35186,3.49066e-05,0,0,0,0,0,0,-0.079,-0.03,-0.128,0,0,0,-4.914,13.398,-14.336,2.324,0.057769,0.388884
23:29:43:505400,0.000122173,-0.581945,1.1874,5.23599e-05,1.35186,3.49066e-05,0,0,0,0,0,0,-0.042,-0.044,0.009,0,0,0,-4.914,13.412,-15.274,3.626,0.212759,0.376203
23:29:43:510403,0.000122173,-0.581945,1.1874,5.23599e-05,1.35186,3.49066e-05,0,0,0,0,0,0,0.012,-0.024,0.045,0,0,0,-4.711,13.314,-14.651,2.436,0.012681,0.39452
23:29:43:515530,0.000122173,-0.581945,1.1874,5.23599e-05,1.35186,3.49066e-05,0,0,0,0,0,0,0.029,0.008,-0.073,0,0,0,-4.711,14.217,-15.148,2.779,0.083131,0.395929
23:29:43:520527,0.000122173,-0.581945,1.1874,5.23599e-05,1.35186,3.49066e-05,0,0,0,0,0,0,0.027,0.043,-0.242,0,0,0.001,-5.215,13.762,-15.757,3.948,0.191624,0.348023
23:29:43:525524,0.000122173,-0.581945,1.1874,5.23599e-05,1.35186,3.49066e-05,0,0,0,0,0,0,0.024,0.04,-0.226,0,0,0.001,-4.816,14.266,-14.378,-1.036,0.059178,0.288845
23:29:43:530668,0.000122173,-0.581945,1.1874,5.23599e-05,1.35186,3.49066e-05,0,0,0,0,0,0,0.039,0.009,-0.094,0,0,0,-4.718,13.874,-14.455,0.462,-0.001409,0.325479
23:29:43:535627,0.000122173,-0.581945,1.1874,5.23599e-05,1.35186,3.49066e-05,0,0,0,0,0,0,0.063,-0.004,-0.066,0,0,0.001,-4.921,13.447,-14.462,2.429,0.078904,0.360704
23:29:43:540790,0.000122173,-0.581945,1.1874,5.23599e-05,1.35186,3.49066e-05,0,0,0,0,0,0,0.099,0.003,-0.155,0,0,0.002,-5.012,13.209,-15.344,2.31,0.04227,0.348023
23:29:43:545725,0.000122173,-0.581945,1.1874,5.23599e-05,1.35186,3.49066e-05,0,0,0,0,0,0,0.105,0.013,-0.206,0,0,0.002,-5.838,13.195,-14.651,2.562,0.085949,0.325479
23:29:43:550927,0.000122173,-0.581945,1.1874,5.23599e-05,1.35186,3.49066e-05,0,0,0,0,0,0,0.07,0.002,-0.142,0,0,0.001,-5.222,13.363,-14.889,6.041,0.011272,0.336751
23:29:43:555915,0.000122173,-0.581945,1.1874,6.98132e-05,1.35186,3.49066e-05,0,0,0,0,0,0,0.031,-0.026,-0.023,0,0,0,-5.425,13.573,-14.847,3.332,0.04227,0.185988
23:29:43:561028,0.000122173,-0.581945,1.1874,6.98132e-05,1.35186,3.49066e-05,0,0,0,0,0,0,-0.011,-0.068,0.154,-0.001,0,-0.001,-5.523,13.496,-15.232,2.555,0.16908,0.383248
23:29:43:566039,0.000122173,-0.581945,1.1874,6.98132e-05,1.35186,3.49066e-05,0,0,0,0,0,0,-0.019,-0.071,0.214,-0.001,0,-0.002,-5.334,13.622,-15.155,2.688,0.081722,0.278982
23:29:43:571162,0.000122173,-0.581945,1.1874,6.98132e-05,1.35186,3.49066e-05,0,0,0,0,0,0,-0.01,-0.037,0.171,0,0,-0.001,-4.921,13.839,-14.994,2.702,0.125401,0.331115
23:29:43:576164,0.000122173,-0.581945,1.1874,6.98132e-05,1.35186,3.49066e-05,0,0,0,0,0,0,-0.001,-0.01,0.081,0,0,-0.001,-5.32,13.279,-15.386,2.079,0.116947,0.364931
23:29:43:581272,0.000122173,-0.581945,1.1874,6.98132e-05,1.35186,3.49066e-05,0,0,0,0,0,0,0.015,0.001,-0.036,0,0,0,-4.914,13.195,-14.924,2.828,0.059178,0.262074
23:29:43:586275,0.000122173,-0.581945,1.1874,6.98132e-05,1.35186,3.49066e-05,0,0,0,0,0,0,0.043,-0.021,-0.081,0,0,0,-4.816,13.678,-14.448,2.653,0.080313,0.377612
23:29:43:591275,0.000122173,-0.581945,1.1874,6.98132e-05,1.35186,3.49066e-05,0,0,0,0,0,0,0.066,-0.037,-0.107,0,0,0,-4.718,14.413,-14.728,3.108,0.087358,0.364931
23:29:43:596395,0.000122173,-0.581945,1.1874,6.98132e-05,1.35186,3.49066e-05,0,0,0,0,0,0,0.09,-0.044,-0.15,0,0,0.001,-4.613,13.79,-14.651,2.303,-0.002818,0.356477
23:29:43:601394,0.000122173,-0.581945,1.1874,6.98132e-05,1.35186,3.49066e-05,0,0,0,0,0,0,0.08,-0.041,-0.122,0,0,0.001,-5.019,13.657,-15.694,2.793,0.187397,0.407201
23:29:43:606527,0.000122173,-0.581945,1.1874,6.98132e-05,1.35186,3.49066e-05,0,0,0,0,0,0,0.022,-0.032,0.032,0,0,0,-5.124,13.699,-15.421,2.296,0.136673,0.371976
23:29:43:611500,0.000122173,-0.581945,1.1874,6.98132e-05,1.35186,3.49066e-05,0,0,0,0,0,0,-0.022,-0.019,0.11,0,0,0,-5.425,12.908,-15.575,2.695,0.083131,0.359295
23:29:43:616661,0.000122173,-0.581945,1.1874,6.98132e-05,1.35186,3.49066e-05,0,0,0,0,0,0,-0.044,0.025,0.002,0,0,0,-4.823,12.782,-14.693,2.408,0.16908,0.388884
23:29:43:621592,0.000122173,-0.581945,1.1874,6.98132e-05,1.35186,3.49066e-05,0,0,0,0,0,0,-0.016,0.059,-0.172,0,0,0,-4.914,13.678,-15.309,2.828,0.039452,0.302935
23:29:43:626799,0.000122173,-0.581945,1.1874,6.98132e-05,1.35186,3.49066e-05,0,0,0,0,0,0,0.052,0.07,-0.305,0,0,0.003,-4.823,14.028,-14.651,2.485,0.025362,0.307162
23:29:43:631802,0.000122173,-0.581945,1.1874,6.98132e-05,1.35186,3.49066e-05,0,0,0,0,0,0,0.081,0.042,-0.228,0,0,0.003,-5.222,13.839,-14.91,2.793,0.076086,0.325479
23:29:43:636895,0.000122173,-0.581945,1.1874,6.98132e-05,1.35186,3.49066e-05,0,0,0,0,0,0,0.069,-0.018,-0.03,0,0,0.001,-5.026,13.209,-14.658,2.576,0.085949,0.39452
23:29:43:641908,0.000122173,-0.581945,1.1874,6.98132e-05,1.35186,3.49066e-05,0,0,0,0,0,0,0.037,-0.041,0.027,0,0,0,-5.026,14.497,-15.344,3.143,0.083131,0.326888
23:29:43:647020,0.000122173,-0.581945,1.1874,6.98132e-05,1.35186,3.49066e-05,0,0,0,0,0,0,0.001,-0.034,-0.014,0,0,0,-5.425,13.706,-14.966,2.863,0.119765,0.290254
23:29:43:652020,0.000122173,-0.581945,1.1874,6.98132e-05,1.35186,3.49066e-05,0,0,0,0,0,0,0,-0.017,-0.065,0,0,0,-5.019,13.209,-15.155,2.261,0.101448,0.388884
23:29:43:657021,0.000122173,-0.581945,1.1874,6.98132e-05,1.35186,3.49066e-05,0,0,0,0,0,0,0.023,0,-0.143,0,0,0,-4.508,13.587,-14.805,2.17,0.08454,0.487514
23:29:43:662145,0.000122173,-0.581945,1.1874,6.98132e-05,1.35186,3.49066e-05,0,0,0,0,0,0,0.043,0.004,-0.223,0,0,0.001,-5.425,14.049,-15.148,1.932,0.12681,0.39452
23:29:43:667151,0.000122173,-0.581945,1.1874,6.98132e-05,1.35186,3.49066e-05,0,0,0,0,0,0,0.065,0.006,-0.358,0,0,0.002,-5.131,13.657,-15.421,2.723,0.150763,0.29589
23:29:43:672269,0.000122173,-0.581945,1.1874,6.98132e-05,1.35186,3.49066e-05,0,0,0,0,0,0,0.061,0.007,-0.384,0,0,0.003,-4.214,13.741,-14.994,2.247,0.012681,0.297299
23:29:43:677228,0.000122173,-0.581945,1.1874,6.98132e-05,1.35186,3.49066e-05,0,0,0,0,0,0,0.03,0.005,-0.311,0,0,0.002,-4.816,14.07,-14.497,2.03,0.149354,0.33816
23:29:43:682392,0.000122173,-0.581945,1.1874,6.98132e-05,1.35186,3.49066e-05,0,0,0,0,0,0,-0.054,-0.001,-0.149,0,0,0,-5.53,13.755,-15.183,2.947,-0.022544,0.429745
23:29:43:687403,0.000122173,-0.581945,1.1874,6.98132e-05,1.35186,3.49066e-05,0,0,0,0,0,0,-0.099,-0.002,-0.073,0,0,0,-4.816,14.105,-15.043,2.744,0.125401,0.353659
23:29:43:692543,0.000122173,-0.581945,1.1874,6.98132e-05,1.35186,3.49066e-05,0,0,0,0,0,0,-0.089,0.012,-0.057,0,0,0,-5.229,14.119,-14.805,3.066,0.061996,0.497377
23:29:43:697521,0.000122173,-0.581945,1.1874,6.98132e-05,1.35186,3.49066e-05,0,0,0,0,0,0,-0.035,0.025,-0.091,0,0,0,-5.117,13.811,-15.043,2.415,0.019726,0.411428
23:29:43:702676,0.000122173,-0.581945,1.1874,6.98132e-05,1.35186,3.49066e-05,0,0,0,0,0,0,0.043,0.031,-0.134,0,0,0.001,-5.229,14.07,-14.504,2.415,0,0.383248
23:29:43:707663,0.000122173,-0.581945,1.1874,6.98132e-05,1.35186,3.49066e-05,0,0,0,0,0,0,0.059,0.023,-0.125,0,0,0.001,-5.733,13.496,-15.652,2.52,0.091585,0.286027
23:29:43:712661,0.000122173,-0.581945,1.1874,6.98132e-05,1.35186,3.49066e-05,0,0,0,0,0,0,0.038,0.002,-0.055,0,0,0,-4.816,13.986,-14.854,2.541,0.081722,0.393111
23:29:43:717789,0.000122173,-0.581945,1.1874,6.98132e-05,1.35186,3.49066e-05,0,0,0,0,0,0,0.021,-0.011,0.006,0,0,0,-5.019,14.007,-15.351,2.653,0.097221,0.336751
23:29:43:722898,0.000122173,-0.581945,1.1874,6.98132e-05,1.35186,3.49066e-05,0,0,0,0,0,0,0.012,-0.022,0.056,0,0,0,-4.711,12.999,-15.26,2.555,0.094403,0.336751
23:29:43:727917,0.000122173,-0.581945,1.1874,6.98132e-05,1.35186,3.49066e-05,0,0,0,0,0,0,0.013,-0.015,0.033,0,0,0,-4.62,14.217,-15.491,2.793,0.076086,0.411428
23:29:43:732838,0.000122173,-0.581945,1.1874,6.98132e-05,1.35186,3.49066e-05,0,0,0,0,0,0,0.014,0.002,-0.044,0,0,0,-4.809,13.545,-14.616,2.702,0.174716,0.298708
23:29:43:738022,0.000122173,-0.581945,1.1874,6.98132e-05,1.35186,3.49066e-05,0,0,0,0,0,0,0.012,-0.002,-0.039,0,0,0,-5.229,13.692,-15.505,2.121,0.023953,0.441017
23:29:43:743020,0.000122173,-0.581945,1.1874,6.98132e-05,1.35186,3.49066e-05,0,0,0,0,0,0,0,-0.063,0.15,0,0,-0.001,-5.432,13.853,-15.386,2.821,-0.052133,0.314207
23:29:43:747970,0.000122173,-0.581945,1.1874,6.98132e-05,1.35186,3.49066e-05,0,0,0,0,0,0,-0.014,-0.115,0.315,-0.001,0,-0.002,-5.019,13.489,-14.763,2.891,0.036634,0.411428
23:29:43:753144,0.000122173,-0.581945,1.1874,6.98132e-05,1.35186,3.49066e-05,0,0,0,0,0,0,-0.03,-0.132,0.351,0,0,-0.002,-4.816,13.706,-15.505,2.373,0.054951,0.325479
23:29:43:758269,0.000122173,-0.581945,1.1874,6.98132e-05,1.35186,3.49066e-05,0,0,0,0,0,0,-0.018,-0.057,0.092,0,0,0,-5.124,13.86,-15.526,2.016,0.083131,0.381839
23:29:43:763231,0.000122173,-0.581945,1.1874,6.98132e-05,1.35186,3.49066e-05,0,0,0,0,0,0,0.005,-0.003,-0.067,0,0,0,-4.823,13.559,-15.106,2.1,0.004227,0.355068
23:29:43:768230,0.000122173,-0.581945,1.1874,6.98132e-05,1.35186,3.49066e-05,0,0,0,0,0,0,0.046,0.01,-0.068,0,0,0,-5.026,13.489,-15.61,2.59,-0.043679,0.381839
23:29:43:773338,0.000122173,-0.581945,1.1874,6.98132e-05,1.35186,3.49066e-05,0,0,0,0,0,0,0.065,-0.014,0.033,-0.001,0,0,-5.425,13.405,-14.812,2.408,0.122583,0.238121
23:29:43:778340,0.000122173,-0.581945,1.1874,6.98132e-05,1.35186,3.49066e-05,0,0,0,0,0,0,0.069,-0.034,0.108,0,0,0,-5.124,13.741,-14.539,2.527,0.146536,0.36634
23:29:43:783531,0.000122173,-0.581945,1.1874,6.98132e-05,1.35186,3.49066e-05,0,0,0,0,0,0,0.047,-0.017,0.062,0,0,0,-5.019,13.72,-15.274,2.926,0.102857,0.245166
23:29:43:788656,0.000122173,-0.581945,1.1874,6.98132e-05,1.35186,3.49066e-05,0,0,0,0,0,0,-0.014,0.014,-0.025,0,0,0,-5.117,13.062,-15.54,2.338,0.08454,0.232485
23:29:43:793587,0.000122173,-0.581945,1.1874,6.98132e-05,1.35186,3.49066e-05,0,0,0,0,0,0,-0.054,0.014,-0.028,0,0,0,-4.508,13.23,-15.344,2.723,-0.026771,0.346614
23:29:43:798657,0.000122173,-0.581945,1.1874,6.98132e-05,1.35186,3.49066e-05,0,0,0,0,0,0,-0.071,-0.008,0.008,-0.001,0,0,-5.831,12.887,-15.106,2.59,0.061996,0.342387
23:29:43:803728,0.000122173,-0.581945,1.1874,6.98132e-05,1.35186,3.49066e-05,0,0,0,0,0,0,-0.05,-0.013,-0.008,0,0,0,-5.124,13.769,-14.924,2.338,0.057769,0.308571
23:29:43:808769,0.000122173,-0.581945,1.1874,6.98132e-05,1.35186,3.49066e-05,0,0,0,0,0,0,0.003,0.004,-0.107,0,0,0,-4.515,12.978,-15.925,2.52,0.131037,0.336751
23:29:43:813890,0.000122173,-0.581945,1.1874,6.98132e-05,1.35186,3.49066e-05,0,0,0,0,0,0,0.029,0.013,-0.149,0,0,0,-4.816,13.195,-15.358,3.031,0.083131,0.297299
23:29:43:818893,0.000122173,-0.581945,1.1874,6.98132e-05,1.35186,3.49066e-05,0,0,0,0,0,0,0.029,0.001,-0.082,0,0,0,-5.019,13.314,-14.574,2.576,0.001409,0.452289
23:29:43:824029,0.000122173,-0.581945,1.1874,6.98132e-05,1.35186,3.49066e-05,0,0,0,0,0,0,0.007,-0.014,0.013,0,0,0,-4.921,12.866,-15.386,2.723,-0.04227,0.321252
23:29:43:829010,0.000122173,-0.581945,1.1874,6.98132e-05,1.35186,3.49066e-05,0,0,0,0,0,0,-0.031,-0.024,0.105,0,0,0,-5.635,13.706,-15.106,3.472,0.039452,0.226849
23:29:43:834142,0.000122173,-0.581945,1.1874,6.98132e-05,1.35186,3.49066e-05,0,0,0,0,0,0,-0.039,-0.019,0.105,0,0,0,-5.53,13.958,-15.078,2.625,0.173307,0.278982
23:29:43:839138,0.000122173,-0.581945,1.1874,6.98132e-05,1.35186,3.49066e-05,0,0,0,0,0,0,-0.016,-0.004,0.061,0,0,0,-5.124,13.888,-15.071,2.282,0.121174,0.383248
23:29:43:844276,0.000122173,-0.581945,1.1874,6.98132e-05,1.35186,3.49066e-05,0,0,0,0,0,0,0.01,0.008,0.011,0,0,0,-5.124,13.573,-15.379,2.905,0.162035,0.314207
23:29:43:849262,0.000122173,-0.581945,1.1874,6.98132e-05,1.35186,3.49066e-05,0,0,0,0,0,0,0.01,0.011,-0.016,0,0,0,-5.124,12.901,-14.28,2.457,0.122583,0.355068
23:29:43:854240,0.000122173,-0.581945,1.1874,6.98132e-05,1.35186,3.49066e-05,0,0,0,0,0,0,-0.003,-0.001,-0.034,0,0,0,-5.117,14.875,-15.155,2.996,0.064814,0.364931
23:29:43:859402,0.000122173,-0.581945,1.1874,6.98132e-05,1.35186,3.49066e-05,0,0,0,0,0,0,-0.004,-0.017,-0.026,0,0,0,-5.019,13.195,-14.735,2.611,0.080313,0.326888
23:29:43:864411,0.000122173,-0.581945,1.1874,6.98132e-05,1.35186,3.49066e-05,0,0,0,0,0,0,0.012,-0.039,-0.02,0,0,0,-5.019,13.573,-14.266,2.555,-0.004227,0.318434
23:29:43:869512,0.000122173,-0.581945,1.1874,6.98132e-05,1.35186,3.49066e-05,0,0,0,0,0,0,0.023,-0.045,-0.045,0,0,0,-4.718,13.083,-15.575,1.785,0.100039,0.360704
23:29:43:874516,0.000122173,-0.581945,1.1874,6.98132e-05,1.35186,3.49066e-05,0,0,0,0,0,0,0.021,-0.039,-0.108,0,0,0.001,-4.921,13.181,-15.043,2.905,0.019726,0.405792
23:29:43:879639,0.000122173,-0.581945,1.1874,6.98132e-05,1.35186,3.49066e-05,0,0,0,0,0,0,0.01,-0.029,-0.12,0,0,0.001,-4.515,13.265,-15.183,2.814,0.104266,0.383248
23:29:43:884654,0.000122173,-0.581945,1.1874,6.98132e-05,1.35186,3.49066e-05,0,0,0,0,0,0,-0.003,-0.019,-0.044,0,0,0,-5.432,13.804,-15.12,2.408,0.090176,0.424109
23:29:43:889762,0.000122173,-0.581945,1.1874,6.98132e-05,1.35186,3.49066e-05,0,0,0,0,0,0,-0.002,-0.024,0.038,0,0,0,-4.914,13.769,-14.756,2.464,0.057769,0.284618
23:29:43:894720,0.000122173,-0.581945,1.1874,6.98132e-05,1.35186,3.49066e-05,0,0,0,0,0,0,0.018,-0.049,0.102,0,0,-0.001,-5.229,13.461,-15.239,2.758,-0.019726,0.383248
23:29:43:899888,0.000122173,-0.581945,1.1874,6.98132e-05,1.35186,3.49066e-05,0,0,0,0,0,0,0.037,-0.064,0.07,0,0,0,-5.026,13.531,-15.295,2.695,0.121174,0.269119
23:29:43:904890,0.000122173,-0.581945,1.1874,6.98132e-05,1.35186,3.49066e-05,0,0,0,0,0,0,0.04,-0.062,-0.032,0,0,0,-5.124,13.293,-15.54,2.415,0.049315,0.377612
23:29:43:909892,0.000122173,-0.581945,1.1874,6.98132e-05,1.35186,3.49066e-05,0,0,0,0,0,0,0.024,-0.045,-0.075,0,0,0,-4.508,14.105,-14.994,2.59,0.08454,0.343796
23:29:43:915012,0.000122173,-0.581945,1.1874,6.98132e-05,1.35186,3.49066e-05,0,0,0,0,0,0,0.005,-0.01,-0.084,0,0,0,-5.026,13.314,-15.694,2.891,0.063405,0.383248
23:29:43:919966,0.000122173,-0.581945,1.1874,6.98132e-05,1.35186,3.49066e-05,0,0,0,0,0,0,0.018,0.01,-0.103,0,0,0,-5.124,13.811,-15.351,2.373,-0.049315,0.39452
23:29:43:925150,0.000122173,-0.581945,1.1874,6.98132e-05,1.35186,3.49066e-05,0,0,0,0,0,0,0.06,0.031,-0.205,0,0,0.001,-5.117,13.342,-14.931,2.114,0.122583,0.346614
23:29:43:930080,0.000122173,-0.581945,1.1874,6.98132e-05,1.35186,3.49066e-05,0,0,0,0,0,0,0.07,0.032,-0.267,0,0,0.001,-5.229,14.105,-15.043,2.023,0.081722,0.353659
23:29:43:935262,0.000122173,-0.581945,1.1874,6.98132e-05,1.35186,3.49066e-05,0,0,0,0,0,0,0.031,0.011,-0.205,0,0,0,-4.711,14.231,-15.036,2.758,0.097221,0.314207
23:29:43:940274,0.000122173,-0.581945,1.1874,6.98132e-05,1.35186,3.49066e-05,0,0,0,0,0,0,-0.019,-0.013,-0.017,0,0,0,-5.019,13.055,-14.994,2.352,0.11272,0.342387
23:29:43:945257,0.000122173,-0.581945,1.1874,6.98132e-05,1.35186,3.49066e-05,0,0,0,0,0,0,-0.024,-0.014,0.039,0,0,0,-4.711,13.447,-15.043,2.282,0.061996,0.388884
23:29:43:950397,0.000122173,-0.581945,1.1874,6.98132e-05,1.35186,3.49066e-05,0,0,0,0,0,0,0.009,0.009,-0.061,0,0,0,-5.327,13.545,-15.078,2.758,0.190215,0.424109
23:29:43:955399,0.000122173,-0.581945,1.1874,6.98132e-05,1.35186,3.49066e-05,0,0,0,0,0,0,0.033,0.025,-0.155,0,0,0.001,-4.711,13.594,-15.141,3.164,0.085949,0.346614
23:29:43:960524,0.000122173,-0.581945,1.1874,6.98132e-05,1.35186,3.49066e-05,0,0,0,0,0,0,0.035,0.021,-0.163,0,0,0,-4.823,13.678,-15.232,2.632,0.064814,0.376203
23:29:43:965517,0.000122173,-0.581945,1.1874,6.98132e-05,1.35186,3.49066e-05,0,0,0,0,0,0,0.019,0.003,-0.101,0,0,0,-5.327,14.329,-15.232,2.296,0.061996,0.331115
23:29:43:970612,0.000122173,-0.581945,1.1874,6.98132e-05,1.35186,3.49066e-05,0,0,0,0,0,0,0,-0.009,-0.07,0,0,0,-5.53,13.293,-15.757,2.373,0.181761,0.336751
23:29:43:975645,0.000122173,-0.581945,1.1874,6.98132e-05,1.35186,3.49066e-05,0,0,0,0,0,0,0,0,-0.112,0,0,0,-5.432,13.055,-14.812,2.632,0.059178,0.412837
23:29:43:980772,0.000122173,-0.581945,1.1874,6.98132e-05,1.35186,3.49066e-05,0,0,0,0,0,0,0.016,0.022,-0.143,0,0,0.001,-4.711,14.252,-15.232,2.702,0.123992,0.383248
23:29:43:985718,0.000122173,-0.581945,1.1874,6.98132e-05,1.35186,3.49066e-05,0,0,0,0,0,0,0.025,0.021,-0.087,0,0,0,-5.327,13.902,-14.728,3.108,0.050724,0.229667
23:29:43:990898,0.000122173,-0.581945,1.1874,6.98132e-05,1.35186,3.49066e-05,0,0,0,0,0,0,0.015,-0.007,0.053,0,0,0,-5.523,13.853,-14.616,2.338,0.080313,0.326888
23:29:43:995847,0.000122173,-0.581945,1.1874,6.98132e-05,1.35186,3.49066e-05,0,0,0,0,0,0,-0.007,-0.029,0.111,0,0,-0.001,-5.019,13.825,-14.994,2.702,0.063405,0.407201
23:29:44:1020,0.000122173,-0.581945,1.1874,6.98132e-05,1.35186,3.49066e-05,0,0,0,0,0,0,-0.037,-0.045,0.098,-0.001,0,0,-4.823,14.105,-15.967,2.002,0.040861,0.371976
23:29:44:6032,0.000122173,-0.581945,1.1874,6.98132e-05,1.35186,3.49066e-05,0,0,0,0,0,0,-0.04,-0.045,0.062,-0.001,0,0,-5.117,14.105,-15.19,2.191,0.060587,0.383248
23:29:44:11142,0.000122173,-0.581945,1.1874,6.98132e-05,1.35186,3.49066e-05,0,0,0,0,0,0,-0.019,-0.039,0.051,0,0,0,-5.229,14.217,-14.889,2.905,0.040861,0.371976
23:29:44:16131,0.000122173,-0.581945,1.1874,6.98132e-05,1.35186,3.49066e-05,0,0,0,0,0,0,-0.001,-0.038,0.076,0,0,0,-5.117,13.167,-15.729,2.849,0.190215,0.407201
23:29:44:21270,0.000122173,-0.581945,1.1874,6.98132e-05,1.35186,3.49066e-05,0,0,0,0,0,0,0.013,-0.043,0.105,0,0,-0.001,-4.921,13.034,-14.966,2.702,0.214168,0.288845
23:29:44:26219,0.000122173,-0.581945,1.1874,6.98132e-05,1.35186,3.49066e-05,0,0,0,0,0,0,0.014,-0.046,0.1,0,0,-0.001,-5.222,13.545,-14.763,2.52,0.080313,0.359295
23:29:44:31379,0.000122173,-0.581945,1.1874,6.98132e-05,1.35186,3.49066e-05,0,0,0,0,0,0,0.008,-0.041,0.087,0,0,0,-4.508,13.615,-14.854,2.688,0.146536,0.336751
23:29:44:36354,0.000122173,-0.581945,1.1874,6.98132e-05,1.35186,3.49066e-05,0,0,0,0,0,0,0.007,-0.028,0.101,0,0,0,-5.222,13.482,-15.232,2.408,0.09863,0.39452
23:29:44:41505,0.000122173,-0.581945,1.1874,6.98132e-05,1.35186,3.49066e-05,0,0,0,0,0,0,0.013,-0.024,0.124,0,0,0,-4.921,14.469,-15.036,2.499,0.038043,0.307162
23:29:44:46510,0.000122173,-0.581945,1.1874,6.98132e-05,1.35186,3.49066e-05,0,0,0,0,0,0,0.031,-0.043,0.17,0,0,-0.001,-5.215,13.328,-15.085,2.541,0.123992,0.348023
23:29:44:51629,0.000122173,-0.581945,1.1874,6.98132e-05,1.35186,3.49066e-05,0,0,0,0,0,0,0.05,-0.068,0.198,0,0.001,-0.002,-5.327,13.573,-15.505,2.443,0.053542,0.370567
23:29:44:56628,0.000122173,-0.581945,1.1874,6.98132e-05,1.35186,3.49066e-05,0,0,0,0,0,0,0.094,-0.099,0.189,0,0.002,-0.002,-4.312,13.986,-14.875,2.87,0.04227,0.369158
23:29:44:61572,0.000122173,-0.581945,1.1874,6.98132e-05,1.35186,3.49066e-05,0,0,0,0,0,0,0.128,-0.104,0.129,0.001,0.003,-0.002,-4.921,12.691,-14.889,2.485,-0.105675,0.302935
23:29:44:66785,0.000122173,-0.581945,1.1874,6.98132e-05,1.35186,3.49066e-05,0,0,0,0,0,0,0.165,-0.084,0.003,0.001,0.004,-0.001,-5.327,13.531,-15.274,2.24,-0.004227,0.326888
23:29:44:71753,0.000122173,-0.581945,1.1874,6.98132e-05,1.35186,3.49066e-05,0,0,0,0,0,0,0.172,-0.061,-0.055,0.002,0.005,0,-4.305,14,-14.882,2.849,0.143718,0.457925
23:29:44:76879,0.000122173,-0.581945,1.1874,6.98132e-05,1.35186,3.49066e-05,0,0,0,0,0,0,0.166,-0.029,-0.076,0.002,0.006,0,-5.019,14.217,-14.889,2.891,0.043679,0.379021
23:29:44:81825,0.000122173,-0.581945,1.1874,6.98132e-05,1.35186,3.49066e-05,0,0,0,0,0,0,0.163,-0.017,-0.076,0.002,0.006,0,-5.026,14.105,-15.036,2.135,0.115538,0.386066
23:29:44:86884,0.000122173,-0.581945,1.1874,6.98132e-05,1.35186,3.49066e-05,0,0,0,0,0,0,0.18,-0.024,-0.121,0.001,0.008,0,-5.425,13.664,-15.036,2.485,0.156399,0.348023
23:29:44:92030,0.000122173,-0.581945,1.1874,6.98132e-05,1.35186,3.49066e-05,0,0,0,0,0,0,0.21,-0.043,-0.185,0.001,0.009,0,-4.816,12.803,-14.994,2.093,0.057769,0.263483
23:29:44:97004,0.000122173,-0.581945,1.1874,6.98132e-05,1.35186,3.49066e-05,0,0,0,0,0,0,0.262,-0.076,-0.262,0.002,0.01,0,-4.921,14.217,-14.413,2.632,0.081722,0.370567
23:29:44:102126,0.000122173,-0.581945,1.1874,6.98132e-05,1.35186,3.49066e-05,0,0,0,0,0,0,0.279,-0.088,-0.261,0.002,0.011,0,-5.131,13.314,-15.911,2.849,0.057769,0.318434
23:29:44:107144,0.000122173,-0.581945,1.1874,6.98132e-05,1.35186,3.49066e-05,0,0,0,0,0,0,0.273,-0.078,-0.197,0.002,0.012,0,-5.327,13.342,-15.183,2.758,0.039452,0.463561
23:29:44:112254,0.000122173,-0.581945,1.1874,6.98132e-05,1.35186,3.49066e-05,0,0,0,0,0,0,0.278,-0.041,-0.165,0.001,0.013,0,-4.914,13.874,-14.693,2.996,0.021135,0.314207
23:29:44:117250,0.000122173,-0.581945,1.1874,6.98132e-05,1.35186,3.49066e-05,0,0,0,0,0,0,0.31,-0.008,-0.202,0.001,0.013,0,-5.327,13.888,-14.875,2.744,-0.043679,0.349432
23:29:44:122379,0.000122173,-0.581945,1.1874,6.98132e-05,1.35186,3.49066e-05,0,0,0,0,0,0,0.367,0.036,-0.316,0.001,0.013,0.001,-5.019,13.902,-14.994,2.226,0.022544,0.331115
23:29:44:127400,0.000122173,-0.581945,1.1874,6.98132e-05,1.35186,3.49066e-05,0,0,0,0,0,0,0.368,0.053,-0.386,0,0.014,0.001,-5.32,13.916,-14.532,2.702,0.009863,0.321252
23:29:44:132320,0.000122173,-0.581945,1.1874,6.98132e-05,1.35186,3.49066e-05,0,0,0,0,0,0,0.292,0.056,-0.422,0,0.015,0,-5.327,15.05,-14.497,2.408,0.043679,0.33816
23:29:44:137500,0.000122173,-0.581945,1.1874,6.98132e-05,1.35186,3.49066e-05,0,0,0,0,0,0,0.218,0.052,-0.394,0,0.015,0,-5.222,14.035,-14.882,2.702,0.067632,0.269119
23:29:44:142444,0.000122173,-0.581945,1.1874,6.98132e-05,1.35186,3.49066e-05,0,0,0,0,0,0,0.149,0.056,-0.321,0,0.015,-0.001,-5.425,14.56,-14.994,2.59,-0.001409,0.441017
23:29:44:147592,0.000122173,-0.581945,1.1874,6.98132e-05,1.35186,3.49066e-05,0,0,0,0,0,0,0.155,0.062,-0.291,-0.001,0.015,-0.001,-4.921,13.657,-14.525,2.149,-0.152172,0.393111
23:29:44:152749,0.000122173,-0.581945,1.1874,6.98132e-05,1.35186,3.49066e-05,0,0,0,0,0,0,0.223,0.055,-0.29,-0.001,0.015,-0.001,-5.334,14.511,-14.336,3.108,0.015499,0.297299
23:29:44:157747,0.000122173,-0.581945,1.1874,6.98132e-05,1.35186,3.49066e-05,0,0,0,0,0,0,0.277,0.037,-0.284,-0.002,0.014,0,-5.117,14.777,-13.447,3.108,0.101448,0.312798
23:29:44:162767,0.000122173,-0.581945,1.1874,6.98132e-05,1.35186,3.49066e-05,0,0,0,0,0,0,0.329,0.008,-0.214,-0.002,0.013,0,-5.019,14.399,-13.482,2.688,0.061996,0.360704
23:29:44:167891,0.000122173,-0.581945,1.1874,6.98132e-05,1.35186,3.49066e-05,0,0,0,0,0,0,0.338,-0.001,-0.141,-0.003,0.013,-0.001,-5.327,14.476,-14.637,2.338,0.064814,0.342387
23:29:44:172874,0.000122173,-0.581945,1.1874,6.98132e-05,1.35186,3.49066e-05,0,0,0,0,0,0,0.34,0.001,-0.055,-0.002,0.013,-0.001,-5.95,15.26,-13.496,2.758,-0.036634,0.318434
23:29:44:178016,0.000122173,-0.581945,1.1874,6.98132e-05,1.35186,3.49066e-05,0,0,0,0,0,0,0.349,0.012,-0.034,-0.002,0.013,-0.001,-4.928,15.134,-13.874,2.611,0.059178,0.312798
23:29:44:182963,0.000122173,-0.581945,1.1874,6.98132e-05,1.35186,3.49066e-05,0,0,0,0,0,0,0.366,0.039,-0.063,-0.003,0.013,-0.001,-5.327,14.049,-13.293,2.793,0.045088,0.388884
23:29:44:187965,0.000122173,-0.581945,1.1874,6.98132e-05,1.35186,3.49066e-05,0,0,0,0,0,0,0.362,0.062,-0.133,-0.003,0.013,-0.001,-5.334,14.756,-13.713,2.338,-0.091585,0.301526
23:29:44:193122,0.000122173,-0.581945,1.1874,6.98132e-05,1.35186,3.49066e-05,0,0,0,0,0,0,0.324,0.094,-0.321,-0.005,0.014,0,-4.41,13.552,-13.475,2.849,-0.09863,0.355068
23:29:44:198074,0.000122173,-0.581945,1.1874,6.98132e-05,1.35186,3.49066e-05,0,0,0,0,0,0,0.292,0.107,-0.458,-0.006,0.013,0,-5.026,14.826,-13.531,2.793,-0.015499,0.307162
23:29:44:203250,0.000122173,-0.581945,1.1874,6.98132e-05,1.35186,3.49066e-05,0,0,0,0,0,0,0.263,0.121,-0.564,-0.008,0.013,0.001,-4.816,15.414,-13.139,2.793,-0.018317,0.314207
23:29:44:208251,0.000122173,-0.581945,1.1874,6.98132e-05,1.35186,3.49066e-05,0,0,0,0,0,0,0.252,0.141,-0.515,-0.009,0.012,0,-5.229,15.183,-12.908,2.702,-0.069041,0.417064
23:29:44:213372,0.000122173,-0.581945,1.1874,6.98132e-05,1.35186,3.49066e-05,0,0,0,0,0,0,0.242,0.157,-0.446,-0.01,0.011,0,-5.53,15.288,-12.649,2.394,-0.077495,0.377612
23:29:44:218372,0.000122173,-0.581945,1.1874,6.98132e-05,1.35186,3.49066e-05,0,0,0,0,0,0,0.221,0.176,-0.369,-0.012,0.01,0,-5.026,15.022,-12.824,3.038,-0.04227,0.325479
23:29:44:223501,0.000122173,-0.581945,1.1874,6.98132e-05,1.35186,3.49066e-05,0,0,0,0,0,0,0.215,0.193,-0.344,-0.013,0.009,0,-4.718,15.365,-13.146,2.17,-0.147945,0.319843
23:29:44:228503,0.000122173,-0.581945,1.1874,6.98132e-05,1.35186,3.49066e-05,0,0,0,0,0,0,0.225,0.241,-0.339,-0.016,0.007,0,-5.236,14.854,-12.061,2.835,-0.012681,0.343796
23:29:44:233665,0.000122173,-0.581945,1.1874,6.98132e-05,1.35184,3.49066e-05,0,0,0,0,0,0,0.234,0.279,-0.353,-0.017,0.005,0,-5.418,15.547,-12.754,2.149,-0.077495,0.377612
23:29:44:238648,0.000122173,-0.581945,1.1874,6.98132e-05,1.35184,3.49066e-05,0,0,0,0,0,0,0.222,0.305,-0.369,-0.018,0.002,0,-4.718,15.05,-12.089,2.555,-0.173307,0.36634
23:29:44:243743,0.000122173,-0.581945,1.1874,6.98132e-05,1.35184,3.49066e-05,0,0,0,0,0,0,0.188,0.294,-0.332,-0.019,0,0,-5.117,15.4,-12.117,2.002,-0.002818,0.370567
23:29:44:248744,0.000122173,-0.581945,1.1874,6.98132e-05,1.35184,3.49066e-05,0,0,0,0,0,0,0.104,0.269,-0.19,-0.02,-0.001,-0.001,-5.124,15.386,-12.481,2.905,-0.073268,0.393111
23:29:44:253942,0.000122173,-0.581945,1.1874,6.98132e-05,1.35184,3.49066e-05,0,0,0,0,0,0,0.045,0.273,-0.113,-0.021,-0.002,-0.001,-4.62,16.177,-11.473,2.688,-0.057769,0.353659
23:29:44:258883,0.000122173,-0.581945,1.1874,6.98132e-05,1.35184,3.49066e-05,0,0,0,0,0,0,-0.016,0.319,-0.178,-0.022,-0.003,-0.001,-4.613,16.058,-12.166,2.338,-0.087358,0.256438
23:29:44:263818,0.000122173,-0.581945,1.1874,6.98132e-05,1.35184,3.49066e-05,0,0,0,0,0,0,-0.029,0.349,-0.332,-0.022,-0.004,0,-5.124,15.393,-11.697,3.038,-0.133855,0.308571
23:29:44:268955,0.000122173,-0.581945,1.1874,6.98132e-05,1.35184,3.49066e-05,0,0,0,0,0,0,-0.024,0.354,-0.483,-0.022,-0.005,0.001,-4.403,15.344,-11.536,3.017,-0.091585,0.405792
23:29:44:273955,0.000122173,-0.581945,1.1874,6.98132e-05,1.35184,3.49066e-05,0,0,0,0,0,0,-0.022,0.329,-0.412,-0.021,-0.006,0,-3.997,14.917,-11.634,2.576,-0.191624,0.325479
23:29:44:279122,0.000122173,-0.581945,1.1874,6.98132e-05,1.35184,5.23599e-05,0,0,0,0,0,0,-0.034,0.277,-0.131,-0.02,-0.007,0,-4.508,16.268,-11.487,2.555,-0.200078,0.30998
23:29:44:284159,0.000122173,-0.581945,1.1874,6.98132e-05,1.35184,6.98132e-05,0,0,0,0,0,0.00216421,-0.049,0.248,0.014,-0.019,-0.008,-0.001,-4.41,15.498,-11.431,2.443,-0.207123,0.388884
23:29:44:289260,0.000122173,-0.581945,1.1874,6.98132e-05,1.35184,6.98132e-05,0,0,0,0,0,0,-0.063,0.214,0.048,-0.018,-0.008,-0.001,-4.599,15.89,-11.592,2.982,-0.109902,0.425518
23:29:44:294249,0.000122173,-0.581945,1.1874,6.98132e-05,1.35184,6.98132e-05,0,0,0,0,0,0,-0.074,0.191,-0.013,-0.017,-0.008,0,-4.403,16.583,-12.362,2.261,-0.131037,0.414246
23:29:44:299388,0.000122173,-0.581945,1.1874,6.98132e-05,1.35184,8.72665e-05,0,0,0,0,0,0,-0.087,0.19,-0.035,-0.017,-0.008,0,-4.102,14.259,-11.627,3.108,-0.232485,0.448062
23:29:44:304388,0.000122173,-0.581945,1.1874,6.98132e-05,1.35184,8.72665e-05,0,0,0,0,0,0,-0.117,0.206,-0.048,-0.017,-0.009,0,-3.899,15.183,-11.095,2.394,-0.094403,0.302935
23:29:44:309387,0.000122173,-0.581945,1.1874,6.98132e-05,1.35184,0.000122173,0,0,0,0,0,0.00312414,-0.134,0.221,-0.049,-0.017,-0.009,-0.001,-3.696,15.316,-11.221,2.94,-0.152172,0.325479
23:29:44:314497,0.000122173,-0.581945,1.1874,6.98132e-05,1.35184,0.000139626,0,0,0,0,0,0.00420624,-0.145,0.234,-0.012,-0.017,-0.01,-0.001,-3.899,14.903,-11.578,2.464,-0.156399,0.350841
23:29:44:319456,0.000122173,-0.581945,1.1874,6.98132e-05,1.35184,0.000139626,0,0,0,0,0,0.0029147,-0.148,0.239,0.013,-0.017,-0.01,-0.001,-3.892,14.966,-11.522,2.688,-0.222622,0.312798
23:29:44:324634,0.000122173,-0.581945,1.1874,6.98132e-05,1.35184,0.000174533,0,0,0,0,0,0.00338594,-0.16,0.257,-0.076,-0.018,-0.011,0,-3.591,15.96,-12.201,3.038,-0.219804,0.328297
23:29:44:329620,0.000122173,-0.581945,1.1874,6.98132e-05,1.35184,0.000174533,0,0,0,0,0,0.00270526,-0.176,0.282,-0.24,-0.019,-0.013,0.001,-3.696,16.023,-12.159,2.443,-0.174716,0.326888
23:29:44:334741,0.000122173,-0.581945,1.1874,6.98132e-05,1.35184,0.000191986,0,0,0,0,0,0.00219911,-0.214,0.332,-0.463,-0.021,-0.015,0.002,-3.178,16.086,-11.858,2.59,-0.410019,0.411428
23:29:44:339773,0.000122173,-0.581945,1.1874,6.98132e-05,1.35184,0.000191986,0,0,0,0,0,0,-0.247,0.369,-0.484,-0.022,-0.017,0.001,-3.997,15.68,-12.285,2.849,0.021135,0.293072
23:29:44:344882,0.000122173,-0.581945,1.1874,6.98132e-05,1.35183,0.000226893,0,0,0,0,0,0.00336849,-0.297,0.421,-0.351,-0.024,-0.02,0,-3.591,16.072,-11.865,2.59,-0.149354,0.335342
23:29:44:349883,0.000122173,-0.581945,1.1874,6.98132e-05,1.35183,0.000226893,0,0,0,0,0,0.00253073,-0.322,0.453,-0.267,-0.024,-0.022,-0.001,-3.885,14.707,-12.411,2.87,-0.108493,0.240939
23:29:44:355003,0.000122173,-0.581945,1.1874,6.98132e-05,1.35183,0.000244346,0,0,0,0,0,0.00308923,-0.34,0.492,-0.256,-0.025,-0.024,0,-3.479,15.974,-12.201,2.576,0.045088,0.332524
23:29:44:360019,0.000122173,-0.581945,1.1874,6.98132e-05,1.35183,0.000279253,0,0,0,0,0,0.00335103,-0.339,0.506,-0.295,-0.026,-0.024,0,-3.283,15.883,-12.376,2.611,-0.143718,0.195851
23:29:44:365006,0.000122173,-0.581945,1.1874,6.98132e-05,1.35183,0.000296706,0,0,0,0,0,0.00523599,-0.326,0.505,-0.341,-0.026,-0.025,0,-3.276,15.393,-11.914,3.185,-0.011272,0.300117
23:29:44:370134,0.000122173,-0.581945,1.1874,6.98132e-05,1.35184,0.000331613,0,0,0,0,0,0.00471239,-0.315,0.497,-0.345,-0.027,-0.024,0,-3.381,15.414,-13.02,1.673,-0.064814,0.297299
23:29:44:375134,0.000122173,-0.581945,1.1874,6.98132e-05,1.35184,0.000349066,0,0,0,0,0,0.00446804,-0.305,0.494,-0.297,-0.028,-0.023,0,-3.066,15.631,-12.873,2.737,-0.025362,0.321252
23:29:44:380252,0.000122173,-0.581945,1.1874,6.98132e-05,1.35184,0.000383972,0,0,0,0,0,0.00575959,-0.305,0.51,-0.161,-0.03,-0.022,0,-3.262,15.022,-13.279,1.855,-0.012681,0.208532
23:29:44:385255,0.000122173,-0.581945,1.1874,6.98132e-05,1.35184,0.000401426,0,0,0,0,0,0.00528835,-0.302,0.527,-0.05,-0.032,-0.022,-0.001,-3.178,14.707,-13.566,3.094,-0.094403,0.260665
23:29:44:390379,0.000122173,-0.581945,1.1874,6.98132e-05,1.35184,0.000418879,0,0,0,0,0,0.00488692,-0.292,0.556,0.048,-0.035,-0.022,-0.001,-3.374,15.463,-13.461,2.723,-0.030998,0.167671
23:29:44:395382,0.000122173,-0.581945,1.1874,6.98132e-05,1.35184,0.000436332,0,0,0,0,0,0.0031765,-0.286,0.575,0.046,-0.036,-0.022,-0.001,-3.276,14.413,-13.601,2.387,-0.081722,0.131037
23:29:44:400508,0.000122173,-0.581945,1.1874,6.98132e-05,1.35184,0.000453786,0,0,0,0,0,0.00356047,-0.288,0.592,0.027,-0.035,-0.023,-0.001,-2.863,14.728,-13.58,2.429,0.030998,0.15499
23:29:44:405490,0.000122173,-0.581945,1.1874,6.98132e-05,1.35184,0.000471239,0,0,0,0,0,0.00363028,-0.291,0.582,0.073,-0.032,-0.024,-0.002,-3.066,15.155,-13.384,2.996,-0.064814,0.164853
23:29:44:410616,0.000122173,-0.581945,1.1874,6.98132e-05,1.35184,0.000506145,0,0,0,0,0,0.00361283,-0.281,0.508,0.224,-0.026,-0.024,-0.003,-2.863,14.147,-13.412,2.52,0.190215,0.249393
23:29:44:415643,0.000122173,-0.581945,1.1874,6.98132e-05,1.35184,0.000523599,0,0,0,0,0,0.00476475,-0.258,0.422,0.311,-0.021,-0.024,-0.004,-2.856,13.615,-14.49,2.226,-0.059178,0.015499
23:29:44:420753,0.000122173,-0.581945,1.1874,6.98132e-05,1.35184,0.000558505,0,0,0,0,0,0.00593412,-0.214,0.271,0.383,-0.013,-0.024,-0.006,-2.359,13.573,-14.161,3.038,-0.131037,0.177534
23:29:44:425757,0.000122173,-0.581945,1.1874,6.98132e-05,1.35184,0.000575959,0,0,0,0,0,0.00493928,-0.197,0.185,0.45,-0.009,-0.024,-0.007,-2.744,13.181,-14.763,2.779,0.032407,0.135264
23:29:44:430703,0.000122173,-0.581945,1.1874,6.98132e-05,1.35184,0.000610865,0,0,0,0,0,0.00610865,-0.214,0.109,0.62,-0.003,-0.026,-0.008,-1.946,14.042,-14.616,2.59,-0.032407,0.050724
23:29:44:435861,0.000122173,-0.581945,1.1874,6.98132e-05,1.35184,0.000628319,0,0,0,0,0,0.00514872,-0.251,0.095,0.699,-0.001,-0.03,-0.009,-2.051,12.978,-15.351,2.646,0.016908,0.095812
23:29:44:440869,0.000139626,-0.581945,1.1874,6.98132e-05,1.35184,0.000645772,0,0,0,0,0,0.0042237,-0.324,0.115,0.615,0,-0.036,-0.008,-1.967,14.154,-15.421,2.541,0.123992,0.057769
23:29:44:445990,0.000139626,-0.581945,1.1874,6.98132e-05,1.35184,0.000663225,0,0,0,0,0,0.00450295,-0.378,0.144,0.466,-0.002,-0.041,-0.007,-1.743,13.615,-15.547,2.226,0.053542,0.187397
23:29:44:451014,0.000139626,-0.581945,1.1874,6.98132e-05,1.35184,0.000680678,0,0,0,0,0,0.00328122,-0.467,0.198,0.32,-0.004,-0.047,-0.006,-2.345,13.342,-14.994,2.485,0.25362,0.139491
23:29:44:456144,0.000139626,-0.581945,1.1874,6.98132e-05,1.35184,0.000698132,0,0,0,0,0,0.00254818,-0.528,0.234,0.335,-0.006,-0.051,-0.006,-1.561,14.448,-15.736,2.702,0.123992,0.129628
23:29:44:461135,0.000139626,-0.581945,1.1874,6.98132e-05,1.35184,0.000698132,0,0,0,0,0,0,-0.621,0.279,0.451,-0.009,-0.058,-0.006,-1.75,13.671,-16.24,2.24,0.123992,0.021135
23:29:44:466251,0.000139626,-0.581945,1.1874,6.98132e-05,1.35186,0.000715585,0,0,0,0,0,0.00301942,-0.697,0.299,0.533,-0.011,-0.064,-0.006,-0.728,12.901,-16.814,2.499,0.036634,0.036634
23:29:44:471263,0.000139626,-0.581945,1.1874,6.98132e-05,1.35186,0.000733038,0,0,0,0,0,0.00223402,-0.852,0.329,0.636,-0.014,-0.074,-0.005,-1.442,12.719,-16.233,2.541,0.142309,0.146536
23:29:44:476202,0.000139626,-0.581963,1.18738,6.98132e-05,1.35186,0.000750492,0,0,0,0,0,0.00321141,-0.97,0.369,0.695,-0.017,-0.081,-0.005,-1.729,13.02,-16.968,2.191,0.339569,0.102857
23:29:44:481361,0.000139626,-0.581963,1.18736,6.98132e-05,1.35186,0.000767945,0,-0.00178024,-0.00178024,0,0,0.00251327,-1.119,0.478,0.769,-0.023,-0.091,-0.005,-1.141,11.928,-17.045,2.261,0.162035,0.067632
23:29:44:486359,0.000139626,-0.58198,1.18736,6.98132e-05,1.35188,0.000785398,0,-0.00228638,-0.00232129,0,0.00249582,0.00338594,-1.211,0.618,0.828,-0.029,-0.099,-0.005,-1.715,12.285,-17.556,2.667,0.263483,0.08454
23:29:44:491526,0.000139626,-0.582015,1.18733,6.98132e-05,1.3519,0.000802851,0,-0.00389208,-0.00401426,0,0.00254818,0.00436332,-1.26,0.703,0.844,-0.033,-0.104,-0.004,-1.421,11.83,-18.368,2.135,0.164853,0.022544
23:29:44:496625,0.000139626,-0.58205,1.1873,6.98132e-05,1.35191,0.000820305,0,-0.00640536,-0.00640536,0,0.00376991,0.00308923,-1.358,0.814,0.813,-0.038,-0.112,-0.002,-1.337,12.502,-17.815,2.443,0.228258,-0.004227
23:29:44:501607,0.000139626,-0.582085,1.18724,6.98132e-05,1.35191,0.000820305,0,-0.00823795,-0.00876155,0,0.00286234,0.00272271,-1.447,0.887,0.798,-0.041,-0.117,-0.001,-1.134,12.488,-18.151,1.911,0.226849,-0.018317
23:29:44:506637,0.000139626,-0.582155,1.18717,6.98132e-05,1.35193,0.000837758,0,-0.00951204,-0.0129678,0,0.00350811,0.00251327,-1.614,0.991,0.922,-0.046,-0.126,-0.001,-1.323,13.027,-18.025,2.541,0.26771,-0.019726
23:29:44:511762,0.000139626,-0.582207,1.18707,6.98132e-05,1.35197,0.000855211,0,-0.0116937,-0.0180642,0,0.00345575,0.0034383,-1.746,1.043,1.11,-0.049,-0.133,-0.002,-0.91,13.167,-16.016,2.429,0.288845,-0.040861
23:29:44:516737,0.000139626,-0.582277,1.18693,6.98132e-05,1.35198,0.000872665,0,-0.0124267,-0.022794,0,0.00511381,0.00415388,-1.959,1.085,1.397,-0.053,-0.143,-0.003,-0.322,13.104,-15.477,2.905,0.332524,0.021135
23:29:44:521884,0.000139626,-0.582347,1.18679,6.98132e-05,1.35202,0.000890118,0,-0.0137357,-0.0273842,0,0.0058294,0.00301942,-2.093,1.101,1.516,-0.055,-0.15,-0.004,-0.756,13.755,-15.722,2.149,0.339569,0.059178
23:29:44:526884,0.000139626,-0.582416,1.1866,6.98132e-05,1.35205,0.000907571,0,-0.0141895,-0.0321315,0,0.00565487,0.0037001,-2.246,1.137,1.606,-0.057,-0.159,-0.003,-0.826,13.118,-14.721,2.646,0.301526,0.102857
23:29:44:532013,0.00015708,-0.582504,1.1864,6.98132e-05,1.35209,0.000925025,0,-0.0151669,-0.0355,0,0.00596903,0.00383972,-2.31,1.173,1.646,-0.059,-0.164,-0.002,-0.329,13.51,-13.447,2.87,0.280391,-0.036634
23:29:44:536981,0.00015708,-0.582573,1.18621,6.98132e-05,1.35212,0.000959931,0,-0.0159872,-0.037542,0,0.0071733,0.00551524,-2.383,1.226,1.672,-0.061,-0.171,0,-1.043,13.447,-13.118,2.779,0.30998,0.001409
23:29:44:541997,0.00015708,-0.582661,1.18604,6.98132e-05,1.35218,0.000977384,0,-0.0158825,-0.035692,0,0.00820305,0.005044,-2.439,1.249,1.666,-0.061,-0.175,0,-0.84,12.999,-13.713,2.779,0.400156,0.066223
23:29:44:546983,0.00015708,-0.582748,1.18588,6.98132e-05,1.35221,0.00101229,0,-0.0164061,-0.0328645,0,0.00877901,0.00436332,-2.535,1.259,1.685,-0.06,-0.179,0.001,-0.308,13.027,-13.811,2.611,0.438199,0
23:29:44:552123,0.00015708,-0.582835,1.18572,6.98132e-05,1.35226,0.00102974,0,-0.0175231,-0.0310669,0,0.00829031,0.00521853,-2.586,1.254,1.733,-0.059,-0.181,0.001,0.406,12.922,-14.406,2.541,0.388884,0.09863
23:29:44:557232,0.000174533,-0.582922,1.18558,6.98132e-05,1.35232,0.00106465,0,-0.0174533,-0.0304909,0,0.00940732,0.00424115,-2.611,1.237,1.762,-0.058,-0.183,0.003,0.112,13.272,-14.791,2.632,0.488923,-0.007045
23:29:44:562287,0.000174533,-0.58301,1.18543,6.98132e-05,1.35237,0.0010821,0,-0.0183783,-0.0294786,0,0.00973894,0.00541052,-2.577,1.221,1.634,-0.057,-0.182,0.005,0.406,12.516,-14.763,2.779,0.446653,-0.091585
23:29:44:567194,0.000191986,-0.583115,1.18529,6.98132e-05,1.35244,0.00111701,0,-0.018483,-0.0282045,0,0.0109083,0.0050091,-2.537,1.212,1.527,-0.056,-0.181,0.008,-0.105,11.907,-15.799,2.17,0.417064,-0.032407
23:29:44:572376,0.000191986,-0.583202,1.18515,6.98132e-05,1.35249,0.00113446,0,-0.0184481,-0.0302116,0,0.0109432,0.00438078,-2.477,1.193,1.556,-0.055,-0.177,0.01,0.434,12.012,-15.379,2.044,0.443835,0.008454
23:29:44:577388,0.000191986,-0.583289,1.18496,6.98132e-05,1.35254,0.00116937,0,-0.0181689,-0.0344528,0,0.0105069,0.00574213,-2.437,1.163,1.745,-0.053,-0.174,0.01,1.022,13.055,-15.526,2.079,0.433972,0
23:29:44:582485,0.000191986,-0.583394,1.18471,6.98132e-05,1.35261,0.00118682,0,-0.0187448,-0.0416959,0,0.0127234,0.00637045,-2.355,1.083,2.085,-0.05,-0.168,0.009,0.826,12.369,-13.398,2.079,0.483287,0.029589
23:29:44:587510,0.00020944,-0.583498,1.18443,6.98132e-05,1.35267,0.00122173,0,-0.0198793,-0.0507716,0,0.0126536,0.00677188,-2.278,1.014,2.19,-0.048,-0.164,0.009,1.176,12.054,-12.719,3.073,0.500195,0.07045
23:29:44:592614,0.00020944,-0.583621,1.18414,6.98132e-05,1.35275,0.00123918,0,-0.0210312,-0.055292,0,0.0140848,0.00514872,-2.165,0.921,2.084,-0.043,-0.158,0.01,0.973,12.397,-12.005,2.555,0.54951,-0.046497
23:29:44:597603,0.00020944,-0.583725,1.18387,6.98132e-05,1.35282,0.00129154,0,-0.0225671,-0.0526391,0,0.0148528,0.0071384,-2.128,0.885,1.917,-0.039,-0.156,0.012,1.54,12.201,-12.355,2.338,0.541056,0.053542
23:29:44:602761,0.000226893,-0.583848,1.18366,6.98132e-05,1.35289,0.00132645,0.00172788,-0.0223577,-0.0454658,0,0.0146957,0.00671952,-2.135,0.872,1.682,-0.035,-0.153,0.013,1.813,11.186,-13.734,3.115,0.604461,-0.094403
23:29:44:607747,0.000226893,-0.583952,1.18351,6.98132e-05,1.35294,0.0013439,0,-0.0230558,-0.0382925,0,0.0120079,0.006353,-2.134,0.873,1.577,-0.033,-0.152,0.013,1.988,11.662,-15.078,2.38,0.598825,-0.025362
23:29:44:612854,0.000244346,-0.584074,1.18333,6.98132e-05,1.35301,0.00137881,0,-0.0225497,-0.0352382,0,0.0137532,0.00638791,-2.039,0.856,1.512,-0.03,-0.15,0.013,1.659,11.487,-14.959,2.163,0.680547,-0.178943
23:29:44:617870,0.000244346,-0.584214,1.18316,6.98132e-05,1.35308,0.00139626,0,-0.0254818,-0.034383,0,0.0146259,0.00514872,-1.913,0.835,1.54,-0.03,-0.147,0.013,1.925,11.865,-16.695,2.534,0.597416,-0.035225
23:29:44:623005,0.000244346,-0.584371,1.183,6.98132e-05,1.35319,0.00143117,0,-0.0298626,-0.0331438,0,0.018675,0.00577704,-1.722,0.833,1.67,-0.033,-0.141,0.013,2.289,12.201,-15.953,2.534,0.581917,0.057769
23:29:44:627992,0.000244346,-0.584546,1.18281,6.98132e-05,1.35331,0.00144862,0,-0.0331613,-0.0352906,0,0.0208741,0.0047822,-1.645,0.874,1.766,-0.037,-0.137,0.013,1.827,13.51,-16.772,2.058,0.584735,-0.063405
23:29:44:632994,0.000261799,-0.58472,1.18258,6.98132e-05,1.35343,0.00148353,0,-0.0344877,-0.0408233,0,0.0221657,0.00598648,-1.598,0.977,1.811,-0.043,-0.132,0.013,2.254,14.056,-15.484,2.485,0.701682,-0.088767
23:29:44:638120,0.000261799,-0.584895,1.18232,6.98132e-05,1.35354,0.00150098,0.00205949,-0.0340514,-0.0485376,0,0.0202109,0.00356047,-1.55,1.035,1.746,-0.046,-0.129,0.013,2.219,14.567,-14.252,2.338,0.343796,0.060587
23:29:44:643103,0.000279253,-0.585069,1.18206,6.98132e-05,1.35362,0.00151844,0.00272271,-0.0335103,-0.0512603,0,0.0203505,0.00356047,-1.356,1.05,1.587,-0.048,-0.122,0.016,2.198,15.246,-13.916,3.241,0.435381,0.076086
23:29:44:648172,0.000296706,-0.585226,1.1818,6.98132e-05,1.35375,0.00153589,0.00272271,-0.031573,-0.0498466,0,0.0211534,0.00364774,-1.172,1.013,1.519,-0.046,-0.116,0.017,2.422,14.448,-13.608,2.219,0.472015,-0.052133
23:29:44:653246,0.000314159,-0.585366,1.18161,6.98132e-05,1.35387,0.0015708,0.00267035,-0.0288154,-0.0435634,0,0.0237539,0.00527089,-1.003,0.954,1.503,-0.044,-0.109,0.019,2.443,14.217,-14.595,2.905,0.441017,-0.091585
23:29:44:658367,0.000314159,-0.585488,1.18141,6.98132e-05,1.35399,0.00158825,0.00169297,-0.0271224,-0.0396364,0,0.0234398,0.00460767,-1.133,0.971,1.446,-0.046,-0.113,0.02,2.674,13.286,-15.568,2.919,0.308571,0.030998
23:29:44:663369,0.000331613,-0.585628,1.18122,6.98132e-05,1.3541,0.0016057,0.00226893,-0.0258309,-0.0396713,0,0.0234049,0.00427606,-1.345,1.027,1.338,-0.049,-0.121,0.02,3.136,13.153,-17.36,2.709,0.497377,0.104266
23:29:44:668478,0.000331613,-0.58575,1.18098,6.98132e-05,1.35422,0.00164061,0.00202458,-0.0248709,-0.043162,0,0.0246615,0.00392699,-1.627,1.115,1.209,-0.053,-0.137,0.019,2.926,14.133,-14.756,2.73,0.166262,0.022544
23:29:44:673476,0.000349066,-0.585872,1.18073,6.98132e-05,1.35436,0.00165806,0.00178024,-0.0255516,-0.0478046,0,0.0252549,0.00347321,-1.697,1.154,1.236,-0.056,-0.146,0.018,3.164,13.559,-13.356,2.226,0.163444,0.097221
23:29:44:678618,0.000349066,-0.586012,1.18047,6.98132e-05,1.35448,0.00169297,0.00172788,-0.0258309,-0.0503527,0,0.0237365,0.00347321,-1.628,1.225,1.397,-0.062,-0.151,0.017,3.087,13.846,-13.888,2.135,0.215577,-0.016908
23:29:44:683563,0.000349066,-0.586151,1.18021,6.98132e-05,1.35457,0.00171042,0.00165806,-0.0268606,-0.0503877,0,0.0208741,0.00514872,-1.534,1.319,1.475,-0.068,-0.15,0.017,3.339,13.993,-11.914,1.89,0.085949,-0.057769
23:29:44:688615,0.000366519,-0.586308,1.17996,6.98132e-05,1.35467,0.00172788,0,-0.0287107,-0.0488343,0,0.0181689,0.00441568,-1.417,1.509,1.497,-0.079,-0.144,0.018,3.101,14.259,-12.95,2.394,0.102857,0.147945
23:29:44:693727,0.000366519,-0.586466,1.17977,6.98132e-05,1.35474,0.00174533,0.0018326,-0.0309447,-0.0428478,0,0.0180467,0.00401426,-1.378,1.608,1.53,-0.085,-0.14,0.018,3.605,15.127,-14.259,2.219,0.046497,0.107084
23:29:44:698739,0.000383972,-0.586623,1.17962,6.98132e-05,1.35481,0.00176278,0.00214676,-0.0310669,-0.0346971,0,0.0161617,0.00406662,-1.397,1.63,1.692,-0.088,-0.138,0.018,3.773,15.421,-14.973,1.673,0.125401,0.059178
23:29:44:703693,0.000401426,-0.586762,1.17949,6.98132e-05,1.3549,0.00179769,0.00254818,-0.028763,-0.0282394,0,0.0167377,0.0039968,-1.473,1.582,1.811,-0.086,-0.141,0.018,4.053,15.071,-17.122,2.779,0.240939,-0.038043
23:29:44:708865,0.000401426,-0.586884,1.17937,6.98132e-05,1.35499,0.00181514,0.00178024,-0.025988,-0.0261974,0,0.0171391,0.00502655,-1.687,1.533,1.868,-0.084,-0.153,0.018,4.263,14.385,-18.424,2.681,0.25362,0.163444
23:29:44:713989,0.000418879,-0.587007,1.17923,6.98132e-05,1.35506,0.00185005,0.00324631,-0.0240506,-0.0280474,0,0.015865,0.00403171,-1.867,1.564,1.841,-0.084,-0.165,0.019,4.326,14.406,-17.066,1.47,0.205714,0.060587
23:29:44:718989,0.000453786,-0.587111,1.17904,6.98132e-05,1.35514,0.0018675,0.00378736,-0.0236143,-0.032882,0,0.0149924,0.00506145,-2.093,1.694,1.841,-0.091,-0.18,0.019,4.137,14.021,-18.025,3.08,0.293072,0.308571
23:29:44:723973,0.000471239,-0.587216,1.17885,6.98132e-05,1.35521,0.00190241,0.00548033,-0.0217468,-0.0385194,0,0.0145037,0.00570723,-2.152,1.796,1.905,-0.097,-0.185,0.018,3.892,13.265,-17.43,0.889,0.348023,0.102857
23:29:44:729095,0.000506145,-0.587321,1.17859,6.98132e-05,1.35528,0.00191986,0.00600393,-0.0211359,-0.0456927,0,0.0144164,0.00466003,-2.064,1.925,2.055,-0.106,-0.183,0.018,4.067,13.881,-16.177,2.247,0.297299,0.22544
23:29:44:734114,0.000541052,-0.587425,1.17832,6.98132e-05,1.35535,0.00195477,0.00607375,-0.0201586,-0.0489216,0,0.0147829,0.00429351,-1.936,1.986,2.16,-0.111,-0.177,0.018,4.109,12.285,-15.582,2.667,0.412837,0.164853
23:29:44:739221,0.000575959,-0.58753,1.17806,6.98132e-05,1.35542,0.00198968,0.00621337,-0.0200713,-0.0512778,0,0.0139277,0.00647517,-1.808,2.025,2.299,-0.114,-0.169,0.019,4.263,11.746,-14.742,2.499,0.35225,0.194442
23:29:44:744285,0.000593412,-0.587635,1.17782,6.98132e-05,1.35548,0.00202458,0.00495674,-0.0207694,-0.050248,0,0.0127933,0.00659734,-1.923,1.993,2.332,-0.114,-0.17,0.02,4.711,11.788,-15.498,2.317,0.345205,0.398747
23:29:44:749236,0.000610865,-0.58774,1.17759,6.98132e-05,1.35556,0.00205949,0.00434587,-0.0217992,-0.0464781,0,0.0152367,0.00682424,-2.127,1.96,2.241,-0.112,-0.178,0.02,4.487,11.697,-15.407,2.842,0.534011,0.300117
23:29:44:754350,0.000645772,-0.587862,1.17736,6.98132e-05,1.35563,0.00209439,0.00471239,-0.0227591,-0.0451517,0,0.0149226,0.00808087,-2.464,1.965,1.972,-0.11,-0.197,0.021,5.103,12.502,-16.072,2.604,0.491741,0.191624
23:29:44:759311,0.000680678,-0.588001,1.17712,6.98132e-05,1.35572,0.0021293,0.00600393,-0.0247139,-0.0463036,0,0.0146259,0.00671952,-2.605,2.027,1.801,-0.112,-0.209,0.02,5.096,11.536,-16.009,1.505,0.487514,0.212759
23:29:44:764497,0.000698132,-0.588141,1.17682,6.98132e-05,1.35579,0.00214676,0.00657989,-0.0281871,-0.0542797,0,0.0153764,0.00493928,-2.601,2.178,1.749,-0.119,-0.215,0.02,5.131,12.25,-14.833,2.765,0.514285,0.245166
23:29:44:769473,0.000733038,-0.588316,1.17649,6.98132e-05,1.35589,0.00218166,0.00570723,-0.0311018,-0.061488,0,0.0175929,0.00532325,-2.474,2.288,1.894,-0.128,-0.211,0.019,5.236,12.635,-13.587,2.674,0.514285,0.280391
23:29:44:774617,0.000767945,-0.58849,1.17618,6.98132e-05,1.35596,0.00221657,0.00603884,-0.0354302,-0.060912,0,0.0176453,0.00748746,-2.192,2.422,2.279,-0.141,-0.193,0.018,5.432,13.832,-13.608,2.037,0.525557,0.278982
23:29:44:779613,0.000802851,-0.5887,1.1759,6.98132e-05,1.35607,0.00226893,0.00694641,-0.0385543,-0.0574039,0,0.0184656,0.00815069,-1.988,2.474,2.506,-0.146,-0.179,0.017,6.622,14.7,-14.546,2.562,0.617142,0.249393
23:29:44:784734,0.000837758,-0.588909,1.17567,6.98132e-05,1.35617,0.00230383,0.00760964,-0.0403695,-0.0499862,0,0.0183085,0.00813323,-1.693,2.471,2.602,-0.144,-0.16,0.017,5.908,14.651,-14.959,2.226,0.517103,0.377612
23:29:44:789735,0.000872665,-0.589101,1.17546,6.98132e-05,1.35626,0.00233874,0.00802851,-0.037193,-0.0449771,0,0.0178198,0.00830777,-1.518,2.405,2.521,-0.138,-0.15,0.018,6.195,14.721,-16.562,1.526,0.584735,0.207123
23:29:44:794862,0.000925025,-0.589258,1.17525,6.98132e-05,1.35637,0.0023911,0.00806342,-0.0341037,-0.0424639,0,0.0181689,0.00891863,-1.336,2.239,2.382,-0.127,-0.139,0.019,6.139,14.028,-16.632,2.24,0.548101,0.414246
23:29:44:799789,0.000959931,-0.589398,1.17503,6.98132e-05,1.35649,0.00244346,0.00877901,-0.0307003,-0.0436856,0,0.0222006,0.00970403,-1.293,2.132,2.347,-0.122,-0.134,0.019,5.817,13.181,-17.402,2.24,0.466379,0.452289
23:29:44:804850,0.00101229,-0.589537,1.17478,6.98132e-05,1.35663,0.00249582,0.00973894,-0.0285885,-0.0475777,0,0.026529,0.00973894,-1.325,2.08,2.302,-0.119,-0.131,0.019,5.95,13.062,-16.975,2.17,0.488923,0.491741
23:29:44:809973,0.00106465,-0.589677,1.1745,6.98132e-05,1.35677,0.00254818,0.00947714,-0.0288154,-0.053791,0,0.0274366,0.00996583,-1.36,2.142,2.223,-0.121,-0.131,0.018,6.146,12.544,-15.967,1.988,0.501604,0.402974
23:29:44:814972,0.00111701,-0.589834,1.17422,6.98132e-05,1.35691,0.00258309,0.0107861,-0.0287281,-0.0540878,0,0.0270701,0.0090059,-1.308,2.305,2.105,-0.127,-0.131,0.018,6.524,12.579,-15.778,2.779,0.503013,0.404383
23:29:44:820113,0.00120428,-0.589991,1.17396,6.98132e-05,1.35705,0.0026529,0.0126885,-0.0293215,-0.0517839,0,0.0283965,0.011205,-1.154,2.38,2.099,-0.131,-0.126,0.018,5.663,13.069,-15.806,2.303,0.209941,0.541056
23:29:44:825058,0.00127409,-0.590148,1.17372,6.98132e-05,1.3572,0.00270526,0.0147131,-0.0310494,-0.0494801,0,0.0303513,0.0106116,-0.77,2.346,2.162,-0.13,-0.11,0.018,5.467,13.069,-16.786,2.52,0.26771,0.411428
23:29:44:830233,0.00136136,-0.59034,1.17347,6.98132e-05,1.35736,0.00275762,0.016249,-0.0341735,-0.0487994,0,0.0305084,0.0101229,-0.408,2.169,2.107,-0.121,-0.089,0.019,5.67,13.664,-15.631,3.003,0.305753,0.53542
23:29:44:835253,0.00144862,-0.590515,1.17321,6.98132e-05,1.35752,0.00280998,0.0169297,-0.0351858,-0.0508065,0,0.0299673,0.00989602,-0.312,2.037,1.946,-0.112,-0.08,0.02,4.837,14.602,-15.442,2.499,0.108493,0.474833
23:29:44:840346,0.00153589,-0.590689,1.17293,6.98132e-05,1.35764,0.00286234,0.0168424,-0.0355698,-0.05325,0,0.0271399,0.0111701,-0.438,1.904,1.613,-0.099,-0.079,0.02,4.942,15.12,-15.344,1.715,0.069041,0.584735
23:29:44:845345,0.00162316,-0.590881,1.17262,6.98132e-05,1.35774,0.00293215,0.0166504,-0.0368788,-0.0581195,0,0.0245568,0.0118682,-0.617,1.874,1.444,-0.094,-0.087,0.019,4.648,15.89,-13.335,2.653,-0.02818,0.598825
23:29:44:850468,0.00169297,-0.591056,1.17232,6.98132e-05,1.35785,0.00301942,0.0160919,-0.0350113,-0.0589921,0,0.0211534,0.0147655,-0.791,1.895,1.431,-0.093,-0.1,0.017,5.523,16.107,-12.866,2.037,0.174716,0.515694
23:29:44:855487,0.00178024,-0.591195,1.17208,6.98132e-05,1.35792,0.00308923,0.0140674,-0.03084,-0.0528486,0,0.0152891,0.0151146,-0.737,1.927,1.598,-0.096,-0.102,0.015,5.327,15.386,-13.223,2.359,0.195851,0.486105
23:29:44:860595,0.0018326,-0.591335,1.17188,6.98132e-05,1.35797,0.0031765,0.0141721,-0.0276286,-0.0418181,0,0.0131947,0.0165283,-0.383,1.967,1.951,-0.102,-0.088,0.014,4.949,14.644,-14.203,2.443,0.18317,0.466379
23:29:44:865537,0.00190241,-0.59144,1.17174,6.98132e-05,1.35804,0.00326377,0.0133867,-0.0233525,-0.033615,0,0.0128631,0.0153065,-0.064,1.973,2.114,-0.104,-0.071,0.015,5.719,14.686,-16.359,1.89,0.300117,0.486105
23:29:44:870537,0.00197222,-0.591544,1.1716,6.98132e-05,1.35809,0.00333358,0.0143641,-0.021677,-0.0290423,0,0.0127758,0.0176278,0.262,1.926,2.139,-0.1,-0.047,0.018,4.704,13.531,-17.227,1.33,0.152172,0.449471
23:29:44:875733,0.00205949,-0.591632,1.17148,6.98132e-05,1.35816,0.0034383,0.0143117,-0.0195826,-0.0289725,0,0.0138579,0.0195477,0.253,1.85,2.064,-0.093,-0.04,0.019,5.124,13.111,-17.43,1.666,0.266301,0.402974
23:29:44:880857,0.0021293,-0.591719,1.17133,6.98132e-05,1.35825,0.00356047,0.0159174,-0.0191637,-0.0300022,0,0.0154113,0.021869,-0.082,1.707,1.976,-0.081,-0.05,0.018,5.236,13.097,-17.22,2.282,0.269119,0.32407
23:29:44:885840,0.00221657,-0.591806,1.17115,6.98132e-05,1.35832,0.00366519,0.0167901,-0.0179071,-0.0334231,0,0.0137183,0.021293,-0.366,1.644,1.988,-0.076,-0.065,0.016,5.117,13.545,-16.674,1.953,0.284618,0.271937
23:29:44:890854,0.00230383,-0.591893,1.17094,6.98132e-05,1.35837,0.00378736,0.0169646,-0.0182911,-0.0378213,0,0.0116064,0.0207869,-0.571,1.674,2.102,-0.078,-0.081,0.015,4.403,13.615,-15.519,1.743,0.259256,0.262074
23:29:44:895981,0.0023911,-0.591998,1.17071,6.98132e-05,1.35842,0.00387463,0.0163886,-0.0182561,-0.0425337,0,0.0105592,0.0198793,-0.471,1.77,2.206,-0.084,-0.08,0.015,3.906,13.069,-14.672,1.813,0.326888,0.250802
23:29:44:900983,0.00246091,-0.592103,1.17049,6.98132e-05,1.35848,0.0039619,0.0159349,-0.0200713,-0.0438601,0,0.0106291,0.0175755,-0.07,1.928,2.33,-0.093,-0.062,0.018,3.955,13.678,-13.713,1.897,0.314207,0.104266
23:29:44:906105,0.00253073,-0.592208,1.17026,6.98132e-05,1.35851,0.00404916,0.0143466,-0.0213105,-0.043738,0,0.0093026,0.0171217,0.203,1.972,2.343,-0.095,-0.045,0.02,4.2,14.294,-13.566,1.813,0.419882,0.063405
23:29:44:911091,0.00258309,-0.59233,1.17009,6.98132e-05,1.35856,0.00411898,0.0121475,-0.0226369,-0.0388859,0,0.0090059,0.0143292,0.346,1.913,2.228,-0.089,-0.03,0.022,4.494,14.217,-14.448,2.499,0.390293,0.105675
23:29:44:916230,0.00263545,-0.592435,1.16995,6.98132e-05,1.3586,0.00417134,0.0107338,-0.0225322,-0.0306305,0,0.00869174,0.0139975,0.054,1.8,2.032,-0.08,-0.038,0.021,5.285,14.686,-15.302,2.436,0.494559,0.174716
23:29:44:921214,0.00268781,-0.592557,1.16984,6.98132e-05,1.35865,0.0042237,0.0107338,-0.0215025,-0.024644,0,0.0084823,0.0118508,-0.276,1.772,1.929,-0.078,-0.055,0.02,4.921,14.518,-16.632,2.506,0.53542,0.078904
23:29:44:926356,0.00274017,-0.592661,1.16974,6.98132e-05,1.35869,0.00431096,0.0106814,-0.0200189,-0.0219911,0,0.00816814,0.0119904,-0.656,1.86,1.89,-0.084,-0.084,0.018,4.907,14.742,-16.695,1.582,0.446653,0.04227
23:29:44:931355,0.00279253,-0.592749,1.16963,6.98132e-05,1.35872,0.00436332,0.0114319,-0.0194953,-0.0222529,0,0.00827286,0.0118508,-0.691,2,1.958,-0.093,-0.093,0.017,5.138,14.553,-16.772,2.142,0.524148,0.208532
23:29:44:936301,0.00286234,-0.592853,1.16948,6.98132e-05,1.35877,0.00441568,0.0117461,-0.019251,-0.0261276,0,0.00705113,0.0103673,-0.423,2.289,2.204,-0.112,-0.086,0.017,5.061,15.288,-15.778,1.554,0.514285,0.191624
23:29:44:941460,0.0029147,-0.592941,1.16932,6.98132e-05,1.35881,0.00446804,0.0123918,-0.020176,-0.0307876,0,0.00846485,0.00996583,-0.155,2.491,2.419,-0.124,-0.071,0.016,4.648,14.651,-14.504,2.17,0.528375,0.142309
23:29:44:946463,0.00298451,-0.593045,1.16911,6.98132e-05,1.35886,0.0045204,0.0120951,-0.0192335,-0.0367741,0,0.00963422,0.0116763,0.142,2.717,2.643,-0.137,-0.048,0.015,4.781,15.064,-13.552,1.925,0.439608,0.297299
23:29:44:951603,0.00305433,-0.593133,1.16888,6.98132e-05,1.3589,0.00459022,0.0131947,-0.0186925,-0.041661,0,0.00872665,0.0126885,0.199,2.778,2.637,-0.14,-0.041,0.015,4.137,13.986,-12.082,2.149,0.470606,0.162035
23:29:44:956728,0.00314159,-0.59322,1.16864,6.98132e-05,1.35895,0.00464258,0.0145037,-0.0169995,-0.0454484,0,0.00856957,0.0128631,0.099,2.737,2.428,-0.135,-0.043,0.014,4.186,14.63,-11.221,2.058,0.459334,0.21135
23:29:44:961730,0.00321141,-0.59329,1.16845,6.98132e-05,1.35898,0.00471239,0.0153065,-0.0152193,-0.0411723,0,0.00724312,0.0128282,-0.02,2.663,2.273,-0.13,-0.051,0.014,4.431,14.763,-11.501,2.037,0.548101,0.249393
23:29:44:966729,0.00329867,-0.59336,1.16827,6.98132e-05,1.35902,0.0047473,0.0163712,-0.013631,-0.0353953,0,0.00626573,0.00975639,-0.168,2.6,2.155,-0.126,-0.061,0.013,3.864,14.112,-12.299,2.261,0.555146,0.108493
23:29:44:971859,0.00338594,-0.593412,1.16817,6.98132e-05,1.35905,0.00481711,0.0167377,-0.012706,-0.027838,0,0.00762709,0.0113446,-0.231,2.651,2.115,-0.128,-0.067,0.013,3.486,14.49,-12.88,1.708,0.569236,0.173307
23:29:44:976842,0.00347321,-0.593464,1.16808,6.98132e-05,1.35909,0.00490437,0.0164759,-0.0113097,-0.0193557,0,0.00802851,0.0130376,-0.307,2.901,1.983,-0.14,-0.074,0.013,3.444,13.636,-14.147,2.45,0.566418,0.216986
23:29:44:981854,0.00356047,-0.593517,1.16804,6.98132e-05,1.35914,0.00497419,0.0158825,-0.0107512,-0.0128631,0,0.00949459,0.0153764,-0.354,3.126,1.866,-0.151,-0.079,0.013,3.227,13.657,-14.784,1.722,0.61996,0.224031
23:29:44:986978,0.00363028,-0.593586,1.16801,6.98132e-05,1.35918,0.005044,0.0163712,-0.0115017,-0.00898845,0,0.00764454,0.0132994,-0.382,3.373,1.863,-0.166,-0.084,0.013,3.297,13.055,-16.821,1.939,0.625596,0.288845
23:29:44:991908,0.00371755,-0.593639,1.16799,6.98132e-05,1.35921,0.00509636,0.0167726,-0.0112399,-0.00642281,0,0.00855211,0.0113272,-0.343,3.4,2.069,-0.17,-0.085,0.011,3.402,12.425,-17.122,2.373,0.719999,0.326888
23:29:44:997090,0.00382227,-0.593709,1.16796,6.98132e-05,1.35926,0.00514872,0.0176453,-0.0121126,-0.00645772,0,0.00858702,0.0106465,-0.207,3.243,2.556,-0.169,-0.081,0.008,3.675,14.385,-18.62,1.869,0.618551,0.209941
23:29:45:2043,0.00390954,-0.593778,1.1679,6.98132e-05,1.35931,0.00521853,0.0180293,-0.0131947,-0.00759218,0,0.0095644,0.0115715,-0.093,3.081,2.807,-0.164,-0.075,0.007,3.528,14.182,-18.998,1.855,0.642504,0.322661
23:29:45:7219,0.0039968,-0.593848,1.16785,6.98132e-05,1.35937,0.00527089,0.0166504,-0.0136659,-0.00970403,0,0.0101578,0.0130027,0.067,2.876,2.854,-0.153,-0.063,0.008,3.395,13.678,-18.515,1.925,0.629823,0.280391
23:29:45:12215,0.00406662,-0.593918,1.16778,6.98132e-05,1.35944,0.00534071,0.0158301,-0.014015,-0.0131772,0,0.0125838,0.013247,0.149,2.795,2.697,-0.145,-0.055,0.01,3.465,13.559,-19.005,1.897,0.557964,0.438199
23:29:45:17341,0.00413643,-0.593988,1.1677,6.98132e-05,1.35949,0.00541052,0.0139452,-0.0138754,-0.0165981,0,0.0111876,0.0130376,0.205,2.74,2.385,-0.135,-0.048,0.014,3.535,14.217,-18.487,2.751,0.486105,0.412837
23:29:45:22291,0.00420624,-0.594058,1.16757,6.98132e-05,1.35954,0.00548033,0.0135088,-0.0135263,-0.0210836,0,0.0105592,0.0121649,0.14,2.734,2.168,-0.131,-0.051,0.015,5.236,13.538,-17.402,2.303,0.524148,0.426927
23:29:45:27435,0.0042586,-0.594128,1.16743,6.98132e-05,1.35961,0.00553269,0.0131423,-0.0130725,-0.0249757,0,0.0117984,0.0123395,0.025,2.752,2.115,-0.133,-0.058,0.015,4.347,13.223,-17.325,1.988,0.607279,0.466379
23:29:45:32461,0.00432842,-0.594197,1.16726,6.98132e-05,1.35966,0.00560251,0.0132296,-0.0136659,-0.0303862,0,0.0118508,0.013247,-0.199,2.817,2.159,-0.139,-0.074,0.014,4.55,13.93,-16.135,2.1,0.387475,0.518512
23:29:45:37461,0.00439823,-0.594267,1.16707,6.98132e-05,1.35975,0.00567232,0.0138405,-0.0144862,-0.0350637,0,0.0135787,0.0143292,-0.327,2.887,2.22,-0.146,-0.084,0.014,4.522,14.518,-14.378,1.967,0.641095,0.557964
23:29:45:42534,0.0044855,-0.594354,1.16686,6.98132e-05,1.3598,0.00574213,0.0150447,-0.0153414,-0.0389558,0,0.0129154,0.0137357,-0.399,3.019,2.253,-0.156,-0.094,0.013,4.83,13.944,-13.412,2.261,0.453698,0.514285
23:29:45:47732,0.00455531,-0.594424,1.16667,6.98132e-05,1.35987,0.00581195,0.0147306,-0.0148178,-0.0391826,0,0.0141895,0.0148528,-0.348,3.11,2.237,-0.161,-0.095,0.014,4.921,14.266,-13.174,1.827,0.379021,0.376203
23:29:45:52724,0.00462512,-0.594494,1.16651,6.98132e-05,1.35994,0.00588176,0.0149051,-0.0152018,-0.0357967,0,0.0125489,0.0134216,-0.158,3.216,2.283,-0.166,-0.088,0.015,4.585,14.112,-13.125,1.694,0.500195,0.331115
23:29:45:57854,0.00469494,-0.594581,1.16635,6.98132e-05,1.36,0.00595157,0.0139277,-0.015516,-0.0313985,0,0.0122348,0.0147131,0.004,3.249,2.389,-0.167,-0.081,0.016,5.32,14.994,-13.482,2.037,0.532602,0.480469
23:29:45:62855,0.00476475,-0.594669,1.16623,6.98132e-05,1.36008,0.00603884,0.0134041,-0.016249,-0.0264766,0,0.0137881,0.0161268,0.253,3.242,2.517,-0.166,-0.068,0.018,5.355,14.203,-14.343,1.673,0.205714,0.433972
23:29:45:67963,0.00481711,-0.594738,1.16612,6.98132e-05,1.36017,0.00612611,0.0129852,-0.015865,-0.0237365,0,0.0154811,0.0167377,0.416,3.218,2.491,-0.164,-0.06,0.019,5.285,13.986,-15.379,1.617,0.402974,0.473424
23:29:45:72960,0.00488692,-0.594808,1.16602,6.98132e-05,1.36026,0.00621337,0.0116588,-0.0148877,-0.0212407,0,0.017366,0.0165108,0.663,3.189,2.336,-0.161,-0.049,0.021,6.16,14.42,-15.435,2.149,0.209941,0.559373
23:29:45:78103,0.00493928,-0.594878,1.16593,6.98132e-05,1.36036,0.00630064,0.0108036,-0.0145735,-0.0193382,0,0.0208916,0.0172613,0.831,3.19,2.25,-0.159,-0.04,0.021,6.419,14.728,-15.799,1.876,0.040861,0.476242
23:29:45:83099,0.00497419,-0.594965,1.16584,6.98132e-05,1.36048,0.00640536,0.00973894,-0.0140324,-0.0178547,0,0.0216595,0.0181514,1.084,3.227,2.199,-0.159,-0.026,0.022,7.042,13.769,-16.093,2.394,0.184579,0.443835
23:29:45:88049,0.005044,-0.595035,1.16574,6.98132e-05,1.36059,0.00651008,0.0100007,-0.0132296,-0.018867,0,0.0215025,0.020909,1.249,3.266,2.185,-0.16,-0.016,0.022,6.02,14.462,-15.841,1.526,0.081722,0.476242
23:29:45:93208,0.00509636,-0.595087,1.16565,6.98132e-05,1.36066,0.00663225,0.0109607,-0.0139975,-0.0193732,0,0.0174533,0.022061,1.474,3.307,2.174,-0.161,-0.002,0.022,6.741,14.098,-15.89,1.897,-0.015499,0.38043
23:29:45:98330,0.00516617,-0.595157,1.16553,6.98132e-05,1.36071,0.00678933,0.0125315,-0.0133169,-0.0208392,0,0.0129852,0.0270352,1.645,3.286,2.189,-0.161,0.007,0.021,6.146,14.49,-14.819,1.834,0.008454,0.328297
23:29:45:103327,0.00525344,-0.59521,1.16541,6.98132e-05,1.36076,0.00692896,0.0152193,-0.0125489,-0.0240506,0,0.0116064,0.0273144,1.713,3.241,2.17,-0.16,0.012,0.019,6.993,14.609,-14.518,1.722,-0.123992,0.195851
23:29:45:108335,0.00534071,-0.595262,1.16525,6.98132e-05,1.36083,0.00706858,0.0179943,-0.0103673,-0.0273842,0,0.0120777,0.028763,1.729,3.169,2.031,-0.158,0.013,0.017,6.461,14.462,-13.811,2.604,0,0.246575
23:29:45:113349,0.00544543,-0.595314,1.16508,6.98132e-05,1.36089,0.00720821,0.0205774,-0.00928515,-0.0312414,0,0.0108559,0.0293215,1.675,3.139,1.899,-0.157,0.01,0.016,6.895,13.937,-11.914,2.016,-0.094403,0.069041
23:29:45:118459,0.00558505,-0.595349,1.16492,6.98132e-05,1.36092,0.00734784,0.0222529,-0.00818559,-0.0329344,0,0.00921534,0.0280823,1.53,3.129,1.775,-0.157,0,0.015,5.971,14.413,-11.879,1.932,-0.109902,0.095812
23:29:45:123591,0.00570723,-0.595384,1.16476,6.98132e-05,1.36096,0.00747001,0.0233351,-0.00712094,-0.0312065,0,0.00682424,0.0239983,1.442,3.139,1.78,-0.158,-0.006,0.014,4.837,13.58,-11.172,1.687,-0.15499,0.061996
23:29:45:128580,0.0058294,-0.595402,1.16464,6.98132e-05,1.36099,0.00757473,0.024103,-0.00486947,-0.0263545,0,0.00657989,0.021869,1.412,3.169,1.892,-0.161,-0.012,0.012,5.061,12.936,-11.242,1.169,-0.228258,0.046497
23:29:45:133547,0.00593412,-0.595419,1.16457,6.98132e-05,1.36101,0.007662,0.0230558,-0.0039619,-0.0189019,0,0.00558505,0.0184307,1.47,3.189,2.007,-0.164,-0.01,0.011,4.543,13.734,-11.977,2.058,0.039452,0.07045
23:29:45:138648,0.00603884,-0.595437,1.16452,6.98132e-05,1.36103,0.00773181,0.0217294,-0.00368264,-0.012706,0,0.00394444,0.0175231,1.631,3.185,2.167,-0.165,-0.003,0.009,4.914,13.223,-12.796,1.75,-0.100039,0.131037
23:29:45:143721,0.00614356,-0.595454,1.1645,6.98132e-05,1.36104,0.00783653,0.0215025,-0.00293215,-0.00813323,0,0.00436332,0.0168948,1.767,3.136,2.209,-0.164,0.004,0.008,4.886,13.643,-13.489,1.673,-0.054951,0.061996
23:29:45:148830,0.00624828,-0.595471,1.16448,6.98132e-05,1.36106,0.00792379,0.0202633,-0.00253073,-0.00497419,0,0.00406662,0.0174009,2.022,2.982,2.126,-0.158,0.018,0.007,5.019,12.81,-14.378,0.763,0.063405,0.125401
23:29:45:153778,0.006353,-0.595471,1.16448,6.98132e-05,1.36108,0.00801106,0.0203505,-0.00274017,-0.00260054,0,0.003735,0.0182736,2.227,2.847,2.02,-0.152,0.029,0.008,5.159,11.865,-14.539,1.533,0.018317,0.047906
23:29:45:158969,0.00647517,-0.595489,1.16447,6.98132e-05,1.3611,0.00809833,0.0223053,-0.00190241,-0.00164061,0,0.00371755,0.016825,2.562,2.65,1.912,-0.141,0.048,0.007,4.347,13.377,-14.819,1.323,0.009863,0.201487
23:29:45:163969,0.00659734,-0.595489,1.16447,6.98132e-05,1.36113,0.00818559,0.0233525,-0.00246091,-0.00205949,0,0.0042586,0.0173137,2.794,2.544,1.897,-0.135,0.063,0.007,4.2,13.174,-15.001,1.946,-0.08454,0.164853
23:29:45:169100,0.00673697,-0.595506,1.16445,6.98132e-05,1.36113,0.00829031,0.0249931,-0.0018675,0,0,0.00275762,0.0180467,3.167,2.421,1.904,-0.128,0.089,0.005,4.151,12.425,-15.134,1.421,0.022544,0.184579
23:29:45:174096,0.00685914,-0.595506,1.16445,6.98132e-05,1.36115,0.00836013,0.024679,0,0,0,0.0034383,0.0155858,3.422,2.346,1.906,-0.123,0.108,0.003,2.842,12.18,-15.386,2.058,0.01409,0.259256
23:29:45:179215,0.00698132,-0.595506,1.16443,6.98132e-05,1.36116,0.00844739,0.0237365,0,0,0,0.00267035,0.0164759,3.721,2.238,1.889,-0.116,0.132,0,3.556,12.6,-14.7,1.967,-0.049315,0.252211
23:29:45:184218,0.00708604,-0.595524,1.16443,6.98132e-05,1.36116,0.00851721,0.0232478,0,0,0,0,0.0167552,3.79,2.191,1.818,-0.112,0.138,0,3.479,13.083,-14.721,1.855,-0.057769,0.133855
23:29:45:189164,0.00720821,-0.595524,1.16443,6.98132e-05,1.36118,0.00860447,0.024103,0,0,0,0,0.0156731,3.652,2.2,1.552,-0.11,0.133,-0.002,3.605,13.006,-14.581,1.302,-0.102857,0.15499
23:29:45:194331,0.00734784,-0.595524,1.16443,6.98132e-05,1.36118,0.00867429,0.0245044,0,0,0,0,0.0148702,3.355,2.301,1.242,-0.115,0.115,-0.003,2.52,13.489,-13.755,2.058,-0.195851,0.166262
23:29:45:199337,0.00747001,-0.595524,1.16443,6.98132e-05,1.36118,0.0087441,0.023719,0,0,0,0,0.0133867,3.192,2.394,1.16,-0.121,0.103,-0.005,2.947,13.741,-13.153,1.239,-0.116947,0.356477
23:29:45:204477,0.00757473,-0.595524,1.16443,6.98132e-05,1.36118,0.00881391,0.0224275,0,0,0,0,0.0142419,3.147,2.543,1.264,-0.131,0.095,-0.008,2.261,13.902,-12.733,2.009,-0.201487,0.339569
23:29:45:209468,0.00767945,-0.595524,1.16443,6.98132e-05,1.36118,0.00888373,0.022218,0,0,0,0,0.014556,3.26,2.639,1.368,-0.137,0.099,-0.01,2.968,14.308,-11.949,2.541,-0.143718,0.335342
23:29:45:214605,0.00776672,-0.595524,1.16445,6.98132e-05,1.36118,0.00897099,0.0197222,0,0,0,0,0.0156382,3.553,2.748,1.364,-0.142,0.115,-0.011,3.206,15.414,-11.039,1.505,-0.229667,0.469197
23:29:45:219581,0.00787144,-0.595524,1.16445,6.98132e-05,1.36116,0.00904081,0.0176627,0,0,0,0,0.0142419,3.749,2.771,1.241,-0.142,0.127,-0.01,3.094,15.414,-10.437,1.491,-0.201487,0.386066
23:29:45:224576,0.00794125,-0.595524,1.16445,6.98132e-05,1.36116,0.00911062,0.017174,0,0,0,0,0.0131772,3.955,2.715,1.013,-0.138,0.14,-0.01,3.402,16.009,-9.975,1.526,-0.238121,0.364931
23:29:45:229699,0.00802851,-0.595506,1.16445,6.98132e-05,1.36115,0.00918043,0.0153938,0,0,0,0,0.0152716,4.028,2.637,0.92,-0.134,0.144,-0.01,3.696,16.121,-9.016,1.435,-0.286027,0.511467
23:29:45:234645,0.00809833,-0.595506,1.16447,6.98132e-05,1.36115,0.00928515,0.0148353,0,0,0,-0.00254818,0.0175406,4.095,2.516,0.914,-0.13,0.146,-0.012,3.675,16.478,-8.183,2.086,-0.322661,0.407201
23:29:45:239843,0.00816814,-0.595506,1.16447,6.98132e-05,1.36113,0.00935496,0.0144513,0,0.00164061,0,-0.00226893,0.0153938,4.151,2.452,0.97,-0.128,0.147,-0.013,4.116,17.479,-7.889,1.372,-0.2818,0.421291
23:29:45:244828,0.0082205,-0.595506,1.16448,6.98132e-05,1.36111,0.00944223,0.0126885,0,0.00235619,0,-0.00319395,0.0163363,4.278,2.362,1.063,-0.124,0.153,-0.014,4.557,17.773,-6.699,1.281,-0.371976,0.412837
23:29:45:249968,0.00829031,-0.595506,1.1645,6.98132e-05,1.3611,0.0095295,0.0120079,0,0.00354302,0,-0.00349066,0.018134,4.38,2.291,1.101,-0.12,0.158,-0.015,5.089,19.292,-5.978,1.694,-0.457925,0.359295
23:29:45:254952,0.00834267,-0.595506,1.16454,6.98132e-05,1.36106,0.00961676,0.0115541,0,0.00453786,0,-0.00502655,0.0165806,4.509,2.179,1.08,-0.114,0.167,-0.016,4.718,19.201,-5.628,1.029,-0.36634,0.433972
23:29:45:260094,0.00839503,-0.595489,1.16457,6.98132e-05,1.36103,0.00970403,0.0110479,0,0.00738274,0,-0.00577704,0.0179769,4.556,2.126,1.006,-0.11,0.171,-0.016,5.25,20.412,-4.816,1.47,-0.452289,0.40861
23:29:45:265200,0.00844739,-0.595489,1.16462,6.98132e-05,1.36099,0.0097913,0.0116064,0,0.00916298,0,-0.00701622,0.017366,4.571,2.071,0.876,-0.104,0.175,-0.017,5.614,20.734,-4.067,1.337,-0.410019,0.393111
23:29:45:270203,0.00851721,-0.595489,1.16468,6.98132e-05,1.36094,0.00987856,0.0135787,0,0.00909317,0,-0.00881391,0.0168424,4.577,2.014,0.855,-0.101,0.176,-0.018,5.53,21.098,-3.584,1.491,-0.57769,0.512876
23:29:45:275351,0.00860447,-0.595471,1.16473,6.98132e-05,1.3609,0.00998328,0.014015,0.0018326,0.0105767,0,-0.00853466,0.0179594,4.644,1.863,0.957,-0.097,0.178,-0.019,5.117,21.994,-2.807,1.897,-0.673502,0.428336
23:29:45:280220,0.00867429,-0.595471,1.16478,6.98132e-05,1.36085,0.0100706,0.0151844,0.00263545,0.0111527,0,-0.00851721,0.0190241,4.726,1.75,1.045,-0.094,0.18,-0.02,4.69,22.26,-2.037,2.24,-0.560782,0.383248
23:29:45:285322,0.00877901,-0.595437,1.16485,6.98132e-05,1.3608,0.0101753,0.0169471,0.0026529,0.011781,0,-0.0104022,0.0204204,4.846,1.651,1.09,-0.091,0.184,-0.021,4.879,23.079,-1.246,1.561,-0.486105,0.301526
23:29:45:290449,0.00886627,-0.595419,1.16492,6.98132e-05,1.36073,0.01028,0.0167726,0.00380482,0.0143117,0,-0.0113097,0.0198793,4.908,1.649,1.055,-0.088,0.19,-0.021,4.62,22.974,-0.7,1.617,-0.618551,0.432563
23:29:45:295494,0.00893609,-0.595402,1.16502,6.98132e-05,1.36066,0.0103673,0.016633,0.00527089,0.0170519,0,-0.011781,0.0195826,4.934,1.663,1.024,-0.087,0.192,-0.022,5.425,23.429,0.469,0.826,-0.786222,0.376203
23:29:45:300450,0.00902335,-0.595349,1.16513,6.98132e-05,1.36059,0.0104545,0.0154462,0.00699877,0.0205251,0,-0.0121126,0.0178024,4.987,1.665,0.972,-0.087,0.193,-0.022,4.963,24.689,0.252,1.449,-0.666457,0.302935
23:29:45:305608,0.00907571,-0.595314,1.16527,6.98132e-05,1.3605,0.0105243,0.0130725,0.00741765,0.0243473,0,-0.0159,0.0159174,5.018,1.659,0.95,-0.088,0.193,-0.023,4.921,24.612,0.497,1.722,-0.54951,0.308571
23:29:45:310601,0.00912807,-0.595279,1.16543,6.98132e-05,1.36041,0.0106116,0.0124093,0.00757473,0.0287805,0,-0.0164934,0.0164061,5.011,1.667,0.976,-0.091,0.19,-0.025,5.817,25.277,0.532,1.708,-0.628414,0.29589
23:29:45:315533,0.00918043,-0.595227,1.16562,6.98132e-05,1.36031,0.0106814,0.0112748,0.0092677,0.0349415,0,-0.0203854,0.0154636,4.979,1.696,1,-0.093,0.189,-0.026,6.076,25.69,-0.735,2.303,-0.57769,0.302935
23:29:45:320723,0.00925024,-0.595175,1.16586,6.98132e-05,1.36017,0.0107687,0.0120602,0.0101753,0.043895,0,-0.0243299,0.0147306,4.973,1.764,0.909,-0.095,0.188,-0.025,5.852,25.921,-1.267,1.743,-0.541056,0.22544
23:29:45:325834,0.00932006,-0.595105,1.16614,6.98132e-05,1.36001,0.0108385,0.0128107,0.0103498,0.0512603,0,-0.0291645,0.0153938,5.035,1.807,0.753,-0.095,0.189,-0.024,5.985,27.3,-2.373,1.764,-0.329706,0.300117
23:29:45:330838,0.00938987,-0.595053,1.16646,6.98132e-05,1.35986,0.0109083,0.0131074,0.0114668,0.0556935,0,-0.0292168,0.0149051,5.208,1.832,0.53,-0.095,0.193,-0.023,4.97,27.475,-3.136,1.715,-0.356477,0.373385
23:29:45:335827,0.00944223,-0.594983,1.16674,6.98132e-05,1.35972,0.0109781,0.0132121,0.012514,0.05606,0,-0.0289725,0.0145735,5.329,1.807,0.473,-0.095,0.197,-0.023,5.047,28.441,-3.927,1.631,-0.145127,0.256438
23:29:45:340944,0.00951204,-0.59493,1.167,6.98132e-05,1.35958,0.0110479,0.0129852,0.0128107,0.0533896,0,-0.0281696,0.0117112,5.466,1.716,0.499,-0.091,0.205,-0.025,5.453,28.322,-4.067,1.351,-0.263483,0.164853
23:29:45:346097,0.00958186,-0.594861,1.16724,6.98132e-05,1.35945,0.0111003,0.0135088,0.0138579,0.0494452,0,-0.0252026,0.0117286,5.529,1.637,0.527,-0.086,0.21,-0.026,5.684,29.575,-3.409,1.414,-0.219804,0.319843
23:29:45:351093,0.00966912,-0.594773,1.16747,6.98132e-05,1.35935,0.0111701,0.0148702,0.0134216,0.0487296,0,-0.0232303,0.0124442,5.615,1.521,0.542,-0.078,0.216,-0.027,5.033,29.939,-2.226,1.827,-0.247984,0.30998
23:29:45:356051,0.00975639,-0.594703,1.16775,6.98132e-05,1.35923,0.0112225,0.0159174,0.015132,0.0511381,0,-0.0236667,0.0122522,5.678,1.456,0.549,-0.074,0.218,-0.027,4.739,29.645,-2.73,0.896,-0.163444,0.332524
23:29:45:361209,0.0098262,-0.594599,1.16804,6.98132e-05,1.35912,0.0112748,0.0162839,0.0180642,0.0575784,0,-0.0235096,0.010821,5.761,1.389,0.548,-0.07,0.218,-0.027,4.501,29.995,-3.248,1.596,-0.074677,0.431154
23:29:45:366205,0.00991347,-0.594494,1.16838,6.98132e-05,1.359,0.0113272,0.0159523,0.0209265,0.0611214,0,-0.0232827,0.00907571,5.794,1.369,0.513,-0.069,0.217,-0.028,4.228,30.156,-4.116,1.4,-0.053542,0.391702
23:29:45:371336,0.00996583,-0.594372,1.16866,6.98132e-05,1.3589,0.0113795,0.0138579,0.0234921,0.0568454,0,-0.0189368,0.0109956,5.801,1.363,0.419,-0.068,0.218,-0.027,5.068,29.47,-3.017,1.505,-0.21135,0.22544
23:29:45:376319,0.0100182,-0.594215,1.16888,6.98132e-05,1.35884,0.0114319,0.0117461,0.0267734,0.0513127,0,-0.0154636,0.010664,5.761,1.349,0.371,-0.068,0.219,-0.027,5.194,30.247,-2.723,1.148,-0.273346,0.291663
23:29:45:381321,0.010088,-0.594075,1.16911,6.98132e-05,1.35877,0.0114843,0.0116937,0.0280649,0.0452913,0,-0.0150796,0.0101927,5.706,1.332,0.396,-0.067,0.215,-0.028,4.914,29.631,-0.938,1.68,-0.287436,0.432563
23:29:45:386445,0.0101404,-0.593936,1.16932,6.98132e-05,1.35869,0.0115366,0.0118159,0.0276635,0.0432842,0,-0.0153938,0.0102102,5.591,1.359,0.471,-0.071,0.204,-0.028,5.04,30.457,-0.378,1.099,-0.469197,0.525557
23:29:45:391457,0.0102102,-0.593796,1.16955,6.98132e-05,1.35862,0.0116064,0.0124791,0.0290248,0.0450295,0,-0.0165981,0.0116239,5.529,1.442,0.495,-0.076,0.196,-0.029,4.634,30.324,0.336,1.47,-0.441017,0.474833
23:29:45:396395,0.0102974,-0.593621,1.16981,6.98132e-05,1.35851,0.0116588,0.0148702,0.0318523,0.0496895,0,-0.0183958,0.0108559,5.561,1.621,0.458,-0.087,0.194,-0.027,3.829,29.47,-0.133,1.232,-0.470606,0.498786
23:29:45:401567,0.0103673,-0.593429,1.17014,6.98132e-05,1.35841,0.0116937,0.0154985,0.0344528,0.0592365,0,-0.0198095,0.00925024,5.7,1.701,0.427,-0.092,0.202,-0.026,4.004,29.19,-1.414,1.631,-0.473424,0.421291
23:29:45:406581,0.0104545,-0.593255,1.17049,6.98132e-05,1.35832,0.0117635,0.0154462,0.0352557,0.0662527,0,-0.0193732,0.0111177,6.014,1.67,0.48,-0.09,0.225,-0.024,3.5,29.365,-2.87,0.826,-0.559373,0.383248
23:29:45:411707,0.0105243,-0.59308,1.17082,6.98132e-05,1.35822,0.0118159,0.0154811,0.034191,0.0660084,0,-0.0174009,0.0120428,6.183,1.565,0.58,-0.083,0.238,-0.024,3.99,28.651,-3.717,1.414,-0.597416,0.536829
23:29:45:416651,0.0105941,-0.592923,1.17115,6.98132e-05,1.35815,0.0118857,0.0143815,0.0339641,0.0634951,0,-0.0181863,0.0127234,6.189,1.404,0.647,-0.071,0.242,-0.024,4.41,29.757,-3.283,1.484,-0.534011,0.488923
23:29:45:421816,0.010664,-0.592766,1.17147,6.98132e-05,1.35804,0.0119381,0.0127758,0.0314683,0.0629017,0,-0.0171566,0.0110654,6.01,1.368,0.541,-0.068,0.23,-0.025,3.78,29.757,-2.415,0.567,-0.749588,0.343796
23:29:45:426825,0.0107163,-0.592609,1.1718,6.98132e-05,1.35795,0.0120079,0.0130376,0.0302466,0.0660607,0,-0.0188321,0.0117112,5.655,1.454,0.264,-0.074,0.204,-0.024,4.032,30.324,-3.71,1.085,-0.617142,0.462152
23:29:45:431944,0.0107861,-0.592435,1.17216,6.98132e-05,1.35783,0.0120777,0.013247,0.0326202,0.0701971,0,-0.0216595,0.0134565,5.551,1.559,0.181,-0.082,0.194,-0.022,4.004,30.59,-3.836,1.638,-0.753815,0.459334
23:29:45:436970,0.0108734,-0.592243,1.17253,6.98132e-05,1.35771,0.01213,0.0139452,0.0369486,0.0714014,0,-0.0224449,0.0118333,5.813,1.65,0.36,-0.089,0.208,-0.021,3.619,30.177,-4.046,1.19,-0.738316,0.405792
23:29:45:442082,0.0109432,-0.592016,1.17284,6.98132e-05,1.35759,0.0121824,0.0161792,0.0407709,0.0642979,0,-0.0254818,0.0106465,6.219,1.608,0.585,-0.085,0.235,-0.02,2.856,28.98,-3.248,1.75,-0.770723,0.400156
23:29:45:447083,0.0110305,-0.591789,1.17311,6.98132e-05,1.35746,0.0122348,0.0167726,0.0438427,0.0567581,0,-0.0255342,0.0103847,6.8,1.403,0.798,-0.07,0.278,-0.021,2.961,29.393,-1.736,1.533,-0.700273,0.395929
23:29:45:452065,0.0111177,-0.591562,1.17337,6.98132e-05,1.35734,0.0123046,0.0170693,0.0452215,0.0533547,0,-0.0234223,0.0131423,6.93,1.241,0.771,-0.059,0.292,-0.023,2.149,28.441,-1.19,1.603,-0.683365,0.376203
23:29:45:457206,0.011205,-0.591335,1.17365,6.98132e-05,1.35722,0.0123744,0.0169471,0.0445408,0.0549081,0,-0.0247837,0.0127409,6.617,1.098,0.524,-0.051,0.279,-0.027,2.772,27.594,-1.162,1.771,-0.779177,0.391702
23:29:45:462333,0.0112748,-0.591126,1.17398,6.98132e-05,1.35705,0.0124267,0.0155858,0.042778,0.0612785,0,-0.0287979,0.0124093,6.055,1.14,0.214,-0.056,0.242,-0.029,3.045,28.693,-1.652,1.715,-0.738316,0.288845
23:29:45:467342,0.0113446,-0.590916,1.17434,6.98132e-05,1.35687,0.0124791,0.0138579,0.041661,0.0673174,0,-0.0342957,0.0114145,5.859,1.232,0.096,-0.061,0.225,-0.03,2.506,28.7,-2.59,1.715,-0.514285,0.343796
23:29:45:472332,0.011397,-0.590724,1.17471,6.98132e-05,1.35664,0.0125315,0.0115366,0.0399157,0.0723264,0,-0.0389907,0.0107687,6.124,1.341,0.161,-0.067,0.231,-0.029,2.562,29.029,-2.646,1.267,-0.476242,0.405792
23:29:45:477457,0.0114494,-0.590532,1.17508,6.98132e-05,1.35644,0.0126013,0.00986111,0.0383623,0.070075,0,-0.040736,0.0101927,6.61,1.337,0.306,-0.066,0.258,-0.028,2.674,29.498,-2.569,0.602,-0.36634,0.410019
23:29:45:482584,0.0114843,-0.59034,1.17543,6.98132e-05,1.35626,0.0126536,0.00753982,0.0371406,0.0712269,0,-0.0386939,0.0117461,7.378,1.211,0.397,-0.056,0.309,-0.028,3.731,29.134,-2.751,1.337,-0.339569,0.302935
23:29:45:487538,0.0115017,-0.590148,1.17583,6.98132e-05,1.35609,0.012706,0.00612611,0.0383623,0.077353,0,-0.0342085,0.0127584,7.66,1.093,0.256,-0.047,0.332,-0.029,4.137,30.114,-3.703,1.008,-0.247984,0.249393
23:29:45:492570,0.0115366,-0.589956,1.17626,6.98132e-05,1.35596,0.0127933,0.00588176,0.0387114,0.0810007,0,-0.0287456,0.0135612,7.638,0.949,-0.148,-0.036,0.335,-0.031,3.738,29.596,-4.585,1.379,-0.336751,0.264892
23:29:45:497690,0.0115541,-0.589747,1.17667,6.98132e-05,1.35582,0.0128456,0.00561996,0.0396015,0.079203,0,-0.0279602,0.0131598,7.511,0.881,-0.361,-0.033,0.324,-0.033,3.829,29.652,-4.746,1.267,-0.302935,0.333933
23:29:45:502705,0.011589,-0.589537,1.177,6.98132e-05,1.35568,0.012898,0.00680678,0.041661,0.0719599,0,-0.0287281,0.011973,7.6,0.754,-0.408,-0.029,0.32,-0.034,4.144,31.136,-2.835,1.337,-0.321252,0.370567
23:29:45:507856,0.0116239,-0.589328,1.17731,6.98132e-05,1.35554,0.0129503,0.00762709,0.0417657,0.0646644,0,-0.0279951,0.0106989,7.951,0.608,-0.321,-0.022,0.338,-0.033,3.885,30.436,-1.295,1.603,-0.438199,0.187397
23:29:45:512813,0.0116588,-0.589136,1.17764,6.98132e-05,1.35542,0.0130027,0.00696386,0.0402822,0.0669508,0,-0.0243124,0.0102102,8.643,0.304,-0.28,-0.003,0.384,-0.031,4.431,31.85,-1.4,1.561,-0.415655,0.207123
23:29:45:517958,0.0117112,-0.588944,1.17804,6.98132e-05,1.35532,0.0130725,0.00747001,0.0374897,0.0753982,0,-0.0225671,0.011589,8.918,0.112,-0.416,0.009,0.407,-0.031,3.955,31.283,-1.855,1.155,-0.590371,0.312798
