srisadhan/powerball/bin/HRI_project/2021/admittance/Stiff env/admittance_lg.csv
TimeStamp , Q1, Q2, Q3, Q4, Q5, Q6, dQ1, dQ2, dQ3, dQ4, dQ5, dQ6, Fx, Fy, Fz, Mx, My, Mz, Joint1_torque, Joint2_torque, Joint3_torque, Joint4_torque, Joint5_torque, Joint6_torque 
23:33:24:25542,0,-0.581893,1.18749,0,1.35186,-6.98132e-05,0,-0.00275762,0,0,0,0,0,0,0,0,0,0,3.353,14.315,-15.134,-4.634,0.166262,0.397338
23:33:24:30585,0,-0.581893,1.18749,0,1.35186,-6.98132e-05,0,0,0,0,0,0,0,0,0,0,0,0,3.199,13.622,-15.155,-6.111,0.194442,0.517103
23:33:24:35718,0,-0.581893,1.18749,0,1.35186,-6.98132e-05,0,0,0,0,0,0,0,0,0,0,0,0,3.507,14.126,-15.169,-4.83,0.102857,0.459334
23:33:24:40645,0,-0.581893,1.18749,0,1.35186,-6.98132e-05,0,0,0,0,0,0,0,0,0,0,0,0,3.619,13.965,-14.931,-4.186,0.077495,0.414246
23:33:24:45692,0,-0.581893,1.18749,-1.74533e-05,1.35186,-6.98132e-05,0,0,0,0,0,0,0,0,0,0,0,0,2.996,13.503,-15.743,-3.381,0.131037,0.529784
23:33:24:50829,0,-0.581893,1.18749,-1.74533e-05,1.35186,-6.98132e-05,0,0,0,0,0,0,0,0,0,0,0,0,3.535,13.188,-15.043,-7.049,0.05636,0.400156
23:33:24:55778,0,-0.581893,1.18749,-1.74533e-05,1.35186,-6.98132e-05,0,0,0,0,0,0,0,0,0,0,0,0,2.702,13.538,-15.008,-5.033,0.131037,0.391702
23:33:24:60953,0,-0.581893,1.18749,-1.74533e-05,1.35186,-6.98132e-05,0,0,0,0,0,0,0,0,0,0,0,0,3.444,13.566,-14.784,-4.417,0.159217,0.490332
23:33:24:65954,0,-0.58191,1.18749,-1.74533e-05,1.35186,-6.98132e-05,0,0,0,0,0,0,0,0,0,0,0,0,2.905,14.273,-15.022,-3.689,0.122583,0.386066
23:33:24:71073,0,-0.58191,1.18749,-1.74533e-05,1.35186,-6.98132e-05,0,0,0,0,0,0,0,0,0,0,0,0,3.15,13.503,-14.966,-4.102,0.128219,0.511467
23:33:24:76082,0,-0.58191,1.18749,-1.74533e-05,1.35186,-6.98132e-05,0,0,0,0,0,0,0,0,0,0,0,0,3.731,14.021,-15.246,-4.312,0.178943,0.467788
23:33:24:81230,0,-0.58191,1.18749,-1.74533e-05,1.35186,-6.98132e-05,0,0,0,0,0,0,0,0,0,0,0,0,3.556,13.986,-15.505,-4.2,0.11272,0.426927
23:33:24:86152,0,-0.58191,1.18749,-1.74533e-05,1.35186,-6.98132e-05,0,0,0,0,0,0,0,0,0,0,0,0,2.926,14.161,-15.064,-4.515,0.087358,0.455107
23:33:24:91327,0,-0.58191,1.18749,-1.74533e-05,1.35186,-5.23599e-05,0,0,0,0,0,0,0,0,0,0,0,0,3.731,13.797,-15.414,-3.99,0.238121,0.490332
23:33:24:96327,0,-0.58191,1.18749,-1.74533e-05,1.35186,-5.23599e-05,0,0,0,0,0,0,0,0,0,0,0,0,3.087,14.42,-14.917,-3.486,0.069041,0.395929
23:33:24:101445,0,-0.58191,1.18749,-1.74533e-05,1.35186,-5.23599e-05,0,0,0,0,0,0,0,0,0,0,0,0,3.535,14.161,-14.987,-3.997,0.059178,0.52133
23:33:24:106442,0,-0.58191,1.18749,-1.74533e-05,1.35186,-5.23599e-05,0,0,0,0,0,0,0,0,0,0,0,0,3.059,14.105,-14.749,-3.899,0.143718,0.453698
23:33:24:111605,0,-0.58191,1.18749,-1.74533e-05,1.35186,-5.23599e-05,0,0,0,0,0,0,0,0,0,0,0,0,3.129,14.42,-14.987,-3.794,0.081722,0.467788
23:33:24:116575,0,-0.58191,1.18749,-1.74533e-05,1.35186,-5.23599e-05,0,0,0,0,0,0,0,0,0,0,0,0,2.926,13.391,-14.546,-4.305,0.170489,0.457925
23:33:24:121725,0,-0.58191,1.18749,-1.74533e-05,1.35186,-5.23599e-05,0,0,0,0,0,0,0,0,0,0,0,0,3.689,13.902,-15.099,-3.99,0.092994,0.449471
23:33:24:126714,0,-0.58191,1.18749,-1.74533e-05,1.35186,-5.23599e-05,0,0,0,0,0,0,0,0,0,0,0,0,3.038,13.65,-15.246,-3.682,0.176125,0.345205
23:33:24:131819,0,-0.58191,1.18749,-1.74533e-05,1.35186,-5.23599e-05,0,0,0,0,0,0,0,0,0,0,0,0,3.395,13.713,-15.484,-3.787,0.178943,0.486105
23:33:24:136834,0,-0.58191,1.18749,-1.74533e-05,1.35186,-5.23599e-05,0,0,0,0,0,0,0,0,0,0,0,0,3.598,13.3,-14.917,-3.997,0.083131,0.617142
23:33:24:141835,0,-0.58191,1.18749,-1.74533e-05,1.35186,-5.23599e-05,0,0,0,0,0,0,0,0,0,0,0,0,2.863,13.93,-14.784,-4.095,0.266301,0.463561
23:33:24:146960,0,-0.58191,1.18749,-1.74533e-05,1.35186,-5.23599e-05,0,0,0,0,0,0,0,0,0,0,0,0,3.241,13.734,-14.84,-3.997,0.128219,0.539647
23:33:24:151960,0,-0.58191,1.18749,-1.74533e-05,1.35186,-5.23599e-05,0,0,0,0,0,0,0,0,0,0,0,0,3.353,13.195,-15.281,-4.403,0.11272,0.4227
23:33:24:157084,0,-0.58191,1.18749,-1.74533e-05,1.35186,-5.23599e-05,0,0,0,0,0,0,0,0,0,0,0,0,3.864,13.846,-15.19,-3.892,0.178943,0.328297
23:33:24:162088,0,-0.58191,1.18749,-1.74533e-05,1.35186,-5.23599e-05,0,0,0,0,0,0,0,0,0,0,0,0,2.954,14.672,-15.358,-4.095,0.122583,0.390293
23:33:24:167194,0,-0.58191,1.18749,-1.74533e-05,1.35186,-5.23599e-05,0,0,0,0,0,0,0,0,0,0,0,0,3.129,13.363,-14.861,-4.2,0.074677,0.488923
23:33:24:172194,0,-0.58191,1.18749,-1.74533e-05,1.35186,-5.23599e-05,0,0,0,0,0,0,0,0,0,0,0,0,2.863,13.734,-15.519,-4.2,0.046497,0.364931
23:33:24:177336,0,-0.58191,1.18749,-1.74533e-05,1.35186,-5.23599e-05,0,0,0,0,0,0,0,0,0,0,0,0,2.66,13.874,-15.022,-3.997,0.16908,0.467788
23:33:24:182269,0,-0.58191,1.18749,-1.74533e-05,1.35186,-5.23599e-05,0,0,0,0,0,0,0,0,0,0,0,0,3.108,13.986,-15.064,-3.584,0.128219,0.404383
23:33:24:187445,0,-0.58191,1.18749,-1.74533e-05,1.35186,-5.23599e-05,0,0,0,0,0,0,0,0,0,0,0,0,3.129,13.475,-14.875,-4.305,0.059178,0.498786
23:33:24:192441,0,-0.58191,1.18749,-1.74533e-05,1.35186,-5.23599e-05,0,0,0,0,0,0,0,0,0,0,0,0,3.598,14.784,-15.099,-3.997,0.131037,0.498786
23:33:24:197567,0,-0.58191,1.18749,-1.74533e-05,1.35186,-5.23599e-05,0,0,0,0,0,0,0,0,0,0,0,0,3.374,13.706,-14.231,-4.305,0.146536,0.40861
23:33:24:202573,0,-0.58191,1.18749,-1.74533e-05,1.35186,-5.23599e-05,0,0,0,0,0,0,0,0,0,0,0,0,2.842,13.307,-15.393,-4.2,0.16908,0.488923
23:33:24:207690,0,-0.58191,1.18749,-1.74533e-05,1.35186,-5.23599e-05,0,0,0,0,0,0,0,0,0,0,0,0,3.374,13.993,-15.519,-4.2,0.171898,0.395929
23:33:24:212692,0,-0.58191,1.18749,-1.74533e-05,1.35186,-5.23599e-05,0,0,0,0,0,0,0,0,0,0,0,0,3.017,14.588,-15.155,-4.305,0.273346,0.449471
23:33:24:217692,0,-0.58191,1.18749,-1.74533e-05,1.35186,-5.23599e-05,0,0,0,0,0,0,0,0,0,0,0,0,2.975,13.559,-15.302,-3.997,0.146536,0.503013
23:33:24:222815,0,-0.58191,1.18749,-1.74533e-05,1.35186,-3.49066e-05,0,0,0,0,0,0,0,0,0,0,0,0,3.395,13.986,-15.358,-3.787,0.030998,0.428336
23:33:24:227781,0,-0.58191,1.18749,-1.74533e-05,1.35186,-3.49066e-05,0,0,0,0,0,0,0,0,0,0,0,0,3.311,13.958,-15.449,-3.486,0.05636,0.457925
23:33:24:232939,0,-0.58191,1.18749,-1.74533e-05,1.35186,-3.49066e-05,0,0,0,0,0,0,0,0,0,0,0,0,3.864,13.559,-15.281,-3.892,0.033816,0.381839
23:33:24:237957,0,-0.58191,1.18749,-1.74533e-05,1.35186,-3.49066e-05,0,0,0,0,0,0,0,0,0,0,0,0,3.22,14.161,-15.575,-4.2,0.030998,0.441017
23:33:24:243064,0,-0.58191,1.18749,-1.74533e-05,1.35186,-3.49066e-05,0,0,0,0,0,0,0,0,0,0,0,0,3.283,14.301,-15.316,-4.403,0.053542,0.428336
23:33:24:248066,0,-0.58191,1.18749,-1.74533e-05,1.35186,-3.49066e-05,0,0,0,0,0,0,0,0,0,0,0,0,3.374,13.986,-15.246,-3.997,0.135264,0.438199
23:33:24:253190,0,-0.58191,1.18749,-1.74533e-05,1.35186,-3.49066e-05,0,0,0,0,0,0,0,0,0,0,0,0,3.535,14.301,-15.169,-3.997,0.184579,0.438199
23:33:24:258189,0,-0.58191,1.18749,-1.74533e-05,1.35186,-3.49066e-05,0,0,0,0,0,0,0,0,0,0,0,0,3.038,13.559,-15.652,-4.508,0.19726,0.364931
23:33:24:263331,0,-0.58191,1.18749,-1.74533e-05,1.35186,-3.49066e-05,0,0,0,0,0,0,0,0,0,0,0,0,3.017,13.93,-15.211,-3.892,0.018317,0.488923
23:33:24:268278,0,-0.58191,1.18749,-3.49066e-05,1.35186,-3.49066e-05,0,0,0,0,0,0,-0.032,-0.068,0.273,0,0,-0.001,3.038,13.818,-14.987,-3.878,-0.07045,0.486105
23:33:24:273260,0,-0.58191,1.18749,-3.49066e-05,1.35186,-3.49066e-05,0,0,0,0,0,0,-0.004,-0.088,0.243,0,0,-0.001,3.129,14.504,-15.246,-3.794,0.11272,0.486105
23:33:24:278438,0,-0.58191,1.18749,-3.49066e-05,1.35186,-3.49066e-05,0,0,0,0,0,0,0.05,-0.056,-0.073,0,0,0.001,2.723,14.049,-14.987,-3.591,0.069041,0.442426
23:33:24:283404,0,-0.58191,1.18749,-3.49066e-05,1.35186,-3.49066e-05,0,0,0,0,0,0,0.057,-0.011,-0.27,0,0,0.002,3.465,13.874,-16.128,-3.696,0.095812,0.425518
23:33:24:288562,0,-0.58191,1.18749,-3.49066e-05,1.35186,-3.49066e-05,0,0,0,0,0,0,0.013,0.031,-0.297,0,0.001,0.002,3.15,13.447,-15.134,-4.207,0.180352,0.470606
23:33:24:293518,0,-0.58191,1.18749,-3.49066e-05,1.35186,-3.49066e-05,0,0,0,0,0,0,-0.019,0.026,-0.193,0,0.001,0.001,2.975,13.531,-15.246,-4.298,0.057769,0.453698
23:33:24:298705,0,-0.58191,1.18749,-3.49066e-05,1.35186,-3.49066e-05,0,0,0,0,0,0,-0.025,-0.006,-0.108,0,0,0,3.668,13.986,-15.372,-3.787,-0.002818,0.355068
23:33:24:303655,0,-0.58191,1.18749,-3.49066e-05,1.35186,-3.49066e-05,0,0,0,0,0,0,-0.008,-0.022,-0.134,0,0,0,3.353,13.447,-15.428,-3.696,0.171898,0.453698
23:33:24:308633,0,-0.58191,1.18749,-3.49066e-05,1.35186,-3.49066e-05,0,0,0,0,0,0,0.002,-0.023,-0.133,0,0,0,3.689,14.441,-15.54,-3.794,0.071859,0.500195
23:33:24:313840,0,-0.58191,1.18749,-3.49066e-05,1.35186,-3.49066e-05,0,0,0,0,0,0,-0.005,-0.016,-0.061,0,0,0,2.926,13.706,-14.805,-4.396,0.181761,0.488923
23:33:24:318837,0,-0.58191,1.18749,-3.49066e-05,1.35186,-3.49066e-05,0,0,0,0,0,0,-0.004,-0.005,-0.013,0,0,0,3.108,13.958,-15.022,-3.787,0.100039,0.428336
23:33:24:323947,0,-0.58191,1.18749,-3.49066e-05,1.35186,-3.49066e-05,0,0,0,0,0,0,0.018,0.005,-0.111,0,0,0,2.884,13.391,-14.784,-3.794,0.1409,0.431154
23:33:24:328882,0,-0.58191,1.18749,-3.49066e-05,1.35186,-3.49066e-05,0,0,0,0,0,0,0.058,0.028,-0.309,0,0,0.002,2.814,14.042,-14.567,-3.591,-0.029589,0.345205
23:33:24:334078,0,-0.58191,1.18749,-3.49066e-05,1.35186,-3.49066e-05,0,0,0,0,0,0,0.051,0.034,-0.307,0,0,0.002,3.353,14.301,-15.064,-4.095,0.16908,0.438199
23:33:24:339079,0,-0.58191,1.18749,-3.49066e-05,1.35186,-3.49066e-05,0,0,0,0,0,0,0.019,0.016,-0.059,0,0,0,3.038,13.363,-15.449,-3.997,0.053542,0.45088
23:33:24:344080,0,-0.58191,1.18749,-3.49066e-05,1.35186,-3.49066e-05,0,0,0,0,0,0,-0.014,-0.001,0.123,0,0,-0.001,2.926,14.245,-15.372,-4.403,0.143718,0.534011
23:33:24:349185,0,-0.58191,1.18749,-3.49066e-05,1.35186,-3.49066e-05,0,0,0,0,0,0,-0.038,-0.009,0.214,0,0,-0.001,3.129,14.385,-15.393,-3.689,0.133855,0.390293
23:33:24:354205,0,-0.58191,1.18749,-3.49066e-05,1.35186,-3.49066e-05,0,0,0,0,0,0,-0.035,-0.006,0.18,0,0,-0.001,3.087,13.195,-15.372,-4.508,0.040861,0.387475
23:33:24:359327,0,-0.58191,1.18749,-3.49066e-05,1.35186,-3.49066e-05,0,0,0,0,0,0,-0.019,-0.019,0.137,0,0,-0.001,3.486,13.566,-15.064,-3.696,0.105675,0.433972
23:33:24:364299,0,-0.58191,1.18749,-3.49066e-05,1.35186,-3.49066e-05,0,0,0,0,0,0,0.002,-0.038,0.088,0,0,0,3.465,13.279,-15.89,-4.004,0.043679,0.390293
23:33:24:369433,0,-0.58191,1.18749,-3.49066e-05,1.35186,-3.49066e-05,0,0,0,0,0,0,0.017,-0.029,-0.016,0,0,0,2.926,13.622,-15.617,-3.997,0.125401,0.435381
23:33:24:374434,0,-0.58191,1.18749,-3.49066e-05,1.35186,-3.49066e-05,0,0,0,0,0,0,0.026,0.013,-0.197,0,0,0.001,2.457,12.943,-15.393,-3.787,0.105675,0.435381
23:33:24:379575,0,-0.58191,1.18749,-3.49066e-05,1.35186,-3.49066e-05,0,0,0,0,0,0,0.016,0.025,-0.202,0,0,0.001,3.332,12.957,-15.246,-3.584,0.071859,0.384657
23:33:24:384531,0,-0.58191,1.18749,-3.49066e-05,1.35186,-3.49066e-05,0,0,0,0,0,0,-0.019,-0.006,0.008,0,0,0,2.436,13.727,-15.12,-3.584,0.115538,0.473424
23:33:24:389508,0,-0.58191,1.18749,-3.49066e-05,1.35186,-3.49066e-05,0,0,0,0,0,0,-0.042,-0.031,0.146,0,0,-0.001,3.304,14.098,-14.931,-3.99,0.109902,0.388884
23:33:24:394506,0,-0.58191,1.18749,-3.49066e-05,1.35186,-3.49066e-05,0,0,0,0,0,0,-0.05,-0.018,0.11,0,0,-0.001,3.22,14.049,-14.567,-4.305,0.100039,0.546692
23:33:24:399700,0,-0.58191,1.18749,-3.49066e-05,1.35186,-3.49066e-05,0,0,0,0,0,0,-0.034,0.013,-0.035,0,0,0,3.241,14.182,-15.281,-4.305,0.018317,0.52133
23:33:24:404806,0,-0.58191,1.18749,-3.49066e-05,1.35186,-3.49066e-05,0,0,0,0,0,0,0.007,0.038,-0.173,0,0,0.001,2.73,13.993,-14.84,-4.193,0.102857,0.441017
23:33:24:409806,0,-0.58191,1.18749,-3.49066e-05,1.35186,-3.49066e-05,0,0,0,0,0,0,0.029,0.028,-0.142,0,0,0.001,3.619,14.616,-15.134,-3.479,0.061996,0.495968
23:33:24:414949,0,-0.58191,1.18749,-3.49066e-05,1.35186,-3.49066e-05,0,0,0,0,0,0,0.031,0.012,-0.045,0,0,0,3.108,13.594,-15.393,-3.584,-0.033816,0.452289
23:33:24:419950,0,-0.58191,1.18749,-3.49066e-05,1.35186,-3.49066e-05,0,0,0,0,0,0,0.016,0.014,-0.041,0,0,0,2.926,14.217,-14.952,-3.584,0.005636,0.467788
23:33:24:424933,0,-0.58191,1.18749,-3.49066e-05,1.35186,-3.49066e-05,0,0,0,0,0,0,-0.002,0.015,-0.114,0,0,0,3.395,15.015,-15.19,-3.885,0.115538,0.453698
23:33:24:430056,0,-0.58191,1.18749,-3.49066e-05,1.35186,-3.49066e-05,0,0,0,0,0,0,0,0.003,-0.154,0,0,0,2.212,13.734,-15.281,-3.591,0.100039,0.428336
23:33:24:435074,0,-0.58191,1.18749,-3.49066e-05,1.35186,-3.49066e-05,0,0,0,0,0,0,0.021,-0.016,-0.161,0,0,0.001,2.905,12.089,-15.267,-4.298,0.146536,0.405792
23:33:24:440186,0,-0.58191,1.18749,-3.49066e-05,1.35186,-3.49066e-05,0,0,0,0,0,0,0.035,-0.019,-0.12,0,0,0.001,3.171,13.111,-15.134,-3.591,0.171898,0.412837
23:33:24:445183,0,-0.58191,1.18749,-3.49066e-05,1.35186,-3.49066e-05,0,0,0,0,0,0,0.032,-0.022,-0.056,0,0,0,2.478,13.846,-15.225,-4.2,0.061996,0.405792
23:33:24:450306,0,-0.58191,1.18749,-3.49066e-05,1.35186,-3.49066e-05,0,0,0,0,0,0,0.021,-0.045,0.091,0,0,-0.001,3.038,15.092,-15.652,-3.682,0.194442,0.480469
23:33:24:455281,0,-0.581928,1.18749,-3.49066e-05,1.35186,-3.49066e-05,0,0,0,0,0,0,0.018,-0.057,0.165,0,0,-0.002,3.262,13.097,-15.267,-4.095,0.061996,0.457925
23:33:24:460472,0,-0.581928,1.18749,-3.49066e-05,1.35186,-3.49066e-05,0,0,0,0,0,0,0.022,-0.043,0.138,0,0,-0.001,3.556,14.917,-14.875,-4.305,0.177534,0.460743
23:33:24:465374,0,-0.581928,1.18749,-3.49066e-05,1.35186,-3.49066e-05,0,0,0,0,0,0,0.021,-0.017,0.048,0,0,0,3.304,14.28,-14.931,-3.899,0.100039,0.387475
23:33:24:470566,0,-0.581928,1.18749,-3.49066e-05,1.35186,-1.74533e-05,0,0,0,0,0,0,0.017,0.008,-0.044,0,0,0,3.017,14,-15.449,-4.193,0.074677,0.435381
23:33:24:475572,0,-0.581928,1.18749,-3.49066e-05,1.35186,-1.74533e-05,0,0,0,0,0,0,0.018,0.011,-0.035,0,0,0,2.842,13.762,-15.078,-3.689,0.050724,0.287436
23:33:24:480558,0,-0.581928,1.18749,-3.49066e-05,1.35186,-1.74533e-05,0,0,0,0,0,0,0.034,0.018,-0.01,0,0,0,3.241,14.154,-14.875,-4.011,0.125401,0.384657
23:33:24:485679,0,-0.581928,1.18749,-3.49066e-05,1.35186,-1.74533e-05,0,0,0,0,0,0,0.047,0.034,-0.054,0,0,0.001,2.793,14.021,-14.987,-3.997,0.187397,0.470606
23:33:24:490698,0,-0.581928,1.18749,-3.49066e-05,1.35186,-1.74533e-05,0,0,0,0,0,0,0.05,0.053,-0.175,0,0,0.002,3.304,13.853,-15.211,-4.41,0.147945,0.377612
23:33:24:495626,0,-0.581928,1.18749,-3.49066e-05,1.35186,-1.74533e-05,0,0,0,0,0,0,0.045,0.044,-0.209,0,0,0.002,3.059,14.252,-15.225,-3.192,0.133855,0.391702
23:33:24:500766,0,-0.581928,1.18749,-3.49066e-05,1.35186,-1.74533e-05,0,0,0,0,0,0,0.041,0.003,-0.121,0,0,0.001,2.569,14.441,-16.072,-3.885,0.187397,0.39452
23:33:24:505946,0,-0.581928,1.18749,-3.49066e-05,1.35186,-1.74533e-05,0,0,0,0,0,0,0.046,-0.021,-0.021,0,0,0,3.731,14.364,-14.952,-4.004,0.009863,0.431154
23:33:24:510895,0,-0.581928,1.18749,-3.49066e-05,1.35186,-1.74533e-05,0,0,0,0,0,0,0.056,-0.035,0.055,0,0,0,3.773,14.322,-15.008,-3.381,0.125401,0.457925
23:33:24:516071,0,-0.581928,1.18749,-3.49066e-05,1.35186,-1.74533e-05,0,0,0,0,0,0,0.055,-0.033,0.025,0,0,0,3.395,14.616,-15.449,-4.403,0.174716,0.487514
23:33:24:521032,0,-0.581928,1.18749,-3.49066e-05,1.35186,-1.74533e-05,0,0,0,0,0,0,0.041,-0.032,-0.045,0,0,0,3.731,14.049,-14.966,-3.794,0.081722,0.429745
23:33:24:526015,0,-0.581928,1.18749,-3.49066e-05,1.35186,-1.74533e-05,0,0,0,0,0,0,0.029,-0.037,-0.025,0,0,0,2.436,13.622,-14.931,-4.095,0.071859,0.377612
23:33:24:531185,0,-0.581928,1.18749,-3.49066e-05,1.35186,-1.74533e-05,0,0,0,0,0,0,0.015,-0.049,0.118,0,0,-0.001,1.876,13.958,-15.134,-3.598,0.105675,0.35225
23:33:24:536133,0,-0.581928,1.18749,-3.49066e-05,1.35186,-1.74533e-05,0,0,0,0,0,0,0.004,-0.057,0.209,0,0,-0.001,3.822,14.049,-15.064,-3.899,0.092994,0.433972
23:33:24:541318,0,-0.581928,1.18749,-3.49066e-05,1.35186,-1.74533e-05,0,0,0,0,0,0,-0.003,-0.053,0.168,0,0,-0.001,3.598,13.993,-15.414,-4.41,0.229667,0.367749
23:33:24:546318,0,-0.581928,1.18749,-3.49066e-05,1.35186,-1.74533e-05,0,0,0,0,0,0,-0.018,-0.032,0.059,0,0,0,2.345,14.497,-15.463,-4.186,0.02818,0.364931
23:33:24:551439,0,-0.581928,1.18749,-3.49066e-05,1.35186,-1.74533e-05,0,0,0,0,0,0,-0.025,-0.012,0.044,0,0,0,3.444,14.105,-15.134,-3.703,0.128219,0.432563
23:33:24:556411,0,-0.581928,1.18749,-3.49066e-05,1.35186,-1.74533e-05,0,0,0,0,0,0,-0.014,0,0.116,0,0,0,3.374,14.021,-14.966,-4.116,0.087358,0.384657
23:33:24:561566,0,-0.581928,1.18749,-3.49066e-05,1.35186,-1.74533e-05,0,0,0,0,0,0,0.008,-0.012,0.163,0,0,-0.001,2.702,14.28,-15.281,-3.892,0.166262,0.401565
23:33:24:566567,0,-0.581928,1.18749,-3.49066e-05,1.35186,-1.74533e-05,0,0,0,0,0,0,0.039,-0.047,0.169,0,0,-0.001,2.59,13.958,-15.484,-3.794,0.097221,0.508649
23:33:24:571693,0,-0.581928,1.18749,-3.49066e-05,1.35186,-1.74533e-05,0,0,0,0,0,0,0.044,-0.058,0.13,0,0,0,3.22,13.741,-15.337,-3.997,0.090176,0.335342
23:33:24:576674,0,-0.581928,1.18749,-3.49066e-05,1.35186,-1.74533e-05,0,0,0,0,0,0,0.034,-0.034,0.026,-0.001,0,0,4.067,13.804,-15.267,-3.794,0.102857,0.363522
23:33:24:581799,0,-0.581928,1.18749,-3.49066e-05,1.35186,-1.74533e-05,0,0,0,0,0,0,0.029,-0.007,-0.051,0,0,0,2.506,14.721,-14.896,-4.004,0.133855,0.342387
23:33:24:586801,0,-0.581928,1.18749,-3.49066e-05,1.35186,-1.74533e-05,0,0,0,0,0,0,0.027,0.008,-0.116,0,0,0.001,2.394,13.867,-14.77,-3.591,0.046497,0.433972
23:33:24:591928,0,-0.581928,1.18749,-3.49066e-05,1.35186,-1.74533e-05,0,0,0,0,0,0,0.018,-0.001,-0.107,0,0,0.001,3.395,13.489,-15.169,-3.689,0.071859,0.407201
23:33:24:596924,0,-0.581928,1.18749,-3.49066e-05,1.35186,-1.74533e-05,0,0,0,0,0,0,-0.014,-0.019,-0.049,0,0,0,3.262,14,-15.134,-4.193,0.088767,0.457925
23:33:24:601943,0,-0.581928,1.18749,-3.49066e-05,1.35186,-1.74533e-05,0,0,0,0,0,0,-0.036,-0.018,0.003,0,0,0,3.801,13.846,-14.952,-3.185,0.071859,0.417064
23:33:24:607112,0,-0.581928,1.18749,-3.49066e-05,1.35186,-1.74533e-05,0,0,0,0,0,0,-0.039,-0.009,0.09,0,0,-0.002,3.997,14.322,-15.561,-4.095,0.194442,0.4227
23:33:24:612069,0,-0.581928,1.18749,-3.49066e-05,1.35186,-1.74533e-05,0,0,0,0,0,0,-0.019,-0.01,0.107,0,0,-0.002,4.046,14.308,-15.246,-3.591,0.166262,0.435381
23:33:24:617169,0,-0.581928,1.18749,-3.49066e-05,1.35186,-1.74533e-05,0,0,0,0,0,0,0.017,-0.02,-0.035,0,0,0,2.996,13.769,-14.546,-3.997,0.128219,0.45088
23:33:24:622170,0,-0.581928,1.18749,-3.49066e-05,1.35186,-1.74533e-05,0,0,0,0,0,0,0.038,-0.018,-0.31,0,0,0.002,2.737,14.476,-15.134,-4.102,0.090176,0.410019
23:33:24:627315,0,-0.581928,1.18749,-3.49066e-05,1.35186,-1.74533e-05,0,0,0,0,0,0,0.041,-0.013,-0.411,0,0,0.003,3.444,13.37,-15.869,-3.92,0.08454,0.4227
23:33:24:632319,0,-0.581928,1.18749,-3.49066e-05,1.35186,-1.74533e-05,0,0,0,0,0,0,0.036,-0.017,-0.286,0,0,0.002,3.199,13.769,-15.519,-3.99,0.138082,0.398747
23:33:24:637420,0,-0.581928,1.18749,-3.49066e-05,1.35186,-1.74533e-05,0,0,0,0,0,0,0.026,-0.031,-0.087,0,0,0,3.465,13.622,-15.337,-4.088,-0.01409,0.452289
23:33:24:642421,0,-0.581928,1.18749,-3.49066e-05,1.35186,-1.74533e-05,0,0,0,0,0,0,0.004,-0.04,0.123,0,0,-0.001,3.115,14.322,-14.896,-3.29,0.087358,0.438199
23:33:24:647549,0,-0.581928,1.18749,-3.49066e-05,1.35186,-1.74533e-05,0,0,0,0,0,0,-0.009,-0.026,0.13,0,0,-0.001,2.681,13.076,-15.47,-3.787,0.150763,0.376203
23:33:24:652549,0,-0.581928,1.18749,-3.49066e-05,1.35186,-1.74533e-05,0,0,0,0,0,0,-0.017,0.004,0.035,0,0,0,3.689,13.916,-15.414,-3.913,0.125401,0.412837
23:33:24:657673,0,-0.581928,1.18749,-3.49066e-05,1.35186,-1.74533e-05,0,0,0,0,0,0,-0.009,0.012,-0.004,0,0,0,3.283,13.398,-15.358,-3.598,0.125401,0.410019
23:33:24:662689,0,-0.581928,1.18749,-3.49066e-05,1.35186,-1.74533e-05,0,0,0,0,0,0,0.007,-0.007,0.004,0,0,0,2.653,13.398,-15.358,-3.892,-0.016908,0.428336
23:33:24:667689,0,-0.581928,1.18749,-3.49066e-05,1.35186,-1.74533e-05,0,0,0,0,0,0,0.011,-0.024,0.014,0,0,0,2.842,14.644,-15.764,-3.913,0.087358,0.43679
23:33:24:672813,0,-0.581928,1.18749,-3.49066e-05,1.35186,-1.74533e-05,0,0,0,0,0,0,0.002,-0.023,-0.012,0,0,0,3.262,14.364,-15.449,-3.199,0.19726,0.452289
23:33:24:677759,0,-0.581928,1.18749,-3.49066e-05,1.35186,-1.74533e-05,0,0,0,0,0,0,-0.006,-0.006,-0.042,0,0,0,2.723,14.077,-15.169,-3.584,0.064814,0.515694
23:33:24:682939,0,-0.581928,1.18749,-3.49066e-05,1.35186,-1.74533e-05,0,0,0,0,0,0,-0.01,0.022,-0.09,0,0,0.001,2.968,13.958,-14.602,-3.633,0.115538,0.355068
23:33:24:687935,0,-0.581928,1.18749,-3.49066e-05,1.35186,-1.74533e-05,0,0,0,0,0,0,-0.004,0.034,-0.133,0,0,0.001,3.087,13.79,-15.463,-3.696,0.094403,0.414246
23:33:24:693060,0,-0.581928,1.18749,-3.49066e-05,1.35186,-1.74533e-05,0,0,0,0,0,0,0.01,0.042,-0.191,0,0,0.001,2.877,13.454,-15.337,-3.892,0.177534,0.384657
23:33:24:698061,0,-0.581928,1.18749,-3.49066e-05,1.35186,-1.74533e-05,0,0,0,0,0,0,0.021,0.039,-0.18,0,0,0,3.157,13.993,-15.519,-3.801,0.061996,0.370567
23:33:24:703182,0,-0.581928,1.18749,-5.23599e-05,1.35186,-1.74533e-05,0,0,0,0,0,0,0.033,0.016,-0.084,0,0,0,2.751,13.706,-15.631,-3.493,0.156399,0.503013
23:33:24:708187,0,-0.581928,1.18749,-5.23599e-05,1.35186,-1.74533e-05,0,0,0,0,0,0,0.036,-0.013,-0.006,0,0,0,3.038,13.825,-15.393,-3.178,0.115538,0.332524
23:33:24:713134,0,-0.581928,1.18749,-5.23599e-05,1.35186,-1.74533e-05,0,0,0,0,0,0,0.031,-0.025,0.009,0,0,0,2.933,13.629,-15.372,-4.179,0.146536,0.486105
23:33:24:718310,0,-0.581928,1.18749,-5.23599e-05,1.35186,-1.74533e-05,0,0,0,0,0,0,0.017,-0.024,0.064,0,0,0,2.905,14.105,-15.519,-3.402,0.097221,0.483287
23:33:24:723242,0,-0.581928,1.18749,-5.23599e-05,1.35186,-1.74533e-05,0,0,0,0,0,0,0.01,-0.018,0.144,0,0,0,3.311,13.125,-15.155,-4.067,0.128219,0.387475
23:33:24:728433,0,-0.581928,1.18749,-5.23599e-05,1.35186,-1.74533e-05,0,0,0,0,0,0,0.014,-0.015,0.215,0,0,-0.001,3.157,13.762,-15.078,-4.704,0.05636,0.417064
23:33:24:733384,0,-0.581928,1.18749,-5.23599e-05,1.35186,-1.74533e-05,0,0,0,0,0,0,0.025,-0.014,0.168,0,0,0,2.681,13.881,-15.19,-3.703,0.153581,0.410019
23:33:24:738419,0,-0.581928,1.18749,-5.23599e-05,1.35186,-1.74533e-05,0,0,0,0,0,0,0.041,-0.01,0.019,0,0,0,3.395,13.741,-15.19,-3.262,0.08454,0.501604
23:33:24:743556,0,-0.581928,1.18749,-5.23599e-05,1.35186,-1.74533e-05,0,0,0,0,0,0,0.048,-0.011,-0.053,0,0,0,2.548,14.196,-14.784,-4.13,0.105675,0.377612
23:33:24:748507,0,-0.581928,1.18749,-5.23599e-05,1.35186,-1.74533e-05,0,0,0,0,0,0,0.06,-0.028,-0.097,0,0,0,3.087,13.825,-15.596,-3.388,0.08454,0.357886
23:33:24:753621,0,-0.581928,1.18749,-5.23599e-05,1.35186,-1.74533e-05,0,0,0,0,0,0,0.066,-0.046,-0.116,0,0,0,3.15,13.741,-14.728,-3.402,-0.021135,0.293072
23:33:24:758630,0,-0.581928,1.18749,-5.23599e-05,1.35186,-1.74533e-05,0,0,0,0,0,0,0.051,-0.052,-0.135,0,0,0,2.905,13.762,-15.134,-3.808,0.143718,0.556555
23:33:24:763807,0,-0.581928,1.18749,-5.23599e-05,1.35186,-1.74533e-05,0,0,0,0,0,0,0.02,-0.033,-0.127,0,0,0,4.081,14.168,-15.169,-3.794,0.184579,0.455107
23:33:24:768792,0,-0.581928,1.18749,-5.23599e-05,1.35186,-1.74533e-05,0,0,0,0,0,0,-0.016,0.015,-0.122,0,0,0,2.723,13.769,-15.414,-3.577,0.184579,0.367749
23:33:24:773971,0,-0.581928,1.18749,-5.23599e-05,1.35186,-1.74533e-05,0,0,0,0,0,0,-0.006,0.037,-0.159,0,0,0,3.668,13.79,-14.952,-3.773,0.090176,0.39452
23:33:24:778891,0,-0.581928,1.18749,-5.23599e-05,1.35186,-1.74533e-05,0,0,0,0,0,0,0.047,0.035,-0.234,0,0,0.002,2.905,13.79,-15.099,-3.108,-0.021135,0.425518
23:33:24:784059,0,-0.581928,1.18749,-5.23599e-05,1.35186,-1.74533e-05,0,0,0,0,0,0,0.07,0.022,-0.228,0,0,0.002,3.283,14.469,-15.666,-3.696,0.100039,0.415655
23:33:24:789043,0,-0.581928,1.18749,-5.23599e-05,1.35186,-1.74533e-05,0,0,0,0,0,0,0.044,0.01,-0.11,0,0,0,3.129,13.79,-14.861,-3.787,0.015499,0.39452
23:33:24:794043,0,-0.581928,1.18749,-5.23599e-05,1.35186,-1.74533e-05,0,0,0,0,0,0,0.005,0.011,-0.021,0,0,0,2.947,13.874,-15.316,-3.801,0.122583,0.384657
23:33:24:799191,0,-0.581928,1.18749,-5.23599e-05,1.35186,-1.74533e-05,0,0,0,0,0,0,-0.023,0.008,0.021,0,0,-0.001,2.863,14.301,-14.763,-4.102,0.074677,0.384657
23:33:24:804184,0,-0.581928,1.18749,-5.23599e-05,1.35186,-1.74533e-05,0,0,0,0,0,0,-0.008,-0.011,-0.002,0,0,0,3.465,14.049,-15.302,-3.892,0.16908,0.415655
23:33:24:809290,0,-0.581928,1.18749,-5.23599e-05,1.35186,-1.74533e-05,0,0,0,0,0,0,0.004,-0.029,-0.001,0,0,0,3.087,13.706,-14.917,-4.396,0.094403,0.387475
23:33:24:814258,0,-0.581928,1.18749,-5.23599e-05,1.35186,-1.74533e-05,0,0,0,0,0,0,0.012,-0.053,0.012,0,0,0,2.555,13.685,-15.743,-3.703,0.061996,0.39452
23:33:24:819431,0,-0.581928,1.18749,-5.23599e-05,1.35186,-1.74533e-05,0,0,0,0,0,0,0.015,-0.058,-0.029,0,0,0,3.619,13.538,-15.337,-3.612,0.246575,0.377612
23:33:24:824360,0,-0.581928,1.18749,-5.23599e-05,1.35186,-1.74533e-05,0,0,0,0,0,0,0.006,-0.037,-0.205,0,0,0.001,2.443,14.644,-14.581,-3.808,0.194442,0.300117
23:33:24:829537,0,-0.581928,1.18749,-5.23599e-05,1.35186,-1.74533e-05,0,0,0,0,0,0,-0.024,-0.007,-0.337,0,0,0.001,3.311,13.916,-15.302,-3.661,0.178943,0.463561
23:33:24:834536,0,-0.581928,1.18749,-5.23599e-05,1.35186,-1.74533e-05,0,0,0,0,0,0,-0.103,0.028,-0.382,0,0.001,0,2.856,14.014,-15.302,-3.822,0.049315,0.4227
23:33:24:839682,0,-0.581928,1.18749,-5.23599e-05,1.35186,-1.74533e-05,0,0,0,0,0,0,-0.145,0.024,-0.273,0,0.001,0,2.926,13.769,-15.358,-3.983,-0.002818,0.374794
23:33:24:844611,0,-0.581928,1.18749,-5.23599e-05,1.35186,-1.74533e-05,0,0,0,0,0,0,-0.134,-0.021,-0.014,0,0.001,-0.003,2.226,14.658,-15.449,-3.794,0.232485,0.387475
23:33:24:849608,0,-0.581928,1.18749,-5.23599e-05,1.35186,-1.74533e-05,0,0,0,0,0,0,-0.081,-0.054,0.113,0,0,-0.003,3.129,14.126,-15.022,-3.878,0.181761,0.463561
23:33:24:854805,0,-0.581928,1.18749,-5.23599e-05,1.35186,-1.74533e-05,0,0,0,0,0,0,0.009,-0.07,0.159,0,0,-0.002,2.562,15.036,-15.316,-3.899,0.139491,0.345205
23:33:24:859804,0,-0.581928,1.18749,-5.23599e-05,1.35186,-1.74533e-05,0,0,0,0,0,0,0.047,-0.068,0.132,0,0,-0.001,3.332,14.273,-15.099,-4.109,0.119765,0.428336
23:33:24:864916,0,-0.581928,1.18749,-5.23599e-05,1.35186,-1.74533e-05,0,0,0,0,0,0,0.059,-0.074,0.091,0,0,-0.001,3.199,14.077,-15.372,-4.088,-0.008454,0.486105
23:33:24:869954,0,-0.581928,1.18749,-5.23599e-05,1.35186,-1.74533e-05,0,0,0,0,0,0,0.046,-0.079,0.066,0,0,-0.001,2.926,14.28,-14.917,-3.717,0.08454,0.463561
23:33:24:874915,0,-0.581928,1.18749,-5.23599e-05,1.35186,-1.74533e-05,0,0,0,0,0,0,0.021,-0.052,-0.02,0,0,0,3.171,14.49,-15.575,-3.29,0.081722,0.350841
23:33:24:880041,0,-0.581928,1.18749,-5.23599e-05,1.35186,-1.74533e-05,0,0,0,0,0,0,0.011,-0.009,-0.112,0,0,0,3.066,14.56,-15.281,-3.5,0.180352,0.463561
23:33:24:885178,0,-0.581928,1.18749,-5.23599e-05,1.35186,-1.74533e-05,0,0,0,0,0,0,0.021,0.041,-0.222,0,0,0.002,3.689,13.622,-15.008,-3.605,0.180352,0.319843
23:33:24:890126,0,-0.581928,1.18749,-5.23599e-05,1.35186,-1.74533e-05,0,0,0,0,0,0,0.052,0.034,-0.231,0,0,0.001,3.36,13.916,-14.714,-3.101,0.090176,0.393111
23:33:24:895172,0,-0.581928,1.18749,-5.23599e-05,1.35186,-1.74533e-05,0,0,0,0,0,0,0.069,0.012,-0.204,0,0,0.001,3.199,13.741,-15.54,-4.179,0.160626,0.460743
23:33:24:900285,0,-0.581928,1.18749,-5.23599e-05,1.35186,-1.74533e-05,0,0,0,0,0,0,0.067,-0.012,-0.154,0,0,0,2.814,13.566,-15.211,-3.913,0.119765,0.35225
23:33:24:905306,0,-0.581928,1.18749,-5.23599e-05,1.35186,-1.74533e-05,0,0,0,0,0,0,0.054,-0.018,-0.098,0,0,0,2.499,14.469,-15.428,-3.682,0.102857,0.428336
23:33:24:910411,0,-0.581928,1.18749,-5.23599e-05,1.35186,-1.74533e-05,0,0,0,0,0,0,0.039,-0.024,0.032,-0.001,0,0,3.024,14.301,-15.393,-3.983,0.092994,0.514285
23:33:24:915411,0,-0.581928,1.18749,-5.23599e-05,1.35186,-1.74533e-05,0,0,0,0,0,0,0.033,-0.025,0.104,-0.001,0,-0.001,3.794,13.79,-16.023,-3.885,0.08454,0.421291
23:33:24:920529,0,-0.581928,1.18749,-5.23599e-05,1.35186,-1.74533e-05,0,0,0,0,0,0,0.017,-0.014,0.093,0,0,-0.001,3.598,13.027,-15.169,-3.675,-0.040861,0.407201
23:33:24:925532,0,-0.581928,1.18749,-5.23599e-05,1.35186,-1.74533e-05,0,0,0,0,0,0,0,-0.002,0.018,0,0,0,2.905,13.993,-15.12,-3.913,0.138082,0.398747
23:33:24:930685,0,-0.581928,1.18749,-5.23599e-05,1.35186,-1.74533e-05,0,0,0,0,0,0,-0.003,0.009,-0.096,0,0,0,3.332,14.196,-15.414,-4.025,0.123992,0.342387
23:33:24:935680,0,-0.581928,1.18749,-5.23599e-05,1.35186,-1.74533e-05,0,0,0,0,0,0,0.015,0.007,-0.131,-0.001,0.001,0,3.129,14.189,-15.484,-3.5,0.08454,0.367749
23:33:24:940781,0,-0.581928,1.18749,-5.23599e-05,1.35186,-1.74533e-05,0,0,0,0,0,0,0.036,-0.017,-0.097,0,0,0,3.234,14.378,-15.043,-3.997,0.171898,0.340978
23:33:24:945798,0,-0.581928,1.18749,-5.23599e-05,1.35186,-1.74533e-05,0,0,0,0,0,0,0.017,-0.047,-0.022,0.001,-0.002,0,3.325,13.195,-15.281,-3.843,0.078904,0.410019
23:33:24:950798,0,-0.581928,1.18749,-5.23599e-05,1.35186,-1.74533e-05,0,0,0,0,0,0,-0.03,-0.071,0.128,0,-0.003,-0.001,3.332,14.105,-14.966,-3.948,0.238121,0.359295
23:33:24:955935,0,-0.581928,1.18749,-5.23599e-05,1.35186,-1.74533e-05,0,0,0,0,0,0,-0.015,-0.041,0.2,-0.004,0.001,-0.001,3.549,13.741,-14.819,-4.095,0.11272,0.534011
23:33:24:960906,0,-0.581928,1.18749,-5.23599e-05,1.35186,-1.74533e-05,0,0,0,0,0,0,0.128,0.067,0.183,-0.016,0.018,0,2.793,14.595,-15.316,-3.997,0.038043,0.473424
23:33:24:966049,0,-0.581928,1.18749,-5.23599e-05,1.35186,-1.74533e-05,0,0,0,0,0,0,0.253,0.13,0.084,-0.021,0.029,0.001,2.548,13.412,-14.819,-3.01,0.119765,0.336751
23:33:24:971058,0,-0.581928,1.18749,-5.23599e-05,1.35186,-1.74533e-05,0,0,0,0,0,0,0.329,0.125,-0.113,-0.018,0.032,0.003,3.535,14.301,-15.155,-3.577,0.081722,0.421291
23:33:24:976012,0,-0.581928,1.18749,-5.23599e-05,1.35186,-1.74533e-05,0,0,0,0,0,0,0.277,0.071,-0.211,-0.012,0.024,0.003,3.556,14.343,-14.77,-3.892,0.059178,0.456516
23:33:24:981177,0,-0.581928,1.18749,-5.23599e-05,1.35186,-1.74533e-05,0,0,0,0,0,0,0.153,0.024,-0.253,-0.007,0.013,0.002,3.598,14.252,-15.54,-4.074,0.040861,0.398747
23:33:24:986157,0,-0.581928,1.18749,-5.23599e-05,1.35186,-1.74533e-05,0,0,0,0,0,0,0.143,0.093,-0.215,-0.014,0.016,0.002,3.689,14.777,-15.134,-4.2,0.194442,0.443835
23:33:24:991307,0,-0.581928,1.18749,-5.23599e-05,1.35186,-1.74533e-05,0,0,0,0,0,0,0.214,0.168,-0.196,-0.02,0.025,0.003,3.864,14.728,-14.469,-4.095,0.018317,0.505831
23:33:24:996296,0,-0.581928,1.18749,-5.23599e-05,1.35186,-1.74533e-05,0,0,0,0,0,0,0.331,0.221,-0.2,-0.023,0.036,0.004,3.486,14.07,-14.434,-4.102,0.049315,0.400156
23:33:25:1407,0,-0.581928,1.18749,-5.23599e-05,1.35186,-1.74533e-05,0,0,0,0,0,0,0.355,0.198,-0.198,-0.019,0.035,0.004,3.416,15.561,-14.469,-3.689,0.143718,0.466379
23:33:25:6405,0,-0.581928,1.18749,-5.23599e-05,1.35186,-1.74533e-05,0,0,0,0,0,0,0.296,0.139,-0.163,-0.012,0.026,0.003,3.129,14.56,-14.252,-3.682,0.08454,0.476242
23:33:25:11555,0,-0.581928,1.18749,-5.23599e-05,1.35186,-1.74533e-05,0,0,0,0,0,0,0.238,0.134,-0.145,-0.011,0.02,0.003,3.626,14.826,-14.546,-3.815,0.187397,0.398747
23:33:25:16548,0,-0.581928,1.18749,-5.23599e-05,1.35186,-1.74533e-05,0,0,0,0,0,0,0.213,0.194,-0.186,-0.017,0.019,0.003,3.486,14.56,-14.105,-2.982,0.015499,0.508649
23:33:25:21669,0,-0.581928,1.18749,-5.23599e-05,1.35186,-1.74533e-05,0,0,0,0,0,0,0.244,0.242,-0.247,-0.023,0.024,0.004,3.108,15.393,-13.937,-3.696,-0.023953,0.52133
23:33:25:26651,0,-0.581928,1.18749,-5.23599e-05,1.35186,-1.74533e-05,0,0,0,0,0,0,0.286,0.251,-0.29,-0.027,0.028,0.006,3.71,14.903,-13.846,-3.409,-0.015499,0.539647
23:33:25:31651,0,-0.581928,1.18749,-5.23599e-05,1.35186,-1.74533e-05,0,0,0,0,0,0,0.272,0.214,-0.246,-0.024,0.026,0.005,3.311,14.959,-13.069,-3.388,0,0.526966
23:33:25:36653,0,-0.581928,1.18749,-5.23599e-05,1.35186,0,0,0,0,0,0,0,0.215,0.161,-0.112,-0.016,0.019,0.003,3.395,14.854,-13.272,-3.773,0.071859,0.428336
23:33:25:41796,0,-0.581928,1.18749,-5.23599e-05,1.35186,0,0,0,0,0,0,0,0.196,0.157,-0.044,-0.015,0.016,0.002,3.668,16.086,-12.411,-3.78,0.05636,0.452289
23:33:25:46908,0,-0.581928,1.18749,-5.23599e-05,1.35186,0,0,0,0,0,0,0.00258309,0.192,0.179,-0.05,-0.019,0.018,0.003,3.549,15.302,-12.369,-3.969,-0.038043,0.428336
23:33:25:51903,0,-0.581928,1.18749,-5.23599e-05,1.35186,1.74533e-05,0,0,0,0,0,0.00261799,0.164,0.182,-0.121,-0.021,0.019,0.003,3.451,15.694,-12.67,-4.004,0.030998,0.487514
23:33:25:57044,0,-0.581928,1.18749,-5.23599e-05,1.35186,1.74533e-05,0,0,0,0,0,0.00223402,0.055,0.149,-0.232,-0.017,0.015,0.003,3.675,16.268,-12.005,-3.486,-0.107084,0.432563
23:33:25:62046,0,-0.581928,1.18749,-5.23599e-05,1.35186,3.49066e-05,0,0,0,0,0,0.00363028,-0.029,0.12,-0.243,-0.013,0.011,0.002,3.948,15.561,-12.131,-3.801,0.033816,0.425518
23:33:25:67027,0,-0.581928,1.18749,-5.23599e-05,1.35186,5.23599e-05,0,0,0,0,0,0.00307178,-0.097,0.101,-0.115,-0.008,0.006,0,3.584,16.079,-12.131,-3.969,-0.102857,0.414246
23:33:25:72166,0,-0.581928,1.18749,-5.23599e-05,1.35186,6.98132e-05,0,0,0,0,0,0.00246091,-0.087,0.102,0.075,-0.009,0.005,-0.001,3.696,16.016,-12.278,-3.675,-0.107084,0.483287
23:33:25:77168,0,-0.581928,1.18749,-5.23599e-05,1.35186,8.72665e-05,0,0,0,0,0,0.00376991,-0.058,0.095,0.133,-0.009,0.005,-0.001,4.032,15.673,-11.487,-4.102,-0.018317,0.449471
23:33:25:82290,1.74533e-05,-0.581928,1.18749,-5.23599e-05,1.35186,8.72665e-05,0,0,0,0,0,0.00314159,-0.009,0.058,0.045,-0.007,0.003,-0.001,3.969,16.065,-11.914,-4.2,0.02818,0.397338
23:33:25:87292,1.74533e-05,-0.581928,1.18749,-5.23599e-05,1.35184,0.00010472,0,0,0,0,0,0.00254818,0.021,0.026,-0.079,-0.005,0.001,0,4.305,16.352,-11.354,-4.004,-0.067632,0.350841
23:33:25:92428,1.74533e-05,-0.581928,1.18749,-5.23599e-05,1.35184,0.000122173,0,0,0,0,0,0.00225147,0.051,0,-0.21,-0.001,0,0,4.347,15.925,-11.326,-3.591,-0.15499,0.373385
23:33:25:97402,1.74533e-05,-0.581928,1.18749,-5.23599e-05,1.35184,0.000122173,0,0,0,0,0,0.00235619,0.051,0,-0.202,0,0,0,4.312,16.093,-10.822,-3.997,-0.16908,0.443835
23:33:25:102526,1.74533e-05,-0.581928,1.18749,-5.23599e-05,1.35184,0.000139626,0,0,0,0,0,0.00235619,0.022,0.007,-0.073,0,0,0,4.55,15.449,-11.837,-4.123,-0.045088,0.410019
23:33:25:107538,1.74533e-05,-0.581928,1.18749,-5.23599e-05,1.35184,0.00015708,0,0,0,0,0,0,-0.004,0.01,0.027,0,0,0,4.459,16.121,-11.963,-3.99,-0.177534,0.340978
23:33:25:112648,3.49066e-05,-0.581928,1.18749,-5.23599e-05,1.35184,0.000174533,0,0,0,0,0,0.00282743,-0.031,0.006,0.115,0,0,0,4.137,15.652,-11.249,-3.717,-0.162035,0.383248
23:33:25:117649,3.49066e-05,-0.581928,1.18749,-5.23599e-05,1.35184,0.000191986,0,0,0,0,0,0.00352557,-0.036,0,0.114,0,0,0,4.081,15.981,-11.753,-3.976,-0.009863,0.374794
23:33:25:122652,3.49066e-05,-0.581928,1.18749,-5.23599e-05,1.35184,0.000191986,0,0,0,0,0,0.00282743,-0.025,-0.005,0.013,0,0,0,3.976,15.988,-10.885,-3.934,-0.091585,0.36634
23:33:25:127791,3.49066e-05,-0.581928,1.18749,-5.23599e-05,1.35184,0.00020944,0,0,0,0,0,0.00268781,-0.011,0.003,-0.12,0,0,0,4.354,16.464,-10.752,-3.997,-0.218395,0.356477
23:33:25:132898,3.49066e-05,-0.581928,1.18749,-5.23599e-05,1.35183,0.00020944,0,0,0,0,0,0,0.012,0.037,-0.365,0,0,0.002,4.193,16.408,-11.151,-3.829,-0.009863,0.321252
23:33:25:137904,3.49066e-05,-0.581928,1.18749,-5.23599e-05,1.35183,0.000226893,0,0,0,0,0,0,0.023,0.054,-0.477,0,0,0.003,4.053,16.772,-10.549,-3.689,-0.066223,0.393111
23:33:25:142897,3.49066e-05,-0.581928,1.18749,-5.23599e-05,1.35183,0.000226893,0,0,0,0,0,0,0.03,0.037,-0.443,0,0,0.003,4.354,16.548,-10.934,-3.29,-0.11272,0.339569
23:33:25:148051,3.49066e-05,-0.581928,1.18749,-5.23599e-05,1.35183,0.000244346,0,0,0,0,0,0,0.029,0.004,-0.298,0,0,0.002,4.557,16.443,-9.772,-3.605,-0.236712,0.359295
23:33:25:153022,3.49066e-05,-0.581928,1.1875,-5.23599e-05,1.35181,0.000244346,0,0,0,0,0,0,0.021,-0.03,-0.053,0,0,0,4.221,16.975,-10.206,-3.689,-0.107084,0.286027
23:33:25:158012,3.49066e-05,-0.581928,1.1875,-5.23599e-05,1.35181,0.000261799,0,0,0,0,0,0,0.009,-0.026,0.04,0,0,0,4.445,16.52,-10.71,-3.535,-0.12681,0.262074
23:33:25:163096,3.49066e-05,-0.581928,1.1875,-5.23599e-05,1.35181,0.000279253,0,0,0,0,0,0,-0.012,-0.003,0.039,0,0,0,4.34,16.751,-10.787,-3.213,-0.184579,0.190215
23:33:25:168148,3.49066e-05,-0.581928,1.1875,-5.23599e-05,1.35181,0.000279253,0,0,0,0,0,0,-0.018,0.003,-0.045,0,0,0,3.745,16.751,-10.129,-3.955,-0.139491,0.319843
23:33:25:173216,3.49066e-05,-0.581928,1.1875,-5.23599e-05,1.35181,0.000279253,0,0,0,0,0,0,-0.009,-0.003,-0.087,0,0,0,3.717,16.583,-9.933,-3.619,-0.228258,0.308571
23:33:25:178280,5.23599e-05,-0.581928,1.1875,-6.98132e-05,1.35181,0.000279253,0,0,0,0,0,0,0.007,-0.008,-0.085,0,0,0,4.095,15.897,-9.66,-3.71,-0.108493,0.333933
23:33:25:183412,5.23599e-05,-0.581928,1.1875,-6.98132e-05,1.35181,0.000296706,0,0,0,0,0,0,0.009,-0.006,-0.056,0,0,0,3.871,16.324,-9.94,-3.934,-0.050724,0.335342
23:33:25:188410,5.23599e-05,-0.581928,1.1875,-6.98132e-05,1.35181,0.000296706,0,0,0,0,0,0,0,-0.006,-0.027,0,0,0,4.018,17.311,-10.367,-3.878,-0.184579,0.228258
23:33:25:193521,5.23599e-05,-0.581928,1.1875,-6.98132e-05,1.35181,0.000296706,0,0,0,0,0,0,-0.008,-0.017,-0.023,0,0,0,4.221,16.674,-10.143,-3.423,-0.121174,0.276164
23:33:25:198519,5.23599e-05,-0.581928,1.1875,-6.98132e-05,1.35181,0.000314159,0,0,0,0,0,0,-0.014,-0.041,-0.011,0,0,0,4.228,17.031,-10.08,-2.597,-0.147945,0.235303
23:33:25:203658,5.23599e-05,-0.581928,1.1875,-6.98132e-05,1.35181,0.000314159,0,0,0,0,0,0,-0.014,-0.051,0.009,0,0,0,4.466,16.415,-10.43,-6.391,-0.107084,0.263483
23:33:25:208662,5.23599e-05,-0.581928,1.1875,-6.98132e-05,1.35181,0.000331613,0,0,0,0,0,0,-0.014,-0.051,0.049,0,0,0,4.62,17.969,-10.346,-3.304,-0.156399,0.242348
23:33:25:213775,5.23599e-05,-0.581928,1.1875,-6.98132e-05,1.35181,0.000331613,0,0,0,0,0,0,-0.022,-0.048,0.085,0,0,0,3.871,16.765,-10.521,-3.605,-0.242348,0.274755
23:33:25:218784,5.23599e-05,-0.581928,1.1875,-6.98132e-05,1.35181,0.000331613,0,0,0,0,0,0.00216421,-0.045,-0.048,0.14,0,0,0,4.004,15.876,-10.633,-4.221,-0.121174,0.26771
23:33:25:223789,5.23599e-05,-0.581928,1.1875,-6.98132e-05,1.35181,0.000331613,0,0,0,0,0,0,-0.052,-0.048,0.131,0,0,0,3.661,16.779,-9.989,-4.501,-0.004227,0.255029
23:33:25:228838,5.23599e-05,-0.581928,1.1875,-6.98132e-05,1.35181,0.000331613,0,0,0,0,0,0,-0.029,-0.041,-0.018,0,0,0,4.032,17.01,-10.206,-3.899,-0.102857,0.263483
23:33:25:233901,5.23599e-05,-0.581928,1.1875,-6.98132e-05,1.35181,0.000349066,0,0,0,0,0,0,0.006,-0.038,-0.162,0,0,0.001,3.948,16.842,-10.038,-3.885,-0.053542,0.176125
23:33:25:239023,5.23599e-05,-0.581928,1.1875,-6.98132e-05,1.35181,0.000349066,0,0,0,0,0,0,0.051,-0.045,-0.257,0,0,0.002,4.494,16.821,-10.094,-3.731,-0.143718,0.270528
23:33:25:244003,5.23599e-05,-0.581928,1.1875,-6.98132e-05,1.35181,0.000349066,0,0,0,0,0,0,0.056,-0.048,-0.194,0,0,0.002,3.899,16.408,-10.066,-3.374,-0.004227,0.263483
23:33:25:249217,5.23599e-05,-0.581928,1.1875,-6.98132e-05,1.35181,0.000349066,0,0,0,0,0,0,0.029,-0.032,-0.025,0,0,0,4.711,16.954,-10.458,-3.612,-0.094403,0.2818
23:33:25:254106,5.23599e-05,-0.581928,1.1875,-6.98132e-05,1.35179,0.000349066,0,0,0,0,0,0,0.009,-0.011,0.03,0,0,0,4.347,16.863,-10.71,-3.605,-0.080313,0.256438
23:33:25:259283,5.23599e-05,-0.581928,1.1875,-6.98132e-05,1.35179,0.000366519,0,0,0,0,0,0,0.016,0.009,-0.041,0,0,0,4.193,17.15,-10.052,-3.731,-0.269119,0.242348
23:33:25:264256,6.98132e-05,-0.581928,1.1875,-6.98132e-05,1.35179,0.000366519,0,0,0,0,0,0,0.062,0.016,-0.202,0,0,0.001,4.319,16.891,-9.786,-3.794,-0.139491,0.250802
23:33:25:269409,6.98132e-05,-0.581928,1.1875,-6.98132e-05,1.35179,0.000366519,0,0,0,0,0,0,0.084,0.025,-0.254,0,0,0.001,3.787,16.38,-10.395,-3.563,-0.115538,0.19726
23:33:25:274411,6.98132e-05,-0.581928,1.1875,-6.98132e-05,1.35179,0.000366519,0,0,0,0,0,0,0.066,0.039,-0.123,0,0,0.001,4.746,17.087,-10.192,-3.528,-0.228258,0.240939
23:33:25:279537,6.98132e-05,-0.581928,1.1875,-6.98132e-05,1.35179,0.000366519,0,0,0,0,0,0,0.032,0.033,0.072,0,0,0,3.549,17.094,-10.157,-3.724,-0.07045,0.264892
23:33:25:284523,6.98132e-05,-0.581928,1.1875,-6.98132e-05,1.35179,0.000366519,0,0,0,0,0,0,0.008,-0.005,0.29,0,0,-0.001,4.102,16.723,-10.129,-3.864,-0.202896,0.207123
23:33:25:289466,6.98132e-05,-0.581928,1.1875,-6.98132e-05,1.35179,0.000366519,0,0,0,0,0,0,0.021,-0.033,0.272,0,0.001,-0.001,4.634,17.29,-10.017,-3.514,-0.157808,0.150763
23:33:25:294673,6.98132e-05,-0.581928,1.1875,-6.98132e-05,1.35179,0.000383972,0,0,0,0,0,0,0.053,-0.042,0.096,-0.001,0.002,0,4.179,17.094,-10.08,-4.361,-0.067632,0.202896
23:33:25:299658,6.98132e-05,-0.581928,1.1875,-6.98132e-05,1.35179,0.000383972,0,0,0,0,0,0,0.063,-0.027,0.039,-0.001,0.003,0,4.438,16.611,-10.549,-3.738,-0.174716,0.250802
23:33:25:304797,6.98132e-05,-0.581928,1.1875,-6.98132e-05,1.35179,0.000383972,0,0,0,0,0,0,0.081,0.002,0.123,-0.002,0.006,0,4.004,16.863,-10.92,-3.584,-0.111311,0.150763
23:33:25:309764,6.98132e-05,-0.581928,1.1875,-6.98132e-05,1.35179,0.000383972,0,0,0,0,0,0,0.115,0.021,0.182,-0.003,0.008,0,4.718,17.717,-10.136,-4.186,-0.193033,0.240939
23:33:25:314907,6.98132e-05,-0.581928,1.1875,-6.98132e-05,1.35179,0.000383972,0,0,0,0,0,0,0.194,0.062,0.117,-0.005,0.012,0,4.424,17.178,-10.22,-3.731,-0.088767,0.216986
23:33:25:319839,6.98132e-05,-0.581928,1.1875,-6.98132e-05,1.35179,0.000383972,0,0,0,0,0,0,0.243,0.103,0.02,-0.006,0.014,0,4.494,16.919,-10.115,-4.228,-0.116947,0.136673
23:33:25:324905,6.98132e-05,-0.581928,1.1875,-6.98132e-05,1.35179,0.000383972,0,0,0,0,0,0,0.298,0.165,-0.015,-0.008,0.017,0,4.221,16.527,-10.528,-4.116,-0.147945,0.231076
23:33:25:329976,6.98132e-05,-0.581928,1.1875,-6.98132e-05,1.35179,0.000383972,0,0,0,0,0,0,0.332,0.188,0.067,-0.01,0.019,0,4.207,16.751,-10.395,-3.563,-0.160626,0.174716
23:33:25:334977,6.98132e-05,-0.581928,1.1875,-6.98132e-05,1.35179,0.000383972,0,0,0,0,0,0,0.397,0.199,0.229,-0.013,0.022,-0.001,4.214,17.465,-10.115,-3.304,-0.143718,0.278982
23:33:25:340140,6.98132e-05,-0.581928,1.1875,-6.98132e-05,1.35179,0.000383972,0,0,0,0,0,0,0.45,0.217,0.238,-0.016,0.024,-0.001,4.718,17.311,-10.003,-3.703,-0.066223,0.184579
23:33:25:345104,6.98132e-05,-0.581928,1.1875,-6.98132e-05,1.35179,0.000383972,0,0,0,0,0,0,0.457,0.244,0.124,-0.017,0.025,0,4.536,17.374,-10.066,-3.465,-0.238121,0.212759
23:33:25:350281,6.98132e-05,-0.581928,1.1875,-6.98132e-05,1.35179,0.000383972,0,0,0,0,0,0,0.433,0.285,-0.119,-0.018,0.026,0,4.536,17.64,-10.108,-3.906,-0.11272,0.174716
23:33:25:355281,6.98132e-05,-0.581928,1.1875,-6.98132e-05,1.35179,0.000401426,0,0,0,0,0,0,0.418,0.302,-0.24,-0.018,0.027,0.001,4.627,17.045,-9.849,-3.22,-0.18317,0.232485
23:33:25:360236,6.98132e-05,-0.581928,1.1875,-6.98132e-05,1.35179,0.000401426,0,0,0,0,0,0,0.43,0.323,-0.299,-0.019,0.027,0.001,4.298,17.605,-9.317,-4.186,-0.271937,0.266301
23:33:25:365387,6.98132e-05,-0.58191,1.1875,-6.98132e-05,1.35179,0.000401426,0,0,0,0,0,0,0.456,0.347,-0.29,-0.02,0.028,0.001,4.389,17.661,-9.191,-3.542,-0.319843,0.194442
23:33:25:370346,6.98132e-05,-0.58191,1.1875,-6.98132e-05,1.35179,0.000401426,0,0,0,0,0,0,0.486,0.39,-0.295,-0.024,0.029,0.001,3.99,17.605,-8.799,-3.892,-0.173307,0.119765
23:33:25:375509,6.98132e-05,-0.58191,1.18752,-6.98132e-05,1.35177,0.000401426,0,0,0,0,0,0,0.489,0.413,-0.32,-0.028,0.03,0.001,4.851,17.465,-8.876,-3.339,-0.200078,0.178943
23:33:25:380513,8.72665e-05,-0.58191,1.18752,-6.98132e-05,1.35177,0.000418879,0,0,0,0,0,0,0.475,0.442,-0.355,-0.034,0.032,0,3.983,18.459,-8.617,-3.64,-0.398747,0.208532
23:33:25:385636,8.72665e-05,-0.58191,1.18752,-6.98132e-05,1.35177,0.000436332,0,0,0,0,0,0,0.461,0.471,-0.356,-0.038,0.033,0,4.949,17.941,-9.296,-3.808,-0.212759,0.195851
23:33:25:390651,8.72665e-05,-0.58191,1.18752,-6.98132e-05,1.35176,0.000436332,0,0,0,0,0,0,0.434,0.539,-0.326,-0.044,0.033,0,4.725,18.711,-8.589,-3.92,-0.194442,0.202896
23:33:25:395778,8.72665e-05,-0.58191,1.18754,-6.98132e-05,1.35176,0.000453786,0,0,0,0,0,0,0.412,0.593,-0.315,-0.048,0.032,-0.001,3.983,17.829,-8.085,-4.179,-0.314207,0.226849
23:33:25:400780,8.72665e-05,-0.58191,1.18756,-6.98132e-05,1.35174,0.000471239,0,0,0.00178024,0,-0.00256563,0.00289725,0.372,0.676,-0.381,-0.052,0.029,-0.001,4.809,18.592,-8.54,-3.598,-0.205714,0.178943
23:33:25:405904,0.00010472,-0.58191,1.18757,-6.98132e-05,1.35174,0.000488692,0,0,0.00312414,0,0,0.0023911,0.342,0.735,-0.489,-0.054,0.026,0,5.019,19.194,-8.092,-3.451,-0.325479,0.107084
23:33:25:410902,0.00010472,-0.58191,1.18757,-6.98132e-05,1.35174,0.000506145,0,0,0.00287979,0,0,0.00349066,0.292,0.822,-0.661,-0.057,0.021,0,5.117,18.746,-7.889,-3.787,-0.200078,0.233894
23:33:25:416017,0.00010472,-0.58191,1.18759,-6.98132e-05,1.35172,0.000523599,0,0,0.00279253,0,0,0.00434587,0.259,0.867,-0.726,-0.059,0.018,0,4.718,19.446,-7.686,-4.186,-0.109902,0.208532
23:33:25:421027,0.000122173,-0.58191,1.18759,-6.98132e-05,1.35171,0.000541052,0.00191986,0,0,0,0,0.00479966,0.22,0.918,-0.764,-0.064,0.013,0.001,5.222,19.222,-6.972,-3.675,-0.15499,0.181761
23:33:25:426159,0.000139626,-0.58191,1.18759,-6.98132e-05,1.35171,0.000558505,0.00233874,0,0,0,-0.0021293,0.00467748,0.193,0.981,-0.838,-0.07,0.007,0.001,4.606,18.942,-7.588,-3.85,-0.302935,0.133855
23:33:25:431140,0.00015708,-0.58191,1.18759,-6.98132e-05,1.35169,0.000593412,0.00244346,0,0,0,-0.00359538,0.0053058,0.165,1.045,-0.915,-0.074,0.002,0.002,4.417,19.936,-7.273,-3.927,-0.249393,0.201487
23:33:25:436270,0.000174533,-0.58191,1.18761,-6.98132e-05,1.35167,0.000628319,0.00326377,0,0,0,-0.00261799,0.00588176,0.089,1.156,-0.976,-0.08,-0.003,0.002,4.123,19.166,-6.769,-4.396,-0.271937,0.214168
23:33:25:441273,0.000191986,-0.58191,1.18761,-6.98132e-05,1.35167,0.000663225,0.00375246,0,0,0,0,0.00657989,0.028,1.216,-0.944,-0.083,-0.006,0.001,4.361,19.418,-7.343,-3.381,-0.373385,0.163444
23:33:25:446277,0.00020944,-0.58191,1.18761,-6.98132e-05,1.35165,0.000680678,0.00383972,0,0,0,0,0.00539307,-0.034,1.268,-0.825,-0.087,-0.01,0,4.557,19.733,-6.986,-3.787,-0.185988,0.067632
23:33:25:451417,0.000226893,-0.58191,1.18761,-6.98132e-05,1.35165,0.000715585,0.00383972,0,0,0,0,0.00572468,-0.044,1.289,-0.749,-0.09,-0.011,0,4.872,19.565,-6.251,-3.738,-0.302935,0.104266
23:33:25:456408,0.000244346,-0.58191,1.18763,-6.98132e-05,1.35165,0.000767945,0.00413643,0,0,0,0,0.00856957,-0.031,1.34,-0.708,-0.095,-0.013,0,5.061,19.362,-6.482,-4.249,-0.280391,0.163444
23:33:25:461506,0.000261799,-0.58191,1.18763,-6.98132e-05,1.35164,0.000802851,0.00308923,0,0,0,-0.00249582,0.00877901,-0.025,1.401,-0.746,-0.099,-0.013,0.001,5.628,19.39,-6.699,-4.235,-0.240939,0.142309
23:33:25:466473,0.000296706,-0.58191,1.18763,-6.98132e-05,1.35164,0.000837758,0.00429351,0,0,0,0,0.00729548,-0.05,1.523,-0.848,-0.109,-0.016,0.002,5.313,19.362,-7.007,-3.955,-0.294481,0.019726
23:33:25:471648,0.000314159,-0.58191,1.18764,-6.98132e-05,1.35164,0.000872665,0.00408407,0,0,0,0,0.00778417,-0.1,1.616,-0.87,-0.117,-0.02,0.002,5.152,20.048,-6.748,-3.696,-0.1409,-0.039452
23:33:25:476648,0.000331613,-0.58191,1.18764,-6.98132e-05,1.35162,0.000925025,0.00472984,0,0,0,0,0.00811578,-0.227,1.769,-0.736,-0.132,-0.029,0.002,5.817,20.475,-6.167,-3.493,-0.311389,0.040861
23:33:25:481723,0.000349066,-0.58191,1.18764,-6.98132e-05,1.35162,0.000959931,0.00420624,0,0,0,0,0.00811578,-0.334,1.881,-0.555,-0.142,-0.037,0.001,5.404,19.418,-6.657,-3.836,-0.266301,0.007045
23:33:25:486763,0.000383972,-0.58191,1.18764,-6.98132e-05,1.35162,0.00101229,0.0045204,0,0,0,0,0.00966912,-0.494,2.052,-0.253,-0.159,-0.049,0,5.789,19.817,-6.524,-3.346,-0.342387,0.016908
23:33:25:491883,0.000418879,-0.58191,1.18764,-6.98132e-05,1.35162,0.0010821,0.00464258,0,0,0,0,0.0112574,-0.582,2.156,-0.075,-0.169,-0.056,0,5.929,19.082,-7.028,-3.815,-0.346614,-0.043679
23:33:25:496896,0.000436332,-0.58191,1.18764,-6.98132e-05,1.35162,0.00113446,0.00563741,0,0,0,0,0.0115017,-0.655,2.283,0.154,-0.181,-0.061,0,6.398,20.076,-6.909,-3.745,-0.273346,-0.076086
23:33:25:501897,0.000471239,-0.58191,1.18764,-6.98132e-05,1.35162,0.00118682,0.00579449,0,0,0,0,0.0106465,-0.651,2.347,0.302,-0.187,-0.061,0,6.097,19.481,-7.168,-3.794,-0.185988,0.008454
23:33:25:507007,0.000506145,-0.58191,1.18764,-6.98132e-05,1.35162,0.00125664,0.00595157,0,0,0,0,0.0115715,-0.575,2.404,0.57,-0.192,-0.055,0,7.245,19.39,-7.735,-3.759,-0.173307,0.033816
23:33:25:512010,0.000541052,-0.58191,1.18764,-6.98132e-05,1.35162,0.00132645,0.00605629,0,0,0,0,0.0117112,-0.503,2.413,0.803,-0.193,-0.049,0,6.251,19.222,-8.225,-4.004,-0.2818,0.035225
23:33:25:517131,0.000575959,-0.58191,1.18764,-6.98132e-05,1.35162,0.00137881,0.00614356,0,0,0,0,0.0120253,-0.405,2.382,1.161,-0.192,-0.041,0,7.042,18.34,-7.952,-3.717,-0.240939,-0.07045
23:33:25:522131,0.000610865,-0.58191,1.18764,-6.98132e-05,1.35162,0.00144862,0.00680678,0,0,0,0,0.0122173,-0.33,2.312,1.334,-0.19,-0.037,0,7.021,18.711,-8.421,-4.571,-0.162035,0.038043
23:33:25:527256,0.000645772,-0.58191,1.18764,-6.98132e-05,1.35162,0.00153589,0.00832522,0,0,0,0,0.0145735,-0.286,2.247,1.302,-0.186,-0.036,0.002,7.252,18.907,-8.659,-3.752,-0.091585,-0.021135
23:33:25:532279,0.000698132,-0.58191,1.18764,-6.98132e-05,1.35162,0.00158825,0.00888373,0,0,0,0,0.0132994,-0.221,2.121,1.197,-0.178,-0.034,0.004,7.833,17.801,-8.554,-3.416,-0.257847,-0.131037
23:33:25:537384,0.000750492,-0.58191,1.18764,-6.98132e-05,1.35164,0.00165806,0.00970403,0,0,0,0,0.0142593,-0.164,2.029,1.204,-0.172,-0.031,0.005,8.099,18.2,-9.296,-3.773,-0.167671,0.109902
23:33:25:542328,0.000802851,-0.58191,1.18764,-6.98132e-05,1.35164,0.00172788,0.00975639,0,0,0,0,0.0125315,-0.004,1.912,1.324,-0.164,-0.018,0.005,8.365,17.773,-9.548,-4.025,-0.142309,-0.001409
23:33:25:547535,0.000855211,-0.58191,1.18764,-6.98132e-05,1.35164,0.00179769,0.0107338,0,0,0,0,0.0139626,0.183,1.858,1.372,-0.16,-0.004,0.006,8.659,17.57,-9.912,-3.619,-0.216986,-0.040861
23:33:25:552522,0.000925025,-0.58191,1.18764,-6.98132e-05,1.35165,0.0018675,0.0128805,0,0,0,0,0.0144862,0.565,1.791,1.307,-0.155,0.023,0.009,7.588,18.543,-10.003,-4.102,-0.060587,-0.077495
23:33:25:557634,0.00101229,-0.58191,1.18764,-6.98132e-05,1.35165,0.00195477,0.0138928,0,0,0,0,0.0144513,0.832,1.741,1.233,-0.151,0.042,0.01,8.043,17.171,-9.709,-4.102,-0.123992,0.119765
23:33:25:562588,0.0010821,-0.58191,1.18764,-6.98132e-05,1.35165,0.00200713,0.0150622,0,0,0,0,0.0130551,1.169,1.654,1.175,-0.143,0.068,0.012,8.106,17.514,-10.5,-4.053,-0.185988,0.133855
23:33:25:567758,0.00116937,-0.58191,1.18764,-6.98132e-05,1.35167,0.00205949,0.015708,0,0,0,0.00216421,0.0117286,1.346,1.595,1.137,-0.135,0.081,0.013,7.609,16.891,-10.115,-4.172,-0.123992,0.216986
23:33:25:572756,0.00125664,-0.58191,1.18764,-6.98132e-05,1.35167,0.0021293,0.0169297,0,0,0,0,0.0124267,1.574,1.487,0.982,-0.122,0.097,0.015,7.273,17.262,-10.381,-4.13,-0.123992,0.083131
23:33:25:577881,0.00136136,-0.58191,1.18764,-6.98132e-05,1.35167,0.00218166,0.018326,0,0,0,0,0.0116937,1.714,1.386,0.836,-0.112,0.107,0.016,7.112,17.227,-10.423,-3.92,-0.209941,0.278982
23:33:25:582894,0.00146608,-0.58191,1.18764,-6.98132e-05,1.35169,0.00223402,0.0197222,0,0,0,0,0.0127409,1.909,1.209,0.671,-0.099,0.12,0.017,7.518,17.654,-9.338,-4.291,-0.109902,0.108493
23:33:25:588043,0.0015708,-0.58191,1.18764,-6.98132e-05,1.35169,0.00230383,0.0215897,0,0,0,0,0.0126885,2.036,1.117,0.606,-0.094,0.129,0.018,6.776,17.717,-9.205,-4.081,-0.194442,0.340978
23:33:25:593017,0.00169297,-0.58191,1.18764,-6.98132e-05,1.35169,0.00237365,0.0221308,0,0,0,0,0.0134216,2.242,1.067,0.468,-0.087,0.143,0.018,6.874,18.025,-9.058,-3.682,-0.071859,0.273346
23:33:25:597955,0.00178024,-0.58191,1.18764,-8.72665e-05,1.35169,0.00242601,0.0204902,0,0,0,0,0.0118159,2.393,1.065,0.322,-0.081,0.153,0.018,5.663,18.907,-8.099,-3.843,-0.138082,0.419882
23:33:25:603167,0.0018675,-0.58191,1.18764,-8.72665e-05,1.35169,0.00247837,0.0181863,0,0,0,0,0.0111352,2.628,1.008,0.125,-0.07,0.168,0.02,6.566,18.599,-7.917,-4.319,-0.1409,0.411428
23:33:25:608131,0.00195477,-0.58191,1.18764,-8.72665e-05,1.35167,0.00254818,0.0173835,0,0,0,0,0.0117984,2.784,0.904,0.088,-0.062,0.179,0.02,6.335,19.593,-7.056,-3.43,-0.185988,0.490332
23:33:25:613256,0.00204204,-0.58191,1.18766,-8.72665e-05,1.35167,0.00260054,0.0175755,0,0,0,0,0.0126711,3.021,0.685,0.185,-0.05,0.198,0.02,6.349,20.384,-6.629,-3.899,-0.30998,0.47906
23:33:25:618220,0.0021293,-0.58191,1.18768,-8.72665e-05,1.35167,0.0026529,0.0172788,0,0.00263545,0,0,0.0114319,3.276,0.463,0.299,-0.037,0.221,0.018,6.895,20.699,-5.523,-4.102,-0.271937,0.445244
23:33:25:623378,0.00221657,-0.58191,1.18771,-8.72665e-05,1.35165,0.00272271,0.0178198,0,0.00581195,0,-0.00279253,0.01213,3.464,0.329,0.288,-0.026,0.237,0.017,6.153,21.154,-5.418,-4.207,-0.445244,0.484696
23:33:25:628378,0.00230383,-0.581893,1.18777,-8.72665e-05,1.35164,0.00277507,0.0179943,0,0.00815069,0,-0.00275762,0.0110654,3.766,0.15,0.12,-0.008,0.26,0.016,6.279,22.211,-4.613,-4.004,-0.477651,0.497377
23:33:25:633518,0.00240855,-0.581893,1.18782,-8.72665e-05,1.3516,0.00282743,0.0176627,0,0.00968658,0,-0.00523599,0.0100706,3.96,0.057,-0.023,0,0.275,0.016,5.81,21.679,-3.878,-3.374,-0.38043,0.476242
23:33:25:638445,0.00247837,-0.581875,1.18789,-8.72665e-05,1.35157,0.00287979,0.0163363,0.00197222,0.0117286,0,-0.00602139,0.0102974,4.182,-0.026,-0.118,0.006,0.294,0.017,5.824,22.393,-2.674,-3.962,-0.278982,0.494559
23:33:25:643496,0.00254818,-0.581858,1.18796,-8.72665e-05,1.3515,0.00294961,0.0134739,0.00329867,0.0147131,0,-0.0095295,0.0119206,4.274,-0.062,-0.045,0.008,0.305,0.016,6.083,23.996,-2.562,-3.654,-0.569236,0.49315
23:33:25:648624,0.00258309,-0.58184,1.18806,-8.72665e-05,1.35144,0.00300197,0.0105767,0.00368264,0.0172788,0,-0.0126013,0.0114843,4.381,-0.14,0.197,0.012,0.318,0.014,6.244,25.501,-1.932,-4.305,-0.514285,0.491741
23:33:25:653572,0.00263545,-0.581805,1.18817,-8.72665e-05,1.35139,0.00303687,0.00940732,0.00525344,0.0206822,0,-0.0116064,0.0098262,4.476,-0.226,0.339,0.019,0.326,0.011,6.678,25.095,-0.539,-4.256,-0.487514,0.503013
23:33:25:658750,0.00267035,-0.581753,1.18831,-8.72665e-05,1.35132,0.00307178,0.00869174,0.00776672,0.0259007,0,-0.0118682,0.00862193,4.659,-0.374,0.395,0.031,0.338,0.008,6.468,26.243,0.028,-3.815,-0.443835,0.539647
23:33:25:663872,0.00272271,-0.581701,1.18846,-8.72665e-05,1.35123,0.00312414,0.00972148,0.0102451,0.0293041,0,-0.0160919,0.00841249,4.773,-0.443,0.343,0.037,0.347,0.006,6.461,26.684,-0.854,-4.088,-0.524148,0.467788
23:33:25:668891,0.00277507,-0.581631,1.18866,-8.72665e-05,1.35111,0.00315905,0.00932006,0.0120253,0.0333881,0,-0.0217119,0.00829031,4.903,-0.461,0.229,0.039,0.361,0.003,5.81,27.16,0.399,-3.948,-0.484696,0.555146
23:33:25:674013,0.00282743,-0.581561,1.18887,-8.72665e-05,1.35094,0.00321141,0.0100356,0.0142942,0.038659,0,-0.0262498,0.00792379,4.974,-0.425,0.164,0.037,0.371,0.001,6.461,28.714,1.022,-4.004,-0.288845,0.490332
23:33:25:679014,0.00287979,-0.581474,1.18911,-8.72665e-05,1.35078,0.00324631,0.0102102,0.0158476,0.0455705,0,-0.031957,0.00794125,5.067,-0.358,0.114,0.035,0.382,-0.001,5.712,28.469,0.308,-3.465,-0.497377,0.559373
23:33:25:684019,0.0029147,-0.581369,1.18944,-8.72665e-05,1.35059,0.00328122,0.00959931,0.0187623,0.0565836,0,-0.0349066,0.00642281,5.097,-0.333,0.147,0.035,0.385,-0.004,5.544,29.281,0.049,-3.864,-0.317025,0.49315
23:33:25:689125,0.00296706,-0.581247,1.18981,-8.72665e-05,1.3504,0.00331613,0.0102276,0.0226369,0.06819,0,-0.0380656,0.00654498,5.063,-0.327,0.341,0.036,0.384,-0.008,4.753,29.974,-1.68,-4.34,-0.193033,0.457925
23:33:25:694139,0.00301942,-0.58109,1.19021,-8.72665e-05,1.35022,0.00333358,0.00977384,0.0255516,0.0741067,0,-0.0366694,0.00518363,4.971,-0.332,0.637,0.034,0.38,-0.014,4.375,30.142,-2.247,-3.85,-0.208532,0.376203
23:33:25:699262,0.00305433,-0.58095,1.19058,-8.72665e-05,1.35006,0.00336849,0.00860447,0.0282918,0.0743161,0,-0.0318174,0.00546288,4.919,-0.329,0.773,0.033,0.377,-0.018,5.04,30.289,-2.394,-4.172,-0.170489,0.455107
23:33:25:704248,0.00310669,-0.580776,1.19094,-8.72665e-05,1.34994,0.00338594,0.00760964,0.0311716,0.0745605,0,-0.0256214,0.00560251,4.876,-0.302,0.708,0.032,0.375,-0.022,4.725,30.961,-1.652,-3.598,-0.224031,0.418473
23:33:25:709374,0.00314159,-0.580601,1.19136,-8.72665e-05,1.34982,0.00342085,0.00748746,0.034575,0.0797441,0,-0.0265988,0.00432842,4.847,-0.255,0.481,0.032,0.371,-0.022,4.375,30.17,-1.225,-4.018,-0.273346,0.367749
23:33:25:714391,0.0031765,-0.580409,1.19182,-8.72665e-05,1.34965,0.0034383,0.00656244,0.0375769,0.0860971,0,-0.0312938,0.00375246,4.756,-0.132,0.087,0.028,0.363,-0.021,3.507,31.01,-1.946,-4.375,-0.353659,0.360704
23:33:25:719386,0.00321141,-0.5802,1.19229,-8.72665e-05,1.34947,0.0034383,0.00630064,0.0410676,0.0884882,0,-0.0325329,0.0023911,4.657,-0.034,-0.033,0.023,0.356,-0.021,3.577,31.605,-2.443,-3.367,-0.379021,0.402974
23:33:25:724512,0.00322886,-0.579955,1.19267,-8.72665e-05,1.3493,0.00345575,0.00551524,0.0446455,0.0810356,0,-0.0327249,0,4.47,0.074,0.121,0.013,0.345,-0.024,4.179,30.765,-0.49,-3.486,-0.301526,0.405792
23:33:25:729514,0.00324631,-0.579694,1.19305,-8.72665e-05,1.34916,0.00347321,0.00368264,0.0476649,0.0778068,0,-0.029339,0,4.331,0.103,0.363,0.009,0.336,-0.027,3.962,31.178,-0.371,-4.137,-0.428336,0.417064
23:33:25:734639,0.00324631,-0.579467,1.19346,-8.72665e-05,1.34903,0.00347321,0.0029147,0.0469494,0.0802851,0,-0.0282569,0,4.086,0.108,0.691,0.007,0.317,-0.03,4.032,31.15,0.07,-4.221,-0.418473,0.410019
23:33:25:739625,0.00326377,-0.579222,1.19393,-8.72665e-05,1.34888,0.00349066,0.00267035,0.0476999,0.0888198,0,-0.0295833,0,3.868,0.11,0.819,0.008,0.299,-0.031,3.843,31.094,-0.539,-3.787,-0.49315,0.348023
23:33:25:744624,0.00328122,-0.578978,1.19442,-8.72665e-05,1.3487,0.00349066,0.00352557,0.0481362,0.0932704,0,-0.0320442,0,3.396,0.13,0.924,0.01,0.264,-0.03,3.094,31.423,-1.064,-4.004,-0.548101,0.335342
23:33:25:749745,0.00329867,-0.578734,1.19489,-8.72665e-05,1.34855,0.00349066,0.00277507,0.0488518,0.0926421,0,-0.0331438,0,2.992,0.157,0.99,0.009,0.235,-0.03,3.57,31.598,-1.218,-4.067,-0.505831,0.390293
23:33:25:754886,0.00331613,-0.578454,1.19536,-8.72665e-05,1.34839,0.00350811,0.00232129,0.0522901,0.0952775,0,-0.0322537,0,2.392,0.217,1.107,0.005,0.188,-0.029,4.109,30.569,-1.645,-4.627,-0.457925,0.350841
23:33:25:759888,0.00331613,-0.578175,1.19588,-8.72665e-05,1.34825,0.00350811,0,0.0535467,0.0977908,0,-0.0293913,0,2.096,0.266,1.189,0.002,0.161,-0.029,3.913,31.15,-2.212,-4.291,-0.480469,0.333933
23:33:25:764837,0.00331613,-0.577896,1.19635,-8.72665e-05,1.34807,0.00352557,0,0.054943,0.0956266,0,-0.0306829,0,1.818,0.336,1.332,0,0.131,-0.027,4.704,30.569,-2.177,-3.822,-0.511467,0.335342
23:33:25:770012,0.00333358,-0.577634,1.19677,-8.72665e-05,1.3479,0.00352557,0,0.0520632,0.0862193,0,-0.0341735,0,1.642,0.37,1.465,-0.001,0.116,-0.027,4.508,31.045,-1.26,-4.053,-0.424109,0.335342
23:33:25:775012,0.00333358,-0.577407,1.19716,-8.72665e-05,1.34767,0.00352557,0,0.0478046,0.0802328,0,-0.0403869,0,1.261,0.387,1.734,-0.004,0.091,-0.027,3.822,30.849,-1.288,-3.955,-0.484696,0.297299
23:33:25:780119,0.00333358,-0.577198,1.19756,-8.72665e-05,1.34743,0.00352557,0,0.0443139,0.080512,0,-0.0447851,0,0.851,0.347,2.006,-0.002,0.062,-0.027,3.899,31.381,-1.659,-3.864,-0.469197,0.307162
23:33:25:785065,0.00335103,-0.576988,1.19796,-8.72665e-05,1.34718,0.00352557,0.00193732,0.0429875,0.0791681,0,-0.0482234,0,0.671,0.291,2.129,0.001,0.045,-0.026,3.892,31.283,-2.394,-3.815,-0.263483,0.283209
23:33:25:790088,0.00335103,-0.576762,1.19833,-8.72665e-05,1.34696,0.00354302,0,0.0431794,0.0757298,0,-0.0436332,0,0.565,0.232,2.186,0.007,0.032,-0.025,3.381,30.583,-2.674,-3.374,-0.032407,0.362113
23:33:25:795259,0.00336849,-0.576535,1.19869,-8.72665e-05,1.34684,0.00354302,0.00237365,0.0447851,0.0712269,0,-0.033074,0,0.392,0.195,2.177,0.014,0.015,-0.021,2.569,30.891,-2.044,-3.969,-0.067632,0.311389
23:33:25:800197,0.00336849,-0.57629,1.19901,-8.72665e-05,1.34673,0.00354302,0,0.047089,0.0673174,0,-0.0239459,0,0.054,0.265,2.096,0.013,-0.009,-0.016,3.703,29.239,-1.666,-3.878,-0.143718,0.329706
23:33:25:805319,0.00336849,-0.576046,1.19937,-8.72665e-05,1.34666,0.00356047,0,0.0478046,0.0695514,0,-0.0193033,0.00209439,-0.237,0.37,2.006,0.008,-0.03,-0.012,3.178,29.4,-2.919,-3.528,-0.243757,0.269119
23:33:25:810494,0.00336849,-0.575819,1.1997,-8.72665e-05,1.34656,0.00356047,0,0.0464258,0.0681551,0,-0.0192684,0,-0.663,0.595,1.845,-0.002,-0.066,-0.007,3.584,28.049,-3.647,-3.668,-0.228258,0.221213
23:33:25:815460,0.00336849,-0.57561,1.2,-8.72665e-05,1.34647,0.00357793,0,0.0434761,0.0610342,0,-0.0186052,0.0021293,-0.899,0.778,1.79,-0.012,-0.089,-0.003,3.689,28.14,-3.521,-4.06,-0.229667,0.304344
23:33:25:820485,0.00336849,-0.575435,1.20021,-8.72665e-05,1.34638,0.00357793,0,0.0379435,0.0494626,0,-0.0162839,0,-1.114,1.064,1.9,-0.028,-0.113,0,3.689,28.49,-2.828,-4.207,-0.294481,0.331115
23:33:25:825579,0.00336849,-0.575295,1.20039,-8.72665e-05,1.34633,0.00357793,0,0.0313112,0.0401426,0,-0.0132296,0,-1.115,1.221,2.08,-0.038,-0.119,0.003,3.787,28.427,-1.043,-3.745,-0.379021,0.266301
23:33:25:830585,0.00336849,-0.575191,1.20054,-8.72665e-05,1.34629,0.00357793,0,0.0254818,0.0348368,0,-0.0120079,0,-0.901,1.344,2.279,-0.045,-0.107,0.008,3.605,29.904,-1.526,-3.99,-0.377612,0.287436
23:33:25:835686,0.00336849,-0.575086,1.2007,-8.72665e-05,1.34624,0.00357793,0,0.0209789,0.0309098,0,-0.0112574,0,-0.696,1.343,2.215,-0.043,-0.09,0.013,3.689,28.686,-1.309,-3.976,-0.345205,0.280391
23:33:25:840883,0.00336849,-0.575016,1.20084,-8.72665e-05,1.34619,0.00357793,0,0.0175231,0.0284489,0,-0.00890118,0,-0.456,1.246,1.797,-0.03,-0.067,0.023,4.095,29.176,-1.33,-3.745,-0.36634,0.290254
23:33:25:845859,0.00336849,-0.574946,1.20096,-8.72665e-05,1.34615,0.00357793,0,0.0150098,0.0264417,0,-0.00841249,0,-0.349,1.135,1.439,-0.018,-0.058,0.028,4.305,29.533,-2.849,-3.626,-0.386066,0.294481
23:33:25:850812,0.00336849,-0.574877,1.20108,-8.72665e-05,1.34612,0.00357793,0,0.0129503,0.0261799,0,-0.0074002,0,-0.145,0.93,1.041,0.002,-0.052,0.033,5.04,29.435,-3.437,-3.689,-0.435381,0.256438
23:33:25:855996,0.00336849,-0.574824,1.20122,-8.72665e-05,1.3461,0.00359538,0,0.011205,0.0267734,0,-0.00528835,0,0.077,0.791,0.896,0.014,-0.047,0.035,5.131,29.036,-4.298,-3.843,-0.426927,0.342387
23:33:25:860934,0.00336849,-0.574772,1.20136,-8.72665e-05,1.34607,0.00359538,0,0.0114494,0.0278031,0,-0.00561996,0,0.512,0.614,0.727,0.026,-0.028,0.039,3.899,29.26,-4.872,-3.689,-0.443835,0.264892
23:33:25:866117,0.00336849,-0.574719,1.2015,-8.72665e-05,1.34605,0.00361283,0,0.0108036,0.026721,0,-0.00514872,0,0.97,0.458,0.562,0.034,0,0.043,5.026,28.77,-4.508,-3.92,-0.405792,0.312798
23:33:25:871061,0.00336849,-0.574667,1.20161,-8.72665e-05,1.34603,0.00363028,0,0.0104022,0.0228464,0,-0.00329867,0,1.281,0.326,0.529,0.041,0.022,0.045,5.012,29.078,-5.369,-3.948,-0.342387,0.187397
23:33:25:876242,0.00336849,-0.574632,1.20168,-8.72665e-05,1.34602,0.00363028,0,0.00911062,0.0165457,0,-0.00363028,0,1.832,0.075,0.626,0.054,0.057,0.046,4.62,29.015,-4.76,-3.843,-0.484696,0.30998
23:33:25:881185,0.00336849,-0.574597,1.20173,-8.72665e-05,1.346,0.00364774,0,0.00781908,0.011781,0,-0.00410152,0,2.287,-0.09,0.68,0.062,0.084,0.047,4.41,29.225,-4.186,-3.689,-0.472015,0.280391
23:33:25:886239,0.00336849,-0.57458,1.20175,-8.72665e-05,1.34596,0.00364774,0,0.00623083,0.00776672,0,-0.00445059,0,3.068,-0.258,0.55,0.071,0.133,0.051,5.523,28.658,-3.409,-3.878,-0.480469,0.221213
23:33:25:891382,0.00336849,-0.574545,1.20178,-8.72665e-05,1.34596,0.00364774,0,0.00617847,0.00624828,0,-0.00294961,0,3.592,-0.309,0.337,0.075,0.167,0.053,3.801,29.414,-2.436,-3.976,-0.548101,0.356477
23:33:25:896391,0.00336849,-0.574527,1.2018,-8.72665e-05,1.34595,0.00364774,0,0.00471239,0.00602139,0,-0.00326377,0,4.279,-0.345,-0.019,0.08,0.212,0.057,4.508,29.848,-2.058,-4.06,-0.52133,0.315616
23:33:25:901451,0.00336849,-0.574493,1.20183,-8.72665e-05,1.34591,0.00364774,0,0.00497419,0.00671952,0,-0.00516617,0,4.647,-0.376,-0.236,0.085,0.236,0.058,4.403,30.492,-1.638,-3.5,-0.60587,0.287436
23:33:25:906488,0.00336849,-0.574475,1.20189,-8.72665e-05,1.34588,0.00364774,0,0.00441568,0.00836013,0,-0.00572468,0,5.083,-0.455,-0.517,0.091,0.261,0.059,3.598,30.786,-1.428,-3.892,-0.514285,0.194442
23:33:25:911655,0.00336849,-0.57444,1.20196,-8.72665e-05,1.34584,0.00364774,0,0.00586431,0.0127409,0,-0.00703368,0,5.32,-0.522,-0.63,0.094,0.271,0.06,3.78,30.933,-0.707,-3.843,-0.376203,0.180352
23:33:25:916558,0.00336849,-0.574405,1.20206,-0.00010472,1.34579,0.00364774,0,0.00708604,0.0179943,0,-0.00891863,0,5.628,-0.62,-0.571,0.096,0.284,0.06,3.892,31.507,-0.798,-3.612,-0.49315,0.114129
23:33:25:921739,0.00336849,-0.574353,1.2022,-0.00010472,1.34572,0.00364774,0,0.0101404,0.0237888,0,-0.0108734,0,5.818,-0.671,-0.399,0.095,0.293,0.059,2.863,31.563,-0.84,-4.207,-0.57769,0.105675
23:33:25:926756,0.00336849,-0.574283,1.20236,-0.00010472,1.34567,0.00364774,0,0.0119904,0.0301767,0,-0.0114145,0,6.089,-0.717,-0.137,0.092,0.309,0.06,3.381,31.724,-0.882,-3.528,-0.469197,0.174716
23:33:25:931753,0.00336849,-0.574196,1.20258,-0.00010472,1.34558,0.00364774,0,0.0146084,0.0376817,0,-0.0135612,0,6.255,-0.736,-0.058,0.091,0.321,0.061,2.044,32.487,-1.855,-3.871,-0.546692,0.111311
23:33:25:936863,0.00336849,-0.574109,1.20283,-0.00010472,1.34551,0.00363028,0,0.0168773,0.0451866,0,-0.0142942,0,6.462,-0.754,-0.058,0.09,0.334,0.063,2.765,32.585,-2.884,-3.92,-0.462152,0.064814
23:33:25:941877,0.00336849,-0.574004,1.20311,-0.00010472,1.3454,0.00363028,0,0.0193906,0.0520457,0,-0.0167028,0,6.557,-0.75,-0.066,0.089,0.339,0.064,2.163,33.523,-3.262,-3.878,-0.446653,-0.015499
23:33:25:947004,0.00336849,-0.573882,1.20342,-0.00010472,1.34528,0.00359538,0,0.0211534,0.0578577,0,-0.0202807,-0.00267035,6.603,-0.685,-0.067,0.085,0.34,0.064,1.645,33.362,-3.801,-3.577,-0.469197,0.018317
23:33:25:952002,0.00336849,-0.573777,1.20372,-0.00010472,1.34518,0.00357793,0,0.0217817,0.0580671,0,-0.0240506,-0.00322886,6.551,-0.599,-0.099,0.08,0.336,0.064,2.156,33.292,-3.444,-3.829,-0.500195,0.046497
23:33:25:957130,0.00336849,-0.573655,1.204,-0.00010472,1.34506,0.00354302,0,0.0219562,0.0557284,0,-0.0221657,-0.00488692,6.335,-0.445,-0.178,0.069,0.322,0.064,1.015,33.327,-2.982,-3.542,-0.555146,0.022544
23:33:25:962127,0.00336849,-0.573533,1.20422,-0.00010472,1.34493,0.00352557,0,0.023719,0.0505447,0,-0.0239459,-0.00563741,6.028,-0.308,-0.115,0.056,0.3,0.063,0.714,35.112,-1.008,-4.067,-0.556555,0.122583
23:33:25:967251,0.00336849,-0.573393,1.20445,-0.00010472,1.34481,0.00349066,0,0.0257785,0.0477697,0,-0.0247313,-0.00586431,5.841,-0.216,0.068,0.045,0.285,0.062,-0.406,35.273,0.014,-4.011,-0.455107,-0.039452
23:33:25:972253,0.00336849,-0.573253,1.20473,-0.00010472,1.34465,0.0034383,0,0.0292343,0.0513999,0,-0.025988,-0.00760964,5.645,-0.026,0.465,0.028,0.267,0.06,0.917,34.79,0.245,-4.137,-0.53542,0.002818
23:33:25:977362,0.00336849,-0.573079,1.20506,-0.00010472,1.3445,0.00342085,0,0.031381,0.0617672,0,-0.0312763,-0.00652753,5.544,0.139,0.712,0.017,0.258,0.059,0.511,34.496,-0.798,-3.85,-0.386066,-0.131037
23:33:25:982359,0.00336849,-0.572869,1.20545,-0.00010472,1.34427,0.00336849,0,0.0375944,0.0688707,0,-0.0392175,-0.00726057,5.343,0.388,0.956,0.001,0.243,0.057,0,34.216,-1.778,-3.437,-0.277573,0.018317
23:33:25:987389,0.00335103,-0.572625,1.20583,-0.00010472,1.34403,0.00333358,0,0.0442965,0.0732166,0,-0.0457102,-0.00628319,5.146,0.516,1.025,-0.006,0.229,0.058,0.098,33.271,-3.066,-3.696,-0.198669,0.043679
23:33:25:992501,0.00335103,-0.572363,1.2062,-0.00010472,1.34382,0.00329867,0,0.0497593,0.0736005,0,-0.0428478,-0.00771436,4.792,0.64,1.01,-0.014,0.202,0.059,0,32.06,-2.94,-4.137,-0.045088,0.080313
23:33:25:997484,0.00335103,-0.572067,1.20658,-0.00010472,1.34366,0.00326377,0,0.0534245,0.0724312,0,-0.0346099,-0.00647517,4.555,0.688,0.971,-0.018,0.184,0.06,-0.203,31.045,-2.436,-3.794,-0.097221,-0.033816
23:33:26:2623,0.00335103,-0.571787,1.20696,-0.00010472,1.34355,0.00322886,0,0.0544892,0.0751888,0,-0.0254644,-0.00630064,4.257,0.732,1.01,-0.023,0.16,0.061,-0.819,31.073,-2.919,-3.829,-0.16908,0.002818
23:33:26:7576,0.00335103,-0.571543,1.20738,-0.00010472,1.34347,0.00321141,0,0.0520283,0.0797965,0,-0.0224449,-0.00499164,4.141,0.755,1.152,-0.026,0.149,0.062,-1.022,30.352,-4.655,-3.577,-0.240939,0.038043
23:33:26:12735,0.00335103,-0.571299,1.20775,-0.00010472,1.34335,0.00319395,0,0.0478918,0.0747001,0,-0.0212407,-0.00460767,4.174,0.799,1.478,-0.028,0.144,0.063,0.203,30.128,-3.689,-3.185,-0.255029,0.016908
23:33:26:17757,0.00335103,-0.571089,1.20805,-0.00010472,1.34324,0.0031765,0,0.0437554,0.065031,0,-0.0207694,-0.0042586,4.348,0.822,1.676,-0.028,0.151,0.064,-0.714,30.765,-2.961,-3.64,-0.322661,0.043679
23:33:26:22698,0.00335103,-0.570897,1.20829,-0.00010472,1.34317,0.00315905,0,0.0400728,0.056252,0,-0.017366,-0.00460767,4.718,0.793,1.82,-0.021,0.176,0.067,-0.917,30.954,-2.093,-3.906,-0.483287,-0.007045
23:33:26:27872,0.00335103,-0.570705,1.20854,-0.00010472,1.34308,0.00314159,0,0.0392525,0.0508938,0,-0.0157778,-0.00347321,4.903,0.724,1.796,-0.014,0.195,0.068,-1.533,31.787,-1.33,-3.465,-0.53542,0.057769
23:33:26:32876,0.00335103,-0.570513,1.20882,-0.00010472,1.34301,0.00312414,0,0.039043,0.0520457,0,-0.0136136,-0.00274017,4.902,0.634,1.629,-0.006,0.207,0.07,-0.511,32.158,-0.833,-3.458,-0.601643,0.181761
23:33:26:37997,0.00335103,-0.570304,1.20913,-0.00010472,1.34296,0.00310669,0,0.0406487,0.0593936,0,-0.0140674,-0.00387463,4.702,0.651,1.49,-0.006,0.197,0.07,-0.406,31.493,-1.344,-3.969,-0.553737,-0.005636
23:33:26:43105,0.00335103,-0.570077,1.20948,-0.00010472,1.34286,0.00310669,0,0.0420624,0.0649961,0,-0.0164934,-0.00303687,4.252,0.803,1.386,-0.014,0.159,0.07,-0.203,30.688,-2.59,-3.703,-0.677729,0.097221
23:33:26:48115,0.00335103,-0.56985,1.20981,-0.00010472,1.34275,0.00308923,0,0.0452215,0.0663051,0,-0.0188845,-0.00246091,3.987,0.934,1.459,-0.022,0.13,0.069,-1.33,30.156,-2.345,-3.745,-0.643913,0.107084
23:33:26:53053,0.00333358,-0.569623,1.21012,-0.00010472,1.34266,0.00307178,0,0.0446455,0.0636871,0,-0.018675,-0.00216421,3.819,1.073,1.755,-0.034,0.106,0.068,-0.609,29.708,-2.982,-3.969,-0.632641,0.035225
23:33:26:58231,0.00333358,-0.569431,1.21044,-0.00010472,1.34256,0.00305433,0,0.0401949,0.062221,0,-0.018675,-0.00336849,3.924,1.117,1.969,-0.038,0.113,0.069,-0.714,30.002,-2.576,-4.228,-0.556555,0.043679
23:33:26:63200,0.00333358,-0.569257,1.21077,-0.00010472,1.34249,0.00305433,0,0.037001,0.0648913,0,-0.0157429,0,4.029,1.11,1.891,-0.038,0.123,0.07,-0.812,30.212,-3.507,-4.088,-0.684774,0.176125
23:33:26:68356,0.00333358,-0.569099,1.21112,-0.00010472,1.34242,0.00305433,0,0.0326027,0.0666367,0,-0.0149051,0,4.064,1.067,1.508,-0.032,0.124,0.072,-0.707,30.793,-3.913,-4.207,-0.756633,0.129628
23:33:26:73302,0.00333358,-0.568942,1.21147,-0.00010472,1.34233,0.00305433,0,0.0314159,0.0675268,0,-0.0171915,0,4.025,1.009,1.284,-0.026,0.116,0.072,0.301,30.933,-4.809,-3.815,-0.841173,0.088767
23:33:26:78304,0.00333358,-0.568785,1.21175,-0.00010472,1.34221,0.00305433,0,0.0327249,0.060179,0,-0.0206472,0,4.117,0.853,1.265,-0.015,0.111,0.071,-0.812,30.079,-4.291,-3.388,-0.85949,0.047906
23:33:26:83483,0.00333358,-0.568593,1.21197,-0.00010472,1.34211,0.00305433,0,0.0338594,0.0486947,0,-0.0208567,0,4.4,0.702,1.406,-0.007,0.127,0.071,0.203,29.799,-2.66,-3.402,-0.707318,0.09863
23:33:26:88443,0.00333358,-0.568419,1.21217,-0.00010472,1.34202,0.00305433,0,0.0335452,0.0429002,0,-0.0190764,0,5.038,0.468,1.518,0.007,0.175,0.071,-1.029,30.66,-1.477,-3.92,-0.677729,0.102857
23:33:26:93604,0.00333358,-0.568262,1.21238,-0.00010472,1.34193,0.00305433,0,0.0329169,0.0414865,0,-0.0162839,0,5.374,0.376,1.396,0.014,0.204,0.07,-0.609,29.953,-1.792,-3.745,-0.724226,0.047906
23:33:26:98730,0.00333358,-0.568105,1.2126,-0.00010472,1.34183,0.00305433,0,0.0324631,0.0442615,0,-0.0191986,0,5.432,0.414,0.999,0.015,0.211,0.068,-0.721,30.758,-2.471,-3.703,-0.693228,0.114129
23:33:26:103675,0.00333358,-0.56793,1.21285,-0.00010472,1.3417,0.00305433,0,0.0323933,0.048398,0,-0.0218341,0,5.222,0.523,0.761,0.009,0.193,0.065,-0.917,30.212,-2.443,-3.451,-0.643913,0.143718
23:33:26:108683,0.00333358,-0.567773,1.21314,-0.00010472,1.34155,0.00305433,0,0.0322013,0.0537038,0,-0.0287456,0,4.98,0.646,0.686,0,0.164,0.062,0,29.89,-2.814,-4.34,-0.659412,0.092994
23:33:26:113866,0.00333358,-0.567599,1.21346,-0.00010472,1.34136,0.00305433,0,0.0332136,0.0579624,0,-0.0326377,0,5.117,0.615,0.813,0,0.167,0.062,-0.609,30.058,-3.745,-4.249,-0.50724,0.07045
23:33:26:118797,0.00333358,-0.567441,1.21375,-0.00010472,1.34118,0.00305433,0,0.0318697,0.060179,0,-0.0324631,0,5.782,0.427,0.989,0.011,0.215,0.063,0,29.841,-4.347,-3.71,-0.490332,0.08454
23:33:26:123977,0.00333358,-0.567302,1.21405,-0.00010472,1.34106,0.00305433,0,0.0289027,0.0573864,0,-0.0285361,0,6.284,0.31,0.934,0.021,0.257,0.064,-0.504,30.513,-3.598,-3.605,-0.29589,0.011272
23:33:26:128977,0.00333358,-0.567197,1.21431,-0.00010472,1.34094,0.00305433,0,0.0255516,0.0552746,0,-0.0263545,0,6.661,0.293,0.624,0.026,0.29,0.064,0.21,31.493,-3.766,-3.885,-0.32407,0.080313
23:33:26:134109,0.00333358,-0.567075,1.21461,-0.00010472,1.34081,0.00305433,0,0.0227067,0.0576133,0,-0.0248709,0,6.583,0.406,0.422,0.017,0.28,0.06,-0.105,32.788,-4.34,-3.843,-0.271937,0.202896
23:33:26:139109,0.00333358,-0.56697,1.21494,-0.00010472,1.34066,0.00305433,0,0.0233176,0.0620988,0,-0.0286583,0,6.57,0.432,0.493,0.011,0.271,0.058,-1.029,32.522,-4.508,-4.032,-0.250802,0.184579
23:33:26:144190,0.00333358,-0.566831,1.21529,-0.00010472,1.34048,0.00305433,0,0.0261101,0.0648913,0,-0.0299149,0,7,0.285,0.78,0.015,0.295,0.058,-0.504,32.543,-5.075,-3.577,-0.18317,0.018317
23:33:26:149228,0.00333358,-0.566673,1.2156,-0.00010472,1.34034,0.00305433,0,0.0285187,0.0637918,0,-0.0275587,0,7.525,0.107,0.929,0.026,0.337,0.059,-0.511,32.942,-4.305,-4.046,-0.291663,0.057769
23:33:26:154365,0.00333358,-0.566499,1.21587,-0.00010472,1.34024,0.00305433,0,0.0325504,0.05791,0,-0.0235445,0,8.155,-0.091,0.947,0.042,0.399,0.059,-0.105,32.732,-3.192,-3.948,-0.226849,0.136673
23:33:26:159412,0.00333358,-0.566307,1.21613,-0.00010472,1.34015,0.00305433,0,0.0365123,0.0527439,0,-0.0209614,0,8.202,-0.097,0.87,0.045,0.413,0.056,0,31.507,-1.939,-3.906,-0.287436,0.059178
23:33:26:164504,0.00333358,-0.56608,1.21639,-0.00010472,1.34006,0.00305433,0,0.0408931,0.0520981,0,-0.0202807,0,7.696,0.081,0.781,0.033,0.382,0.051,-1.54,32.69,-0.385,-3.997,-0.393111,0.153581
23:33:26:169489,0.00333358,-0.565871,1.2167,-0.00010472,1.33994,0.00305433,0,0.0412596,0.0596903,0,-0.0207345,0,7.204,0.274,0.798,0.017,0.344,0.049,-0.819,31.745,-1.253,-3.92,-0.404383,0.052133
23:33:26:174419,0.00333358,-0.565644,1.21709,-0.00010472,1.33982,0.00303687,0,0.0423242,0.0696561,0,-0.0238412,0,6.705,0.589,0.95,-0.008,0.299,0.047,-0.406,32.445,-2.604,-3.479,-0.500195,0.073268
23:33:26:179627,0.00333358,-0.565417,1.21751,-0.00010472,1.33968,0.00303687,0,0.0448201,0.0761138,0,-0.024836,0,6.677,0.787,1.105,-0.024,0.292,0.047,-0.917,31.927,-2.87,-4.445,-0.514285,0.147945
23:33:26:184735,0.00333358,-0.56519,1.21793,-0.00010472,1.33958,0.00301942,0,0.0453611,0.0796917,0,-0.0239634,0,7.002,1.041,1.277,-0.041,0.312,0.046,-1.533,31.745,-2.66,-4.249,-0.584735,0.025362
23:33:26:189729,0.00333358,-0.564963,1.21834,-0.00010472,1.33947,0.00301942,0,0.045588,0.0815418,0,-0.0224275,0,7.272,1.173,1.254,-0.05,0.334,0.045,-1.54,32.949,-3.066,-3.843,-0.681956,-0.046497
23:33:26:194751,0.00333358,-0.564719,1.21878,-0.00010472,1.33937,0.00301942,0,0.0463559,0.0871966,0,-0.0217294,0,7.419,1.304,1.009,-0.059,0.351,0.043,-1.029,32.606,-4.333,-3.906,-0.656594,-0.052133
23:33:26:199865,0.00333358,-0.564474,1.21925,-0.00010472,1.33924,0.00301942,0,0.0465305,0.0900764,0,-0.0234921,0,7.277,1.35,0.842,-0.064,0.344,0.04,-1.645,33.628,-4.725,-3.612,-0.705909,0.02818
23:33:26:204798,0.00333358,-0.564213,1.21969,-0.00010472,1.33909,0.00300197,0,0.0510509,0.0866731,0,-0.0276286,0,6.907,1.401,0.854,-0.074,0.314,0.036,-1.232,32.606,-3.941,-4.053,-0.748179,0.077495
23:33:26:210007,0.00333358,-0.563916,1.22007,-0.00010472,1.33891,0.00300197,0,0.0549255,0.0796394,0,-0.0331264,0,6.789,1.455,1.043,-0.081,0.3,0.034,-0.504,31.388,-3.178,-3.64,-0.797494,0.018317
23:33:26:214948,0.00333358,-0.563637,1.22044,-0.00010472,1.33872,0.00300197,0,0.0561821,0.0773355,0,-0.0361807,0,7.082,1.586,1.337,-0.092,0.315,0.034,-0.91,31.241,-2.31,-3.731,-0.770723,0.105675
23:33:26:220122,0.00333358,-0.563357,1.22086,-0.00010472,1.33851,0.00300197,0,0.055868,0.0798139,0,-0.0386241,0,7.533,1.679,1.383,-0.095,0.348,0.034,-0.609,31.402,-2.107,-3.64,-0.820038,0.097221
23:33:26:225115,0.00333358,-0.563078,1.22131,-0.00010472,1.33828,0.00300197,0,0.0550302,0.0866556,0,-0.043895,0,8.121,1.768,1.171,-0.095,0.401,0.034,-0.098,31.409,-2.702,-3.745,-0.543874,0.107084
23:33:26:230101,0.00333358,-0.562781,1.22177,-0.00010472,1.338,0.00300197,0,0.055484,0.0873886,0,-0.0507891,0,8.149,1.798,0.931,-0.096,0.412,0.031,-0.518,31.346,-2.919,-4.004,-0.390293,0.136673
23:33:26:235240,0.00333358,-0.562502,1.2222,-0.00010472,1.33773,0.00300197,0,0.056409,0.0868127,0,-0.0538434,0,7.509,1.87,0.657,-0.107,0.375,0.024,-0.616,30.975,-2.275,-3.766,-0.190215,0.052133
23:33:26:240224,0.00333358,-0.562188,1.22267,-0.00010472,1.33748,0.00301942,0,0.0593761,0.089483,0,-0.0485551,0,6.571,2.017,0.664,-0.127,0.303,0.018,0.301,32.263,-3.122,-3.934,-0.221213,0.171898
23:33:26:245363,0.00335103,-0.561891,1.22316,-0.00010472,1.33731,0.00301942,0,0.0602662,0.0958709,0,-0.0407534,0,6.182,2.125,0.796,-0.138,0.27,0.016,0.308,30.73,-3.668,-4.046,-0.207123,0.270528
23:33:26:250472,0.00335103,-0.56156,1.22365,-0.00010472,1.33715,0.00301942,0,0.0625002,0.0950157,0,-0.0368439,0,6.198,2.241,1.005,-0.146,0.267,0.015,1.12,30.8,-3.178,-3.626,-0.301526,0.150763
23:33:26:255496,0.00335103,-0.561246,1.22407,-0.00010472,1.33699,0.00305433,0,0.061837,0.0882613,0,-0.0335627,0.00338594,6.479,2.293,1.103,-0.148,0.291,0.015,1.015,29.953,-1.596,-3.374,-0.349432,0.247984
23:33:26:260598,0.00335103,-0.560949,1.22452,-0.00010472,1.33683,0.00305433,0,0.0616799,0.0871792,0,-0.0295135,0.00277507,6.975,2.349,1.283,-0.152,0.331,0.013,1.323,30.247,-1.568,-3.906,-0.346614,0.255029
23:33:26:265600,0.00335103,-0.560635,1.22498,-0.00010472,1.33671,0.00308923,0,0.0616974,0.090408,0,-0.027105,0.00520108,7.29,2.33,1.457,-0.155,0.352,0.011,1.841,29.68,-3.066,-4.067,-0.412837,0.32407
23:33:26:270609,0.00335103,-0.56032,1.22547,-0.00010472,1.33659,0.00312414,0,0.063338,0.0932529,0,-0.0256738,0.00645772,7.81,2.111,1.617,-0.145,0.382,0.008,1.743,28.728,-3.185,-3.843,-0.656594,0.36634
23:33:26:275745,0.00335103,-0.559971,1.22592,-0.00010472,1.33645,0.00315905,0,0.0657466,0.0917345,0,-0.0266163,0.0066497,8.188,1.849,1.508,-0.128,0.408,0.009,2.87,27.706,-2.87,-3.745,-0.667866,0.314207
23:33:26:280735,0.00335103,-0.55964,1.22639,-0.00010472,1.33633,0.00319395,0,0.0661131,0.0935671,0,-0.0253771,0.00790634,8.644,1.458,1.059,-0.096,0.449,0.01,2.87,28.196,-2.835,-3.78,-0.663639,0.498786
23:33:26:285873,0.00336849,-0.559326,1.22691,-0.00010472,1.33621,0.00322886,0,0.0635823,0.0987682,0,-0.0235969,0.00841249,8.779,1.305,0.772,-0.082,0.465,0.011,3.696,28.357,-3.017,-3.941,-0.790449,0.370567
23:33:26:290850,0.00336849,-0.559012,1.22742,-0.00010472,1.33608,0.00328122,0,0.0618196,0.0982969,0,-0.0248709,0.00853466,8.691,1.297,0.624,-0.08,0.461,0.009,3.395,29.05,-2.639,-3.654,-0.904578,0.407201
23:33:26:295844,0.00338594,-0.558715,1.22786,-0.00010472,1.33591,0.00333358,0.00190241,0.061296,0.0946318,0,-0.0288328,0.00911062,8.477,1.42,0.687,-0.089,0.443,0.007,2.996,29.155,-1.526,-3.878,-0.956711,0.359295
23:33:26:300968,0.00340339,-0.558401,1.22833,-0.00010472,1.33575,0.00340339,0.00223402,0.0601266,0.0925199,0,-0.0319046,0.0126013,8.034,1.753,0.843,-0.113,0.407,0.006,3.381,30.31,-0.952,-3.731,-0.952484,0.404383
23:33:26:305985,0.00342085,-0.558121,1.22885,-0.00010472,1.33553,0.00347321,0.00312414,0.0598473,0.100077,0,-0.0379086,0.0128282,7.766,2.017,0.949,-0.131,0.387,0.005,4.221,29.75,-1.498,-3.556,-1.06943,0.395929
23:33:26:311112,0.00345575,-0.557825,1.22941,-0.00010472,1.33526,0.00354302,0.0050091,0.0576308,0.105994,0,-0.048398,0.0141546,7.623,2.302,1.142,-0.15,0.373,0.005,4.585,30.583,-1.897,-4.095,-0.804539,0.302935
23:33:26:316107,0.00349066,-0.557528,1.22995,-0.00010472,1.33492,0.00361283,0.00738274,0.0573341,0.107216,0,-0.061104,0.0148178,7.834,2.316,1.331,-0.152,0.383,0.005,4.354,31.094,-4.907,-3.647,-0.710136,0.340978
23:33:26:321232,0.00354302,-0.557231,1.23053,-0.00010472,1.33451,0.0037001,0.00851721,0.0595681,0.112591,0,-0.0719948,0.0158127,8.033,2.225,1.39,-0.146,0.397,0.005,4.221,31.388,-2.569,-3.969,-0.23953,0.331115
23:33:26:326235,0.00359538,-0.5569,1.23116,-0.00010472,1.33416,0.00376991,0.00977384,0.0624653,0.117496,0,-0.0691849,0.0152193,8.169,2.134,1.351,-0.14,0.407,0.004,3.85,31.486,-3.591,-3.829,-0.123992,0.232485
23:33:26:331235,0.00364774,-0.556551,1.2317,-0.00010472,1.33397,0.00385718,0.0102276,0.0675442,0.112609,0,-0.050632,0.0175755,8.127,2.164,1.269,-0.143,0.402,0.004,4.501,30.52,-2.541,-4.011,-0.221213,0.340978
23:33:26:336359,0.00371755,-0.556184,1.23224,-0.00010472,1.33382,0.0039619,0.0109258,0.071,0.10746,0,-0.0378562,0.0168599,8.006,2.31,1.125,-0.154,0.385,0.003,4.424,30.688,-2.037,-3.92,-0.340978,0.269119
23:33:26:341346,0.00378736,-0.555835,1.23278,-0.00010472,1.33364,0.00403171,0.013247,0.0706509,0.109153,0,-0.0370184,0.0164061,7.956,2.433,1.055,-0.163,0.375,0.004,4.102,29.792,-2.954,-4.683,-0.335342,0.177534
23:33:26:346467,0.00385718,-0.555503,1.23335,-0.00010472,1.33343,0.00411898,0.0137706,0.0668461,0.111614,0,-0.0389383,0.0176976,7.927,2.611,1.084,-0.176,0.366,0.004,3.437,29.967,-3.353,-3.843,-0.448062,0.147945
23:33:26:351476,0.00392699,-0.555189,1.23391,-0.00010472,1.33326,0.00420624,0.0133867,0.0637045,0.110235,0,-0.0367392,0.0159174,7.93,2.711,1.219,-0.185,0.361,0.003,4.158,30.877,-3.01,-4.088,-0.500195,0.097221
23:33:26:356599,0.00397935,-0.554893,1.23449,-0.00010472,1.33308,0.00427606,0.0130027,0.0632333,0.113342,0,-0.0347146,0.0152193,8.012,2.817,1.479,-0.194,0.361,0.002,4.319,31.542,-2.688,-3.983,-0.597416,0.15499
23:33:26:361610,0.00404916,-0.554543,1.23508,-0.00010472,1.33291,0.00434587,0.0120602,0.0644376,0.116623,0,-0.0342259,0.0147131,8.133,2.865,1.554,-0.197,0.368,0.002,4.277,31.087,-2.352,-3.528,-0.538238,0.231076
23:33:26:366628,0.00410152,-0.554194,1.23564,-0.00010472,1.33273,0.00441568,0.0113795,0.0674744,0.111596,0,-0.0353953,0.0149575,8.34,2.893,1.376,-0.196,0.384,0.004,4.949,30.863,-2.793,-4.795,-0.714363,0.178943
23:33:26:371660,0.00415388,-0.553863,1.23616,-0.00010472,1.33256,0.00450295,0.0117461,0.0667239,0.106919,0,-0.0355698,0.0163537,8.417,2.86,1.114,-0.193,0.39,0.005,4.662,30.674,-1.932,-4.025,-0.781995,0.311389
23:33:26:376733,0.0042237,-0.553566,1.23671,-0.00010472,1.33237,0.00457276,0.0120602,0.0624828,0.108978,0,-0.0372104,0.0153414,8.337,2.755,0.784,-0.187,0.38,0.007,5.537,31.493,-1.953,-4.557,-0.742543,0.288845
23:33:26:381840,0.00429351,-0.553269,1.23728,-0.00010472,1.33214,0.00466003,0.0126187,0.060144,0.109851,0,-0.042394,0.0161268,8.136,2.731,0.785,-0.187,0.36,0.008,5.208,31.605,-3.031,-3.717,-0.743952,0.256438
23:33:26:386864,0.00438078,-0.552938,1.23784,-0.00010472,1.33183,0.0047473,0.015516,0.0632856,0.110828,0,-0.0558331,0.0170868,7.697,2.921,1.204,-0.203,0.32,0.007,5.488,32.13,-3.101,-3.437,-0.452289,0.185988
23:33:26:391982,0.00446804,-0.552589,1.2384,-0.00010472,1.33144,0.00483456,0.0180816,0.0677188,0.112905,0,-0.0694467,0.0166504,7.432,3.181,1.62,-0.222,0.296,0.006,4.949,30.639,-3.003,-4.48,-0.208532,0.209941
23:33:26:396912,0.00457276,-0.552205,1.23899,-0.00010472,1.33106,0.00492183,0.0192335,0.0720821,0.114197,0,-0.0738274,0.0163363,7.271,3.559,2.052,-0.248,0.279,0.005,5.264,30.73,-2.968,-4.032,-0.102857,0.166262
23:33:26:401983,0.00466003,-0.551821,1.23953,-0.00010472,1.33081,0.0050091,0.0185878,0.0732166,0.110497,0,-0.0568803,0.0180467,7.317,3.683,2.088,-0.255,0.279,0.005,4.711,30.044,-2.667,-4.172,-0.153581,0.369158
23:33:26:407118,0.0047473,-0.551507,1.24007,-0.00010472,1.33067,0.00511381,0.0182911,0.0679457,0.106622,0,-0.0360411,0.0182736,7.373,3.69,1.896,-0.253,0.283,0.006,5.005,30.562,-2.828,-4.046,-0.249393,0.114129
23:33:26:412107,0.00483456,-0.551192,1.2406,-0.00010472,1.33057,0.00520108,0.0168773,0.063722,0.105069,0,-0.0287456,0.0180118,7.264,3.696,1.771,-0.252,0.274,0.005,5.698,31.374,-2.611,-3.703,-0.333933,0.257847
23:33:26:417214,0.00492183,-0.550878,1.24112,-0.00010472,1.33039,0.00528835,0.0161617,0.0628318,0.103219,0,-0.0316428,0.0174882,6.912,3.907,1.738,-0.267,0.245,0.004,6.16,31.255,-2.898,-4.018,-0.466379,0.280391
23:33:26:422230,0.00499164,-0.550564,1.24161,-0.00010472,1.33022,0.00537561,0.0168773,0.0634427,0.0996583,0,-0.0336499,0.0185703,6.651,4.342,1.873,-0.297,0.217,0.003,6.076,30.576,-2.646,-3.983,-0.503013,0.510058
23:33:26:427169,0.00509636,-0.550232,1.24213,-0.00010472,1.33006,0.00548033,0.0178547,0.0642107,0.100618,0,-0.0305084,0.019059,6.674,4.621,2.017,-0.316,0.213,0.003,5.691,30.268,-2.191,-4.48,-0.701682,0.395929
23:33:26:432301,0.00520108,-0.549936,1.24267,-0.00010472,1.32992,0.0055676,0.019792,0.0612436,0.104929,0,-0.0289376,0.0191114,6.996,4.859,2.207,-0.33,0.23,0.002,6.979,30.611,-2.94,-4.669,-0.59178,0.438199
23:33:26:437460,0.00532325,-0.549657,1.24318,-0.00010472,1.3298,0.00568977,0.023719,0.0551699,0.102433,0,-0.0284314,0.0209265,7.306,4.925,2.222,-0.332,0.251,0.001,6.559,31.948,-3.08,-4.095,-0.600234,0.443835
23:33:26:442463,0.00548033,-0.549412,1.24362,-0.00010472,1.32964,0.00579449,0.026337,0.0505447,0.0928166,0,-0.029531,0.0219213,7.726,5.014,2.026,-0.334,0.283,0,5.6,31.766,-2.688,-4.606,-0.808766,0.517103
23:33:26:447486,0.00563741,-0.549168,1.24407,-0.00010472,1.3295,0.00591667,0.030264,0.049899,0.0903557,0,-0.0295833,0.0227067,7.892,5.077,1.859,-0.336,0.298,-0.001,4.676,31.857,-2.17,-3.717,-0.762269,0.552328
23:33:26:452591,0.00579449,-0.548906,1.24452,-0.00010472,1.32935,0.00605629,0.0309447,0.0511731,0.0909491,0,-0.0285536,0.0252724,7.879,5.098,1.829,-0.338,0.298,-0.003,5.208,31.962,-2.478,-4.186,-0.866535,0.536829
23:33:26:457587,0.00595157,-0.548609,1.245,-0.00010472,1.32921,0.00619592,0.0308225,0.055868,0.0915076,0,-0.0290248,0.0280998,7.702,5.077,1.99,-0.339,0.283,-0.005,5.236,32.221,-2.702,-4.123,-0.874989,0.490332
23:33:26:462731,0.00610865,-0.548295,1.24545,-0.00010472,1.32903,0.006353,0.0317126,0.0595855,0.0896925,0,-0.0334929,0.0303338,7.318,5.158,2.262,-0.347,0.247,-0.007,4.725,30.744,-2.681,-4.389,-0.897533,0.569236
23:33:26:467662,0.00628319,-0.547981,1.2459,-0.00010472,1.32882,0.00656244,0.0331089,0.0604233,0.0913156,0,-0.0395492,0.0349066,7.095,5.348,2.314,-0.359,0.224,-0.007,5.026,31.339,-2.674,-3.969,-0.779177,0.428336
23:33:26:472838,0.00647517,-0.547702,1.24643,-0.00010472,1.32856,0.00677188,0.0353778,0.0573864,0.0966563,0,-0.045396,0.0404567,6.909,5.729,2.222,-0.38,0.205,-0.006,5.061,30.898,-3.556,-3.815,-0.739725,0.431154
23:33:26:477836,0.00666716,-0.547457,1.2469,-0.00010472,1.32828,0.00703368,0.0390256,0.0532674,0.094911,0,-0.053791,0.0477522,6.859,5.935,2.183,-0.392,0.2,-0.007,4.739,31.325,-3.465,-4.389,-0.376203,0.228258
23:33:26:482964,0.0068766,-0.547196,1.24732,-0.00010472,1.32799,0.00731293,0.0400204,0.0502306,0.0872141,0,-0.0568279,0.0531802,6.807,6.098,2.268,-0.404,0.194,-0.01,3.339,31.941,-4.228,-4.312,-0.312798,0
23:33:26:487961,0.00708604,-0.546969,1.2477,-0.00010472,1.32776,0.00757473,0.04112,0.0490263,0.0798314,0,-0.0498641,0.0521504,6.777,6.14,2.334,-0.409,0.189,-0.013,2.835,32.557,-1.309,-4.277,-0.184579,-0.142309
23:33:26:493102,0.00731293,-0.546707,1.2481,-0.00010472,1.3276,0.00778417,0.0423766,0.0494277,0.0815767,0,-0.0374024,0.0434412,6.801,6.136,2.278,-0.413,0.182,-0.015,3.374,31.241,-2.765,-4.06,-0.305753,0.053542
23:33:26:498088,0.00753982,-0.546463,1.24856,-0.00010472,1.32748,0.00792379,0.0443314,0.0503702,0.0847008,0,-0.0278555,0.0347844,6.918,6.074,2.166,-0.409,0.185,-0.016,3.318,32.081,-3.556,-4.487,-0.397338,0.053542
23:33:26:503230,0.00776672,-0.546201,1.24898,-0.00010472,1.32736,0.00808087,0.0460592,0.050632,0.0844914,0,-0.0272097,0.0321839,7.29,5.898,2.053,-0.395,0.209,-0.018,3.15,30.506,-4.459,-4.347,-0.401565,0.040861
23:33:26:508212,0.00801106,-0.545939,1.24936,-0.00010472,1.32722,0.00827286,0.0464956,0.0499339,0.0797092,0,-0.027105,0.0362156,7.839,5.761,2.012,-0.381,0.247,-0.02,3.017,30.401,-4.102,-3.612,-0.364931,0.22544
23:33:26:513213,0.00823795,-0.545712,1.24976,-0.00010472,1.3271,0.00849975,0.0456055,0.0480838,0.0792379,0,-0.0242426,0.039619,8.204,5.776,1.933,-0.38,0.271,-0.021,2.723,31.164,-3.57,-4.312,-0.462152,0.157808
23:33:26:518338,0.00844739,-0.545485,1.25018,-0.00010472,1.32699,0.00867429,0.0422544,0.0450295,0.0819432,0,-0.0219737,0.0395492,8.587,5.934,1.737,-0.389,0.291,-0.022,3.283,32.333,-4.655,-4.263,-0.560782,0.263483
23:33:26:523346,0.00863938,-0.545258,1.25062,-0.00010472,1.32689,0.00884882,0.0395492,0.0463036,0.0840551,0,-0.0214152,0.0348717,8.69,6.048,1.665,-0.396,0.293,-0.024,4.074,31.493,-4.844,-4.284,-0.539647,0.35225
23:33:26:528476,0.00884882,-0.545014,1.25098,-0.00010472,1.32675,0.00902335,0.0394793,0.0469319,0.0766723,0,-0.0234572,0.0341212,8.667,6.135,1.752,-0.402,0.289,-0.028,4.263,31.199,-3.437,-4.592,-0.625596,0.562191
23:33:26:533466,0.00905826,-0.54477,1.25131,-0.00010472,1.32662,0.00919789,0.0404742,0.0494103,0.0698655,0,-0.0258134,0.0365297,8.614,6.153,1.868,-0.401,0.286,-0.032,4.06,31.521,-3.073,-4.718,-0.63405,0.373385
23:33:26:538429,0.00925024,-0.544508,1.25166,-0.00010472,1.3265,0.00940732,0.0419926,0.0509811,0.0679631,0,-0.0254993,0.0389208,8.627,6.186,1.975,-0.399,0.286,-0.035,4.802,31.136,-2.247,-4.298,-0.736907,0.45088
23:33:26:543609,0.00947714,-0.544246,1.25203,-0.00010472,1.32636,0.00963422,0.0426035,0.0507542,0.0739671,0,-0.0252549,0.0423417,8.734,6.234,2.002,-0.399,0.29,-0.034,3.941,30.387,-2.359,-4.655,-0.69041,0.483287
23:33:26:548585,0.00972148,-0.544002,1.25247,-0.00010472,1.32621,0.00986111,0.0443837,0.0492183,0.0806168,0,-0.0279427,0.044855,8.922,6.367,2.033,-0.403,0.298,-0.034,3.458,30.933,-3.913,-4.963,-0.696046,0.457925
23:33:26:553708,0.00996583,-0.543757,1.2529,-0.00010472,1.32603,0.0101055,0.0464432,0.0492357,0.0846834,0,-0.0326377,0.0471762,8.917,6.517,2.047,-0.411,0.299,-0.034,2.87,31.192,-4.634,-4.347,-0.687592,0.43679
23:33:26:558960,0.0102102,-0.543513,1.25332,-0.00010472,1.32584,0.0103847,0.047281,0.0485202,0.0829904,0,-0.0345575,0.0517141,8.562,6.814,2.063,-0.429,0.279,-0.037,3.248,30.779,-3.794,-4.592,-0.53542,0.339569
23:33:26:563860,0.0104371,-0.543269,1.25376,-0.00010472,1.32566,0.010664,0.0478046,0.0483107,0.0861145,0,-0.0362854,0.0544717,8.183,6.998,2.118,-0.442,0.253,-0.04,3.556,31.01,-4.676,-4.438,-0.603052,0.25362
23:33:26:568831,0.0106814,-0.543024,1.25423,-0.00010472,1.32547,0.0109083,0.0478744,0.0492008,0.0900066,0,-0.0372104,0.0502655,7.748,7.172,2.276,-0.453,0.215,-0.043,3.444,31.731,-5.453,-4.641,-0.476242,0.273346
23:33:26:573988,0.0109432,-0.542745,1.25468,-0.00010472,1.32526,0.0111177,0.0496023,0.0504924,0.0886976,0,-0.0388336,0.0445408,7.664,7.251,2.351,-0.456,0.201,-0.044,3.178,30.996,-5.523,-4.676,-0.594598,0.288845
23:33:26:579109,0.0112225,-0.542501,1.25507,-0.00010472,1.32507,0.0113097,0.0521155,0.0513999,0.080512,0,-0.0398808,0.0404393,7.735,7.434,2.353,-0.463,0.2,-0.043,3.101,30.478,-4.088,-5.019,-0.384657,0.407201
23:33:26:584101,0.0114843,-0.542239,1.25542,-0.00010472,1.32488,0.0115017,0.0528311,0.0501782,0.0735831,0,-0.0389907,0.0391652,7.802,7.611,2.382,-0.472,0.205,-0.044,3.136,30.744,-3.087,-4.424,-0.332524,0.415655
23:33:26:589225,0.0117461,-0.541995,1.25576,-0.00010472,1.3247,0.0117286,0.0517839,0.0486423,0.0727453,0,-0.0356396,0.0423417,7.947,7.835,2.63,-0.487,0.219,-0.048,3.5,30.338,-3.395,-4.69,-0.291663,0.470606
23:33:26:594224,0.0119904,-0.541785,1.25617,-0.000122173,1.32455,0.011973,0.0501433,0.0457625,0.0769516,0,-0.0325853,0.045588,8.276,7.867,2.888,-0.49,0.243,-0.052,3.528,30.345,-4.746,-4.27,-0.350841,0.397338
23:33:26:599210,0.0122348,-0.541541,1.25657,-0.000122173,1.32443,0.0122348,0.0481885,0.045972,0.0764803,0,-0.0266512,0.0513127,8.51,7.794,2.835,-0.485,0.261,-0.053,3.801,30.716,-4.718,-4.732,-0.443835,0.500195
23:33:26:604336,0.0124617,-0.541296,1.25693,-0.000122173,1.32432,0.0125489,0.0467225,0.0475428,0.0759218,0,-0.0245917,0.055676,8.537,7.689,2.419,-0.476,0.265,-0.054,4.711,30.324,-4.2,-4.599,-0.414246,0.433972
23:33:26:609331,0.0126885,-0.541052,1.2573,-0.000122173,1.3242,0.0128631,0.0463559,0.0486074,0.072309,0,-0.0249582,0.0600393,8.272,7.696,2.151,-0.476,0.246,-0.055,5.572,29.799,-3.619,-4.655,-0.425518,0.257847
23:33:26:614460,0.0129329,-0.54079,1.25768,-0.000122173,1.32408,0.0131772,0.048014,0.0506146,0.0744907,0,-0.0231605,0.0631984,7.748,7.82,2.118,-0.486,0.203,-0.057,5.068,29.015,-3.605,-4.522,-0.497377,0.266301
23:33:26:619404,0.0132121,-0.540528,1.2581,-0.000122173,1.32397,0.0135263,0.0524471,0.0519759,0.0790634,0,-0.0207869,0.0649088,7.561,7.905,2.323,-0.492,0.184,-0.058,4.067,29.827,-4.788,-4.746,-0.607279,0.061996
23:33:26:624456,0.0134914,-0.540267,1.25849,-0.000122173,1.32388,0.0138405,0.0545939,0.0511032,0.0773355,0,-0.0198269,0.06353,7.663,7.933,2.652,-0.493,0.183,-0.059,2.954,27.993,-5.124,-5.103,-0.570645,0.143718
23:33:26:629582,0.0137706,-0.540022,1.25882,-0.000122173,1.3238,0.0141546,0.0553618,0.0498466,0.0701273,0,-0.0178896,0.0616101,7.898,7.892,2.741,-0.489,0.196,-0.058,3.976,29.155,-3.857,-5.173,-0.572054,0.001409
23:33:26:634583,0.0140499,-0.539795,1.25912,-0.000122173,1.32371,0.0144339,0.0546986,0.0461291,0.0630587,0,-0.0184307,0.0598822,8.338,7.799,2.68,-0.483,0.223,-0.057,4.34,29.498,-2.863,-4.823,-0.80313,0.023953
23:33:26:639719,0.0143466,-0.539569,1.25941,-0.000122173,1.32361,0.0146957,0.0554317,0.0439299,0.0602837,0,-0.0195826,0.0545241,8.649,7.695,2.574,-0.477,0.245,-0.056,4.046,29.393,-2.422,-5.411,-0.798903,0.26771
23:33:26:644731,0.0146259,-0.539359,1.25973,-0.000122173,1.3235,0.01494,0.0577879,0.0441394,0.0616276,0,-0.0195826,0.0495673,9.056,7.396,2.356,-0.457,0.28,-0.056,4.102,29.162,-2.401,-5.152,-0.876398,0.273346
23:33:26:649832,0.0149575,-0.539132,1.26009,-0.000122173,1.3234,0.0151669,0.0626573,0.0438427,0.0682424,0,-0.0206822,0.0476475,9.187,7.137,2.157,-0.437,0.296,-0.055,3.017,29.022,-3.661,-5.39,-0.896124,0.311389
23:33:26:654833,0.0153065,-0.538905,1.26046,-0.000122173,1.32327,0.0154636,0.0657989,0.0441743,0.0708778,0,-0.0235445,0.0547684,9.086,6.889,1.864,-0.416,0.293,-0.054,2.555,29.778,-4.221,-4.984,-0.851036,0.412837
23:33:26:659956,0.0156731,-0.538678,1.26079,-0.000122173,1.32315,0.0158301,0.0682249,0.0448899,0.0678759,0,-0.0245044,0.064839,8.915,6.92,1.796,-0.417,0.278,-0.053,1.967,30.31,-3.122,-4.473,-0.780586,0.376203
23:33:26:664968,0.0159872,-0.538469,1.26114,-0.000122173,1.32301,0.0161792,0.0650484,0.0428304,0.0670556,0,-0.0262148,0.0684169,8.782,7.171,2.004,-0.433,0.259,-0.051,2.548,30.296,-2.478,-5.166,-0.959529,0.271937
23:33:26:670096,0.016249,-0.538277,1.26149,-0.000122173,1.32285,0.0165283,0.0578228,0.0401426,0.0710524,0,-0.0265465,0.0684867,8.844,7.338,2.251,-0.444,0.261,-0.05,3.171,30.38,-3.129,-4.655,-0.908805,0.18317
23:33:26:675082,0.0165108,-0.538085,1.26191,-0.000122173,1.32272,0.0167901,0.052517,0.038851,0.0767596,0,-0.0297753,0.0582591,9.017,7.489,2.451,-0.45,0.275,-0.049,4.424,31.192,-4.151,-5.026,-0.769314,0.319843
23:33:26:680080,0.0167377,-0.537893,1.26231,-0.000139626,1.32252,0.0169995,0.0508938,0.0383798,0.0787842,0,-0.0350986,0.0466876,9.077,7.565,2.386,-0.452,0.281,-0.048,4.256,30.688,-4.235,-5.11,-0.860899,0.348023
23:33:26:685149,0.017017,-0.537701,1.26268,-0.000139626,1.32231,0.0172089,0.0520806,0.0388859,0.0737227,0,-0.0382751,0.043703,9.096,7.673,2.191,-0.458,0.279,-0.046,5.222,31.136,-3.983,-5.026,-0.600234,0.412837
23:33:26:690216,0.0173137,-0.537474,1.26299,-0.000139626,1.32212,0.0174707,0.0561298,0.0418704,0.0665494,0,-0.0375246,0.0489739,9.233,7.643,2.19,-0.458,0.282,-0.044,3.857,30.506,-2.023,-4.809,-0.522739,0.498786
23:33:26:695352,0.0176104,-0.537247,1.2633,-0.000139626,1.32198,0.0177675,0.0583638,0.0441917,0.0641059,0,-0.0323235,0.0549779,9.439,7.499,2.281,-0.451,0.293,-0.044,3.381,30.429,-1.869,-4.921,-0.728453,0.442426
23:33:26:700329,0.0179071,-0.537003,1.26367,-0.000139626,1.32186,0.0180642,0.0582242,0.0459022,0.0704938,0,-0.0282569,0.0557109,9.764,7.235,2.311,-0.433,0.316,-0.042,3.647,30.114,-3.381,-4.921,-0.553737,0.524148
23:33:26:705333,0.0182038,-0.536759,1.26407,-0.000139626,1.32172,0.018326,0.056409,0.0474031,0.0762011,0,-0.0271748,0.0538085,9.854,7.143,2.201,-0.425,0.326,-0.041,3.374,29.491,-3.521,-4.669,-0.635459,0.52133
23:33:26:710398,0.0184656,-0.536514,1.26447,-0.000139626,1.32153,0.0185703,0.0556062,0.0478046,0.0780511,0,-0.0338419,0.0513476,9.727,7.161,2.002,-0.425,0.321,-0.039,4.578,30.38,-3.64,-5.166,-0.628414,0.474833
23:33:26:715398,0.0187797,-0.536287,1.26486,-0.000139626,1.32134,0.0188845,0.0591667,0.0469319,0.0771959,0,-0.0365472,0.0591318,9.571,7.188,1.964,-0.427,0.311,-0.039,3.997,30.037,-4.27,-4.655,-0.508649,0.421291
23:33:26:720579,0.0191114,-0.53606,1.26526,-0.00015708,1.32118,0.0193033,0.0634951,0.0459894,0.0783478,0,-0.0329867,0.0741067,9.518,7.104,2.013,-0.424,0.303,-0.038,3.122,31.017,-3.843,-5.082,-0.534011,0.22544
23:33:26:725597,0.0194604,-0.535834,1.2657,-0.00015708,1.32104,0.019792,0.0661654,0.0440521,0.083322,0,-0.0288677,0.0865334,9.681,6.98,1.991,-0.415,0.308,-0.036,2.415,31.262,-4.97,-4.886,-0.429745,-0.021135
23:33:26:730703,0.019792,-0.535607,1.26615,-0.00015708,1.32092,0.0201586,0.0658338,0.0453611,0.0867254,0,-0.0270352,0.0768294,10.069,6.842,1.798,-0.402,0.328,-0.032,2.233,30.674,-4.851,-4.858,-0.607279,-0.011272
23:33:26:735714,0.0200713,-0.535362,1.26655,-0.00015708,1.32078,0.0203505,0.0593761,0.0470715,0.0816814,0,-0.0263545,0.0522377,10.26,6.847,1.684,-0.402,0.339,-0.03,3.206,30.765,-5.229,-5.033,-0.518512,0.201487
23:33:26:740824,0.0203156,-0.535118,1.26688,-0.00015708,1.32066,0.0205076,0.0523948,0.0481711,0.0735133,0,-0.0254294,0.0404567,10.375,6.955,1.788,-0.414,0.345,-0.03,4.746,30.66,-2.982,-5.229,-0.679138,0.455107
23:33:26:745823,0.0205425,-0.534874,1.26723,-0.000174533,1.32053,0.020752,0.0475602,0.0480838,0.0702146,0,-0.0250106,0.0443837,10.471,7,2.012,-0.421,0.348,-0.031,5.187,30.674,-2.072,-4.991,-0.666457,0.393111
23:33:26:750826,0.0207694,-0.534629,1.26762,-0.000174533,1.32043,0.0210487,0.0465828,0.0470715,0.0755902,0,-0.0228464,0.0539132,10.897,6.907,2.225,-0.418,0.372,-0.032,5.999,31.521,-2.576,-5.635,-0.697455,0.288845
23:33:26:755968,0.0210312,-0.534402,1.26809,-0.000174533,1.32029,0.0213454,0.0500386,0.0464781,0.0836711,0,-0.0251327,0.0575261,11.339,6.758,2.114,-0.405,0.402,-0.03,5.88,32.088,-3.269,-4.69,-0.729862,0.311389
23:33:26:760966,0.0213454,-0.534176,1.26852,-0.000174533,1.32015,0.0216421,0.0557982,0.0467225,0.0856608,0,-0.0276286,0.0570199,11.877,6.564,1.651,-0.385,0.444,-0.027,4.417,31.325,-3.997,-5.369,-0.851036,0.362113
23:33:26:766074,0.0216421,-0.533914,1.26894,-0.000174533,1.31999,0.0219039,0.0589049,0.0492706,0.0856433,0,-0.0302116,0.0542274,11.96,6.54,1.353,-0.382,0.452,-0.025,4.396,31.556,-3.64,-4.886,-0.848218,0.470606
23:33:26:771212,0.0219562,-0.533634,1.26941,-0.000174533,1.31982,0.0222006,0.0595332,0.0534594,0.0887849,0,-0.0326377,0.0573864,11.701,6.644,1.201,-0.391,0.429,-0.024,3.661,30.863,-3.031,-5.145,-0.935576,0.418473
23:33:26:776201,0.0222355,-0.533303,1.2699,-0.000174533,1.31963,0.0225846,0.0576133,0.0589223,0.0946143,0,-0.0364425,0.0686787,11.391,6.723,1.391,-0.401,0.395,-0.023,3.717,30.835,-3.766,-5.432,-0.804539,0.300117
23:33:26:781201,0.0225147,-0.532954,1.27039,-0.000191986,1.3194,0.0230034,0.0563741,0.0653626,0.0950157,0,-0.0428478,0.0791158,11.341,6.689,1.577,-0.4,0.385,-0.022,3.836,29.239,-3.759,-4.774,-0.714363,-0.026771
23:33:26:786332,0.0228289,-0.532605,1.27083,-0.000191986,1.31914,0.0233351,0.058678,0.0688009,0.0903557,0,-0.0492881,0.0703891,11.49,6.567,1.777,-0.392,0.392,-0.021,4.095,29.75,-1.729,-5.243,-0.534011,-0.002818
23:33:26:791300,0.0231431,-0.532273,1.27128,-0.000191986,1.31888,0.0235096,0.062413,0.0671079,0.0892038,0,-0.0512952,0.0475253,11.647,6.512,1.84,-0.388,0.404,-0.019,2.583,29.19,-2.051,-4.949,-0.40861,0.284618
23:33:26:796301,0.0234921,-0.531976,1.27177,-0.000191986,1.31865,0.0236667,0.0647168,0.0600568,0.0950855,0,-0.0451168,0.0372802,11.882,6.514,1.886,-0.39,0.423,-0.016,2.254,29.876,-3.472,-4.921,-0.534011,0.581917
23:33:26:801449,0.0238063,-0.531697,1.27229,-0.000191986,1.31849,0.0238587,0.062762,0.0566359,0.100479,0,-0.036233,0.0383798,12.045,6.527,1.906,-0.391,0.435,-0.015,2.296,30.289,-3.437,-5.264,-0.618551,0.410019
23:33:26:806590,0.0240681,-0.5314,1.2728,-0.000191986,1.31832,0.0240855,0.057561,0.0588874,0.0993092,0,-0.0331089,0.0427955,12.295,6.464,1.893,-0.387,0.453,-0.014,2.744,31.444,-3.584,-5.397,-0.681956,0.555146
23:33:26:811578,0.0243299,-0.531086,1.2733,-0.000191986,1.31816,0.0243299,0.0518712,0.0612611,0.101264,0,-0.0332311,0.0471413,12.415,6.365,1.82,-0.379,0.463,-0.014,3.948,29.827,-3.759,-5.432,-0.615733,0.524148
23:33:26:816716,0.0245568,-0.530755,1.27386,-0.00020944,1.31797,0.0246266,0.0470192,0.0654149,0.105453,0,-0.0354476,0.0520806,12.47,6.225,1.601,-0.368,0.468,-0.014,4.585,30.338,-3.997,-5.74,-0.738316,0.629823
23:33:26:821691,0.0247837,-0.530423,1.2744,-0.00020944,1.31779,0.0249408,0.0463909,0.0651357,0.106238,0,-0.0336674,0.0589572,12.457,6.202,1.417,-0.365,0.465,-0.013,5.768,30.135,-3.787,-5.25,-0.698864,0.473424
23:33:26:826661,0.025028,-0.530109,1.27489,-0.00020944,1.31764,0.0252724,0.0482933,0.0622559,0.101508,0,-0.0320617,0.0653102,12.475,6.32,1.206,-0.369,0.459,-0.01,5.46,30.569,-3.185,-5.754,-0.687592,0.331115
23:33:26:831769,0.0253247,-0.52983,1.27542,-0.00020944,1.31748,0.0256563,0.0540179,0.0583638,0.100548,0,-0.0327773,0.0699703,12.553,6.474,1.179,-0.377,0.459,-0.008,4.41,31.486,-1.967,-5.306,-0.808766,0.23953
