srisadhan/powerball/bin/HRI_project/2021/admittance/Non-stiff env/admittance_lg.csv
TimeStamp , Q1, Q2, Q3, Q4, Q5, Q6, dQ1, dQ2, dQ3, dQ4, dQ5, dQ6, Fx, Fy, Fz, Mx, My, Mz, Joint1_torque, Joint2_torque, Joint3_torque, Joint4_torque, Joint5_torque, Joint6_torque 
23:25:11:155779,0.000139626,-0.581928,1.1874,0,1.35186,-0.00596903,0,0,0,0,0,0,0,0,0,0,0,0,-5.635,13.363,-15.694,0.945,0.125401,-0.184579
23:25:11:160762,0.000139626,-0.581945,1.1874,0,1.35186,-0.00596903,0,0,0,0,0,0,0,0,0,0,0,0,-5.621,13.839,-15.925,1.008,0.074677,-0.264892
23:25:11:165758,0.000139626,-0.581945,1.1874,0,1.35186,-0.00596903,0,0,0,0,0,0,0,0,0,0,0,0,-5.684,13.475,-15.344,0.672,0.046497,-0.300117
23:25:11:170896,0.000139626,-0.581945,1.1874,0,1.35186,-0.00596903,0,0,0,0,0,0,0,0,0,0,0,0,-5.817,14.35,-14.994,1.211,0.026771,-0.194442
23:25:11:175885,0.000139626,-0.581945,1.1874,0,1.35186,-0.00596903,0,0,0,0,0,0,0,0,0,0,0,0,-5.446,13.293,-15.617,1.652,-0.005636,-0.288845
23:25:11:181027,0.000139626,-0.581945,1.1874,0,1.35186,-0.00596903,0,0,0,0,0,0,0,0,0,0,0,0,-5.642,14.385,-15.036,1.33,0.026771,-0.252211
23:25:11:185962,0.000139626,-0.581945,1.1874,0,1.35186,-0.00596903,0,0,0,0,0,0,0,0,0,0,0,0,-5.537,14.56,-16.394,1.015,0.139491,-0.376203
23:25:11:191028,0.000139626,-0.581945,1.1874,0,1.35186,-0.00593412,0,0,0,0,0,0.00359538,0,0,0,0,0,0,-5.859,13.762,-16.079,1.421,0.162035,1.64853
23:25:11:196152,0.000139626,-0.581945,1.1874,0,1.35186,-0.0050091,0,0,0,0,0,0.117932,0,0,0,0,0,0,-5.656,14,-15.89,0.826,0.094403,-0.736907
23:25:11:201140,0.000139626,-0.581945,1.1874,0,1.35186,-0.00469494,0,0,0,0,0,0.0729722,0,0,0,0,0,0,-5.341,14.448,-15.771,1.029,0.069041,-0.373385
23:25:11:206226,0.000139626,-0.581945,1.1874,0,1.35186,-0.00488692,0,0,0,0,0,0.00773181,0,0,0,0,0,0,-5.936,14.084,-15.771,1.253,0.116947,0.002818
23:25:11:211301,0.000139626,-0.581945,1.1874,0,1.35186,-0.00488692,0,0,0,0,0,0.00378736,0,0,0,0,0,0,-5.348,14.084,-15.498,0.882,0.114129,-0.207123
23:25:11:216399,0.000139626,-0.581963,1.1874,0,1.35186,-0.00486947,0,0,0,0,0,0.00235619,0,0,0,0,0,0,-5.152,13.377,-15.386,0.7,0.009863,-0.119765
23:25:11:221384,0.000139626,-0.581963,1.1874,0,1.35186,-0.00486947,0,0,0,0,0,0,0,0,0,0,0,0,-5.635,14.819,-15.694,1.316,0.063405,-0.256438
23:25:11:226505,0.000139626,-0.581963,1.1874,0,1.35186,-0.00486947,0,0,0,0,0,0,0,0,0,0,0,0,-5.432,14.056,-15.148,0.609,-0.002818,-0.153581
23:25:11:231499,0.000139626,-0.581963,1.1874,0,1.35186,-0.00486947,0,0,0,0,0,0,0,0,0,0,0,0,-4.725,13.93,-16.156,1.337,0.107084,-0.208532
23:25:11:236633,0.000139626,-0.581963,1.1874,0,1.35186,-0.00486947,0,0,0,0,0,0,0,0,0,0,0,0,-5.033,14.392,-15.113,1.225,0.052133,-0.133855
23:25:11:241635,0.000139626,-0.581963,1.1874,0,1.35186,-0.00486947,0,0,0,0,0,0,0,0,0,0,0,0,-5.264,13.937,-15.848,1.687,0.109902,-0.025362
23:25:11:246597,0.000139626,-0.581963,1.1874,0,1.35186,-0.00486947,0,0,0,0,0,0,0,0,0,0,0,0,-5.607,13.643,-15.386,0.959,0.171898,-0.224031
23:25:11:251733,0.000139626,-0.581963,1.1874,0,1.35186,-0.00486947,0,0,0,0,0,0,0,0,0,0,0,0,-5.642,12.691,-15.694,1.12,0.133855,-0.081722
23:25:11:256749,0.000139626,-0.581963,1.1874,0,1.35186,-0.00486947,0,0,0,0,0,0,0,0,0,0,0,0,-5.131,14.154,-16.156,1.19,0.021135,-0.045088
23:25:11:261847,0.000139626,-0.581963,1.1874,0,1.35186,-0.00486947,0,0,0,0,0,0,0,0,0,0,0,0,-6.041,13.356,-15.89,1.113,0.205714,-0.222622
23:25:11:266898,0.000139626,-0.581963,1.1874,0,1.35186,-0.00486947,0,0,0,0,0,0,0,0,0,0,0,0,-6.356,14.882,-15.498,0.84,0.157808,-0.119765
23:25:11:272022,0.000139626,-0.581963,1.1874,0,1.35186,-0.00486947,0,0,0,0,0,0,0,0,0,0,0,0,-5.537,13.846,-15.694,0.784,0.059178,-0.164853
23:25:11:276969,0.000139626,-0.581963,1.1874,0,1.35186,-0.00486947,0,0,0,0,0,0,0,0,0,0,0,0,-5.145,13.797,-16.121,0.476,-0.039452,0.015499
23:25:11:281984,0.000139626,-0.581963,1.1874,0,1.35186,-0.00486947,0,0,0,0,0,0,0,0,0,0,0,0,-5.537,14.147,-16.156,0.889,0.167671,-0.187397
23:25:11:287114,0.000139626,-0.581963,1.1874,0,1.35186,-0.00486947,0,0,0,0,0,0,0,0,0,0,0,0,-5.544,14.336,-15.386,1.036,0.100039,-0.163444
23:25:11:292255,0.000139626,-0.581963,1.1874,0,1.35188,-0.00486947,0,0,0,0,0,0,0,0,0,0,0,0,-5.642,13.902,-15.54,0.518,0.11272,-0.157808
23:25:11:297199,0.000139626,-0.581963,1.1874,0,1.35188,-0.00486947,0,0,0,0,0,0,0,0,0,0,0,0,-5.936,13.874,-16.002,0.854,0.078904,-0.204305
23:25:11:302406,0.000139626,-0.581963,1.1874,0,1.35188,-0.00486947,0,0,0,0,0,0,0,0,0,0,0,0,-5.334,13.209,-15.771,1.267,0.040861,-0.139491
23:25:11:307324,0.000139626,-0.581963,1.1874,0,1.35188,-0.00486947,0,0,0,0,0,0,0,0,0,0,0,0,-5.026,13.993,-15.302,1.155,0.131037,-0.115538
23:25:11:312323,0.000139626,-0.581963,1.1874,0,1.35188,-0.00486947,0,0,0,0,0,0,0,0,0,0,0,0,-5.852,13.825,-15.652,1.008,-0.012681,-0.133855
23:25:11:317508,0.000139626,-0.581963,1.1874,0,1.35188,-0.00486947,0,0,0,0,0,0,0,0,0,0,0,0,-5.362,13.867,-15.071,0.728,0.015499,-0.204305
23:25:11:322466,0.000139626,-0.581963,1.1874,0,1.35188,-0.00486947,0,0,0,0,0,0,0,0,0,0,0,0,-5.439,13.72,-15.302,1.575,0.100039,-0.111311
23:25:11:327606,0.000139626,-0.581963,1.1874,0,1.35188,-0.00486947,0,0,0,0,0,0,0,0,0,0,0,0,-5.719,13.083,-15.498,1.435,0.021135,-0.100039
23:25:11:332647,0.000139626,-0.58198,1.1874,0,1.35188,-0.00486947,0,0,0,0,0,0,0,0,0,0,0,0,-6.251,15.197,-15.806,1.162,0.005636,-0.129628
23:25:11:337762,0.000139626,-0.58198,1.1874,0,1.35188,-0.00486947,0,0,0,0,0,0,0,0,0,0,0,0,-5.453,13.951,-14.959,1.533,0.166262,-0.139491
23:25:11:342705,0.000139626,-0.58198,1.1874,0,1.35188,-0.00486947,0,0,0,0,0,0,0,0,0,0,0,0,-5.95,14.336,-16.079,1.456,0.033816,-0.246575
23:25:11:347873,0.000122173,-0.58198,1.1874,0,1.35188,-0.00486947,0,0,0,0,0,0,0,0,0,0,0,0,-5.467,14.07,-15.729,0.574,-0.02818,-0.218395
23:25:11:352846,0.000122173,-0.58198,1.1874,0,1.35188,-0.00486947,0,0,0,0,0,0,0,0,0,0,0,0,-5.537,13.517,-15.267,1.757,0.147945,-0.270528
23:25:11:358010,0.000122173,-0.58198,1.1874,0,1.35188,-0.00486947,0,0,0,0,0,0,0,0,0,0,0,0,-5.334,14.028,-16.044,0.791,0.02818,-0.218395
23:25:11:362969,0.000122173,-0.58198,1.1874,0,1.35188,-0.00486947,0,0,0,0,0,0,0,0,0,0,0,0,-4.935,13.832,-16.121,1.673,0.074677,-0.035225
23:25:11:368129,0.000122173,-0.58198,1.1874,0,1.35188,-0.00486947,0,0,0,0,0,0,0,0,0,0,0,0,-5.348,14.497,-15.848,1.225,-0.030998,-0.242348
23:25:11:373071,0.000122173,-0.58198,1.1874,0,1.35188,-0.00486947,0,0,0,0,0,0,0,0,0,0,0,0,-5.131,14.028,-15.344,0.721,0.015499,-0.167671
23:25:11:378257,0.000122173,-0.58198,1.1874,0,1.35188,-0.00486947,0,0,0,0,0,0,0,0,0,0,0,0,-5.327,13.328,-15.463,0.798,-0.046497,-0.129628
23:25:11:383209,0.000122173,-0.58198,1.1874,0,1.35188,-0.00486947,0,0,0,0,0,0,0,0,0,0,0,0,-5.53,14.182,-15.967,1.309,0.036634,-0.138082
23:25:11:388393,0.000122173,-0.58198,1.1874,0,1.35188,-0.00486947,0,0,0,0,0,0,0,0,0,0,0,0,-5.138,14.497,-15.729,1.4,0.069041,-0.095812
23:25:11:393377,0.000122173,-0.58198,1.1874,0,1.35188,-0.00486947,0,0,0,0,0,0,0,0,0,0,0,0,-5.733,12.859,-15.463,1.456,0.036634,-0.095812
23:25:11:398320,0.000122173,-0.58198,1.1874,0,1.35188,-0.00486947,0,0,0,0,0,0,0,0,0,0,0,0,-5.614,14.182,-15.848,1.344,0.077495,-0.167671
23:25:11:403465,0.000122173,-0.58198,1.1874,0,1.35188,-0.00486947,0,0,0,0,0,0,0.045,0.057,-0.291,0,0,0.002,-5.544,13.832,-15.575,0.973,-0.061996,-0.088767
23:25:11:408643,0.000122173,-0.58198,1.1874,0,1.35188,-0.00486947,0,0,0,0,0,0,0.058,-0.029,-0.116,0.001,0,0.001,-5.733,14.063,-15.302,1.029,-0.018317,-0.312798
23:25:11:413581,0.000122173,-0.58198,1.1874,0,1.35188,-0.00486947,0,0,0,0,0,0,0.039,0.016,-0.462,0,0,0.004,-5.747,14.574,-15.694,1.218,0.018317,-0.160626
23:25:11:418605,0.000122173,-0.58198,1.1874,0,1.35188,-0.00486947,0,0,0,0,0,0,0.017,0.051,-0.623,0,0.001,0.005,-5.656,14.266,-15.89,0.588,-0.061996,-0.045088
23:25:11:423766,0.000122173,-0.58198,1.1874,0,1.35188,-0.00486947,0,0,0,0,0,0,-0.012,0.052,-0.557,0,0,0.004,-5.509,14.224,-15.267,1.015,0.018317,-0.125401
23:25:11:428712,0.000122173,-0.58198,1.1874,0,1.35188,-0.00486947,0,0,0,0,0,0,-0.022,0.027,-0.4,0,0,0.002,-5.733,13.909,-15.498,0.798,-0.02818,-0.100039
23:25:11:433885,0.000122173,-0.58198,1.1874,0,1.35188,-0.00486947,0,0,0,0,0,0,-0.013,0.012,-0.278,0,0,0,-5.152,13.678,-15.771,0.987,-0.064814,0.001409
23:25:11:438838,0.000122173,-0.58198,1.1874,0,1.35188,-0.00486947,0,0,0,0,0,0,0,0.028,-0.292,0,0,0,-5.943,13.832,-15.617,0.896,0.036634,-0.214168
23:25:11:443835,0.000122173,-0.58198,1.1874,0,1.35188,-0.00486947,0,0,0,0,0,0,-0.011,0.05,-0.252,0,0,0,-5.145,14.686,-15.652,1.547,0.119765,-0.147945
23:25:11:448946,0.000122173,-0.58198,1.1874,0,1.35188,-0.00486947,0,0,0,0,0,0,-0.055,0.039,-0.111,0,0,0,-5.845,14.217,-15.54,1.211,0.156399,-0.180352
23:25:11:453950,0.000122173,-0.58198,1.1874,0,1.35188,-0.00486947,0,0,0,0,0,0,-0.132,-0.006,0.139,0,0,-0.002,-5.551,13.951,-15.652,1.218,0.11272,-0.059178
23:25:11:459124,0.000122173,-0.58198,1.1874,0,1.35188,-0.00486947,0,0,0,0,0,0,-0.132,-0.044,0.186,-0.001,0,-0.003,-5.432,13.755,-15.652,0.889,-0.069041,-0.125401
23:25:11:464254,0.000122173,-0.58198,1.1874,0,1.35188,-0.00486947,0,0,0,0,0,0,-0.079,-0.048,0.076,0,0,-0.001,-5.551,14.721,-15.421,1.225,-0.02818,-0.266301
23:25:11:469277,0.000122173,-0.58198,1.1874,0,1.35188,-0.00486947,0,0,0,0,0,0,0.013,-0.024,-0.133,0,0,0,-5.453,14.063,-15.575,0.7,-0.030998,-0.204305
23:25:11:474381,0.000122173,-0.58198,1.1874,0,1.35188,-0.00486947,0,0,0,0,0,0,0.046,-0.003,-0.177,0,0,0,-6.237,14.532,-15.421,1.946,0.109902,-0.069041
23:25:11:479338,0.000122173,-0.58198,1.1874,0,1.35188,-0.00486947,0,0,0,0,0,0,0.042,-0.001,-0.024,0,0,0,-5.95,13.713,-15.421,1.246,0.053542,-0.071859
23:25:11:484512,0.000122173,-0.58198,1.1874,0,1.35188,-0.00486947,0,0,0,0,0,0,0.021,-0.021,0.142,0,0,-0.001,-5.733,13.832,-16.233,1.568,0.033816,-0.293072
23:25:11:489444,0.000122173,-0.58198,1.1874,0,1.35188,-0.00486947,0,0,0,0,0,0,-0.003,-0.047,0.263,0,0,-0.001,-5.537,13.986,-15.575,1.792,-0.02818,-0.233894
23:25:11:494450,0.000122173,-0.58198,1.1874,0,1.35188,-0.00486947,0,0,0,0,0,0,-0.002,-0.043,0.212,0,0,-0.001,-5.432,14.028,-15.967,0.924,0.125401,-0.204305
23:25:11:499633,0.000122173,-0.58198,1.1874,0,1.35188,-0.00486947,0,0,0,0,0,0,0.024,-0.017,0.065,0,0,0,-5.229,14.182,-15.421,0.931,0.109902,-0.177534
23:25:11:504761,0.000122173,-0.58198,1.1874,0,1.35188,-0.00486947,0,0,0,0,0,0,0.042,-0.009,0.004,0,0,0,-5.243,13.874,-15.617,1.12,-0.005636,-0.054951
23:25:11:509707,0.000122173,-0.58198,1.1874,0,1.35188,-0.00486947,0,0,0,0,0,0,0.036,-0.021,-0.043,0,0,0.001,-5.222,14.259,-16.275,1.008,0.011272,-0.122583
23:25:11:514695,0.000122173,-0.58198,1.1874,0,1.35188,-0.00486947,0,0,0,0,0,0,0.014,-0.025,-0.093,0,0,0.001,-5.649,13.797,-15.617,1.652,0.059178,-0.180352
23:25:11:519873,0.000122173,-0.58198,1.1874,0,1.35188,-0.00486947,0,0,0,0,0,0,-0.005,-0.006,-0.182,0,0,0.001,-5.446,13.559,-16.044,1.029,-0.008454,-0.085949
23:25:11:524877,0.000122173,-0.58198,1.1874,0,1.35188,-0.00486947,0,0,0,0,0,0,0.001,0.014,-0.222,0,0,0.001,-5.537,14.028,-16.044,0.931,0.1409,-0.114129
23:25:11:530001,0.000122173,-0.58198,1.1874,0,1.35188,-0.00486947,0,0,0,0,0,0,0.025,0.035,-0.289,0,0,0.002,-5.712,13.482,-15.925,1.323,0.074677,-0.119765
23:25:11:534944,0.000122173,-0.58198,1.1874,0,1.35188,-0.00486947,0,0,0,0,0,0,0.032,0.038,-0.369,0,0,0.003,-4.837,13.482,-16.394,1.435,0.115538,-0.208532
23:25:11:539951,0.000122173,-0.58198,1.1874,0,1.35188,-0.00486947,0,0,0,0,0,0,0.036,0.035,-0.444,0.001,0,0.003,-5.537,14.182,-16.002,0.98,-0.012681,-0.204305
23:25:11:545106,0.000122173,-0.58198,1.1874,0,1.35188,-0.00486947,0,0,0,0,0,0,0.051,0.034,-0.312,0.001,0,0.002,-5.957,14.721,-15.344,1.008,-0.119765,-0.283209
23:25:11:550076,0.000122173,-0.58198,1.1874,0,1.35188,-0.00486947,0,0,0,0,0,0,0.061,0.039,-0.173,0,0,0.001,-5.439,13.447,-16.002,0.917,0.1409,-0.242348
23:25:11:555249,0.000122173,-0.58198,1.1874,0,1.35188,-0.00486947,0,0,0,0,0,0,0.053,0.055,-0.145,0,0,0.001,-5.53,13.293,-15.463,1.358,0.156399,-0.256438
23:25:11:560374,0.000122173,-0.58198,1.1874,0,1.35188,-0.00486947,0,0,0,0,0,0,0.029,0.065,-0.265,0,0,0.001,-5.838,13.601,-16.079,1.337,0.005636,-0.290254
23:25:11:565317,0.000122173,-0.58198,1.1874,0,1.35188,-0.00486947,0,0,0,0,0,0,-0.007,0.059,-0.398,0,0,0.003,-5.929,13.559,-15.771,0.924,0.030998,-0.059178
23:25:11:570340,0.000122173,-0.58198,1.1874,0,1.35188,-0.00486947,0,0,0,0,0,0,-0.012,0.039,-0.344,0,0,0.002,-5.824,13.447,-16.506,1.26,-0.018317,-0.119765
23:25:11:575460,0.000122173,-0.58198,1.1874,0,1.35188,-0.00486947,0,0,0,0,0,0,0.007,0.003,-0.152,0,0,0,-5.943,14.028,-15.498,0.903,0.040861,-0.174716
23:25:11:580448,0.000122173,-0.58198,1.1874,0,1.35188,-0.00486947,0,0,0,0,0,0,0.023,-0.015,-0.067,0,0,0,-5.264,14.567,-16.156,1.12,0.071859,0.018317
23:25:11:585562,0.000122173,-0.58198,1.1874,0,1.35188,-0.00486947,0,0,0,0,0,0,0.03,-0.036,-0.026,0,0,0,-5.348,14.413,-15.617,1.239,0,-0.167671
23:25:11:590581,0.000122173,-0.58198,1.1874,0,1.35188,-0.00486947,0,0,0,0,0,0,0.028,-0.049,0.006,0,0,0,-5.236,13.601,-15.617,1.267,-0.043679,-0.147945
23:25:11:595566,0.000122173,-0.58198,1.1874,0,1.35188,-0.00486947,0,0,0,0,0,0,0.027,-0.057,0.094,0,0,0,-4.935,13.986,-16.548,0.826,0.102857,-0.060587
23:25:11:600686,0.000122173,-0.58198,1.1874,0,1.35188,-0.00486947,0,0,0,0,0,0,0.025,-0.053,0.133,0,0,-0.001,-5.831,14.259,-15.113,0.777,0.052133,-0.123992
23:25:11:605884,0.000122173,-0.58198,1.1874,0,1.35188,-0.00486947,0,0,0,0,0,0,0.011,-0.033,0.087,0,0,-0.001,-5.635,13.797,-15.848,1.267,0.018317,-0.184579
23:25:11:610884,0.000122173,-0.58198,1.1874,0,1.35188,-0.00486947,0,0,0,0,0,0,0,-0.016,-0.015,0,0,-0.001,-4.928,14.063,-15.729,1.344,0.015499,-0.109902
23:25:11:615814,0.000122173,-0.58198,1.1874,0,1.35188,-0.00486947,0,0,0,0,0,0,0.002,0.008,-0.196,0,0,0,-5.425,13.713,-15.925,0.721,0.100039,-0.114129
23:25:11:620963,0.000122173,-0.58198,1.1874,0,1.35188,-0.00486947,0,0,0,0,0,0,0.019,0.022,-0.251,0,0,0.001,-5.215,13.797,-15.771,0.882,0.131037,-0.228258
23:25:11:625936,0.000122173,-0.58198,1.1874,0,1.35188,-0.00486947,0,0,0,0,0,0,0.046,0.035,-0.163,0,0,0.001,-5.124,14.686,-15.575,0.903,0.107084,-0.214168
23:25:11:631092,0.000122173,-0.58198,1.1874,0,1.35188,-0.00486947,0,0,0,0,0,0,0.048,0.031,-0.002,0,0,0,-6.139,14.455,-15.575,1.099,-0.090176,-0.143718
23:25:11:636240,0.000122173,-0.58198,1.1874,0,1.35188,-0.00486947,0,0,0,0,0,0,0.034,0.021,0.028,0,0,0,-5.81,14.224,-16.198,1.407,0.026771,-0.143718
23:25:11:641200,0.000122173,-0.58198,1.1874,0,1.35188,-0.00486947,0,0,0,0,0,0,0.002,0.008,-0.065,0,0,0,-5.124,14.105,-14.994,0.455,0.021135,-0.249393
23:25:11:646192,0.000122173,-0.58198,1.1874,0,1.35188,-0.00486947,0,0,0,0,0,0,-0.013,0.013,-0.149,0,0,0,-5.201,14.483,-15.883,1.036,0.059178,-0.270528
23:25:11:651311,0.000122173,-0.58198,1.1874,0,1.3519,-0.00486947,0,0,0,0,0,0,-0.014,0.043,-0.204,0,0,0,-5.614,14.763,-16.233,1.365,0.133855,-0.177534
23:25:11:656487,0.000122173,-0.58198,1.1874,0,1.3519,-0.00486947,0,0,0,0,0,0,0.001,0.062,-0.19,0,0,0,-5.418,14.532,-15.771,0.924,0.018317,-0.180352
23:25:11:661489,0.000122173,-0.58198,1.1874,0,1.3519,-0.00486947,0,0,0,0,0,0,0.035,0.058,-0.118,0,0,0,-5.824,13.958,-15.967,0.588,0.105675,-0.133855
23:25:11:666619,0.000122173,-0.58198,1.1874,0,1.3519,-0.00486947,0,0,0,0,0,0,0.047,0.031,-0.055,0,0,0,-5.026,14.294,-15.967,1.225,0.071859,-0.280391
23:25:11:671620,0.000122173,-0.58198,1.1874,0,1.3519,-0.00486947,0,0,0,0,0,0,0.032,-0.012,0.01,0,0,0,-5.229,14.182,-15.89,1.183,0,-0.242348
23:25:11:676563,0.000122173,-0.58198,1.1874,0,1.3519,-0.00486947,0,0,0,0,0,0,0.007,-0.019,-0.002,0,0,0,-5.341,14.266,-16.121,0.798,0.046497,-0.184579
23:25:11:681706,0.000122173,-0.58198,1.1874,0,1.3519,-0.00486947,0,0,0,0,0,0,-0.017,0.009,-0.107,0.001,0,0,-5.327,13.72,-15.771,1.106,0.043679,-0.157808
23:25:11:686694,0.000122173,-0.58198,1.1874,0,1.3519,-0.00486947,0,0,0,0,0,0,-0.008,0.034,-0.188,0.001,0,0,-5.152,14.525,-16.506,1.036,-0.05636,-0.184579
23:25:11:691873,0.000122173,-0.58198,1.1874,0,1.3519,-0.00486947,0,0,0,0,0,0,0.028,0.045,-0.242,0.001,0,0.001,-5.551,13.643,-15.386,1.029,0.036634,-0.22544
23:25:11:696810,0.000122173,-0.58198,1.1874,0,1.3519,-0.00481711,0,0,0,0,0,0,0.047,0.033,-0.222,0,0,0.001,-5.348,14.182,-15.652,1.204,0.122583,-0.229667
23:25:11:701992,0.000122173,-0.58198,1.1874,0,1.3519,-0.00476475,0,0,0,0,0,0.00747001,0.044,0.017,-0.149,0,0,0.001,-5.054,13.489,-15.89,0.798,0.015499,-0.150763
23:25:11:706993,0.000122173,-0.58198,1.1874,0,1.3519,-0.00476475,0,0,0,0,0,0.00282743,0.033,0.022,-0.104,0,0,0,-5.614,13.601,-15.771,1.197,-0.033816,-0.188806
23:25:11:711989,0.000122173,-0.58198,1.1874,0,1.3519,-0.00476475,0,0,0,0,0,0,0.029,0.042,-0.071,0,0,0,-6.125,13.489,-15.54,1.33,0.053542,-0.321252
23:25:11:717118,0.000122173,-0.58198,1.1874,0,1.3519,-0.00476475,0,0,0,0,0,0,0.037,0.033,-0.056,0,0,0,-5.334,13.181,-14.686,1.197,0.033816,-0.359295
23:25:11:722242,0.000122173,-0.58198,1.1874,0,1.3519,-0.0047822,0,0,0,0,0,-0.00246091,0.038,0.003,-0.02,0,0,0,-5.432,14.259,-14.959,0.679,0.053542,-0.371976
23:25:11:727244,0.000122173,-0.58198,1.1874,0,1.3519,-0.00483456,0,0,0,0,0,-0.0084823,0.03,-0.045,0.073,0,0,0,-5.341,13.643,-15.225,1.267,0.087358,-0.429745
23:25:11:732193,0.000122173,-0.58198,1.1874,0,1.3519,-0.00492183,0,0,0,0,0,-0.0126885,0.03,-0.053,0.109,0,0,0,-5.327,14.266,-15.617,1.274,0.105675,-0.511467
23:25:11:737365,0.000122173,-0.58198,1.1874,0,1.3519,-0.0050091,0,0,0,0,0,-0.0168424,0.037,-0.017,0.043,0,0,0,-5.138,14.259,-16.156,1.323,-0.105675,-0.736907
23:25:11:742376,0.000122173,-0.58198,1.1874,0,1.3519,-0.00513127,0,0,0,0,0,-0.0225671,0.036,0.017,-0.041,0,0,0,-6.027,14.455,-15.54,1.218,0.105675,-0.790449
23:25:11:747504,0.000122173,-0.58198,1.1874,0,1.3519,-0.00528835,0,0,0,0,0,-0.0285536,0.022,0.037,-0.066,0,0,0,-5.943,14.378,-15.925,0.896,0.08454,-0.796085
23:25:11:752487,0.000122173,-0.58198,1.1874,0,1.3519,-0.00549779,0,0,0,0,0,-0.0347146,0.018,0.02,0.01,0,0,0,-5.628,13.951,-15.89,1.659,-0.005636,-0.796085
23:25:11:757611,0.000122173,-0.58198,1.1874,0,1.3519,-0.00575959,0,0,0,0,0,-0.0469668,0.038,-0.013,0.107,0,0,0,-5.544,14.378,-16.121,1.253,0.100039,-0.776359
23:25:11:762628,0.000122173,-0.58198,1.1874,0,1.3519,-0.00616101,0,0,0,0,0,-0.0665843,0.057,-0.015,0.063,0,0,0,-5.131,13.874,-15.498,0.966,0.077495,-0.445244
23:25:11:767752,0.000122173,-0.58198,1.1874,0,1.3519,-0.0066497,0,0,0,0,0,-0.0835315,0.061,0.017,-0.13,0.001,0,0.001,-5.453,13.643,-15.771,1.379,0.018317,-0.215577
23:25:11:772737,0.000122173,-0.58198,1.1874,0,1.3519,-0.00706858,0,0,0,0,0,-0.0836013,0.046,0.041,-0.23,0.001,0,0.002,-5.642,13.916,-16.121,1.449,0.059178,0.132446
23:25:11:777858,0.000122173,-0.58198,1.1874,0,1.3519,-0.00736529,0,0,0,0,0,-0.0672475,0.029,0.047,-0.194,0,0,0.001,-5.348,13.72,-15.729,1.106,0.115538,-0.033816
23:25:11:782859,0.000122173,-0.58198,1.1874,0,1.3519,-0.00759218,0,0,0,0,0,-0.0543321,0.032,0.03,-0.063,0,0,0,-5.831,13.951,-14.875,0.931,0.146536,-0.233894
23:25:11:787985,0.000122173,-0.58198,1.1874,0,1.3519,-0.00785398,0,0,0,0,0,-0.0509636,0.04,-0.002,0.121,0,0,-0.001,-5.054,13.832,-15.694,1.575,0.011272,-0.543874
23:25:11:792984,0.000122173,-0.58198,1.1874,0,1.3519,-0.00816814,0,0,0,0,0,-0.058102,0.037,-0.015,0.138,0,0,0,-5.544,13.601,-15.806,1.323,-0.009863,-0.429745
23:25:11:798111,0.000122173,-0.58198,1.1874,0,1.3519,-0.00853466,0,0,0,0,0,-0.0671952,0.017,-0.01,-0.014,0,0,0,-5.838,14.483,-15.89,1.19,0.043679,-0.659412
23:25:11:803109,0.000122173,-0.58198,1.1874,0,1.3519,-0.00891863,0,0,0,0,0,-0.0727279,-0.002,0.009,-0.184,0,0,0.001,-4.627,14.028,-15.967,1.575,0.092994,-0.736907
23:25:11:808107,0.000122173,-0.58198,1.1874,0,1.3519,-0.00942478,0,0,0,0,0,-0.0914902,-0.009,0.018,-0.207,0,0,0.001,-5.11,14.721,-15.344,1.141,-0.002818,-0.514285
23:25:11:813232,0.000122173,-0.58198,1.1874,0,1.3519,-0.0101404,0,0,0,0,0,-0.12233,-0.007,0.02,-0.155,0,0,0.001,-5.32,14.455,-15.694,1.666,0.092994,-0.15499
23:25:11:818358,0.000122173,-0.58198,1.1874,0,1.3519,-0.0106814,0,0,0,0,0,-0.110165,0.005,0.021,-0.145,0,0,0.001,-5.425,14.455,-15.575,1.477,0.097221,-0.247984
23:25:11:823359,0.000122173,-0.58198,1.1874,0,1.3519,-0.0109956,0,0,0,0,0,-0.0809309,0.036,0.027,-0.189,0,0,0.001,-5.236,14.567,-15.54,0.602,0.078904,-0.388884
23:25:11:828499,0.000122173,-0.58198,1.1874,0,1.3519,-0.0113097,0,0,0,0,0,-0.0679631,0.046,0.027,-0.196,0,0,0.001,-5.642,13.559,-15.575,1.036,0.078904,-0.624187
23:25:11:833487,0.000122173,-0.58198,1.1874,0,1.3519,-0.0117112,0,0,0,0,0,-0.0758171,0.009,0.017,-0.141,0,0,0,-5.229,14.028,-16.002,0.931,0.150763,-0.679138
23:25:11:838611,0.000122173,-0.58198,1.1874,0,1.3519,-0.0121824,0,0,0,0,0,-0.0866381,-0.044,0.012,-0.12,0,0,0,-5.152,14.413,-15.848,1.428,-0.029589,-0.598825
23:25:11:843609,0.000122173,-0.58198,1.1874,0,1.3519,-0.0127409,0,0,0,0,0,-0.102189,-0.108,0.023,-0.182,0,0,0,-5.25,14.217,-15.883,0.7,0.021135,-0.308571
23:25:11:848568,0.000122173,-0.58198,1.1874,0,1.3519,-0.0134041,0,0,0,0,0,-0.119328,-0.107,0.033,-0.232,0,0,0,-5.621,14.602,-15.54,1.008,0.095812,-0.200078
23:25:11:853738,0.000122173,-0.58198,1.1874,0,1.3519,-0.0138928,0,0,0,0,0,-0.10287,-0.044,0.029,-0.19,0,0,0,-5.334,14.028,-14.798,1.043,0.146536,0.076086
23:25:11:858708,0.000122173,-0.58198,1.1874,0,1.3519,-0.0141546,0,0,0,0,0,-0.0711396,0.007,0.01,-0.098,0,0,0,-5.236,13.72,-15.421,1.141,0.087358,-0.19726
23:25:11:863875,0.000122173,-0.58198,1.1874,0,1.3519,-0.0143815,0,0,0,0,0,-0.0566883,0.051,-0.007,-0.028,0,0,0,-5.537,14.105,-15.302,0.182,0.087358,-0.36634
23:25:11:868819,0.000122173,-0.58198,1.1874,0,1.3519,-0.0146782,0,0,0,0,0,-0.0570897,0.054,0.006,-0.09,0,0,0.001,-5.523,13.678,-15.694,0.91,0.005636,-0.29589
23:25:11:873998,0.000122173,-0.58198,1.1874,0,1.3519,-0.0149924,0,0,0,0,0,-0.0608073,0.04,0.059,-0.262,0,0,0.002,-6.041,13.839,-15.617,1.134,0.022544,-0.486105
23:25:11:879108,0.000122173,-0.58198,1.1874,0,1.3519,-0.0153065,0,0,0,0,0,-0.0606327,0.03,0.086,-0.268,0,0,0.001,-5.537,14.483,-15.925,1.155,0.078904,-0.370567
23:25:11:884124,0.000122173,-0.58198,1.1874,0,1.3519,-0.0156032,0,0,0,0,0,-0.0593586,0.029,0.064,-0.102,0,0,0,-5.019,14.105,-14.336,1.106,0.087358,-0.400156
23:25:11:889151,0.000122173,-0.58198,1.1874,0,1.3519,-0.0158825,0,0,0,0,0,-0.0576133,0.025,-0.006,0.255,0,0,-0.002,-4.921,14.805,-14.917,0.903,-0.002818,-0.226849
23:25:11:894267,0.000122173,-0.58198,1.1874,0,1.3519,-0.0161443,0,0,0,0,0,-0.0536514,0.019,-0.047,0.412,0,0,-0.003,-5.341,13.909,-15.89,1.022,0.094403,-0.369158
23:25:11:899243,0.000122173,-0.58198,1.1874,0,1.3519,-0.0163712,0,0,0,0,0,-0.0467923,0.018,-0.065,0.415,0,0,-0.002,-5.446,14.301,-15.575,0.322,0.087358,-0.260665
23:25:11:904373,0.000122173,-0.58198,1.1874,0,1.3519,-0.0165457,0,0,0,0,0,-0.0396015,0.023,-0.047,0.314,0,0,-0.001,-5.432,14.567,-17.941,1.281,0.139491,-0.21135
23:25:11:909372,0.000122173,-0.58198,1.1874,0,1.3519,-0.0166679,0,0,0,0,0,-0.0304909,0.013,-0.001,0.119,0,0,-0.001,-5.537,13.755,-12.278,1.568,0.005636,-0.274755
23:25:11:914497,0.000122173,-0.58198,1.1874,0,1.3519,-0.0167726,0,0,0,0,0,-0.0230558,-0.016,0.024,-0.021,0,0,0,-5.845,13.762,-17.402,0.889,0.100039,-0.195851
23:25:11:919493,0.000122173,-0.58198,1.1874,0,1.3519,-0.0168599,0,0,0,0,0,-0.0197222,-0.077,0.037,-0.2,0,0,0,-5.747,13.559,-16.121,0.581,0.090176,-0.291663
23:25:11:924620,0.000122173,-0.58198,1.1874,0,1.3519,-0.0169471,0,0,0,0,0,-0.0178547,-0.106,0.028,-0.239,0,0,0,-5.439,14.175,-16.044,0.021,0.061996,-0.328297
23:25:11:929608,0.000122173,-0.58198,1.1874,0,1.3519,-0.0169995,0,0,0,0,0,-0.0135438,-0.117,0.016,-0.153,0,0,0,-5.537,13.447,-15.302,1.218,0.08454,-0.273346
23:25:11:934746,0.000122173,-0.58198,1.1874,0,1.3519,-0.0170344,0,0,0,0,0,-0.010664,-0.116,0.018,-0.066,0,0,0,-5.74,13.825,-15.344,-0.105,-0.023953,-0.357886
23:25:11:939745,0.000122173,-0.58198,1.1874,0,1.3519,-0.0170868,0,0,0,0,0,-0.00970403,-0.104,0.029,-0.018,0,0,0,-5.334,13.72,-16.975,-0.455,0.053542,-0.418473
23:25:11:944743,0.000122173,-0.58198,1.1874,0,1.3519,-0.0170868,0,0,0,0,0,-0.00467748,-0.076,0.028,-0.045,0,0,0,-5.628,14.105,-15.729,1.099,0.053542,-0.264892
23:25:11:949852,0.000122173,-0.58198,1.1874,0,1.3519,-0.0171042,0,0,0,0,0,-0.00298451,0,0.015,-0.094,0,0,0,-5.642,14.917,-15.463,1.337,-0.101448,-0.350841
23:25:11:954977,0.000122173,-0.58198,1.1874,0,1.3519,-0.0171042,0,0,0,0,0,0,0.046,0.01,-0.102,0,0,0,-5.334,17.619,-15.806,1.106,-0.064814,-0.40861
23:25:11:959993,0.000122173,-0.581998,1.1874,0,1.3519,-0.0165283,0,0,0,0,0,0.0883486,0.067,0.019,-0.084,0,-0.001,0,-5.222,16.765,-16.002,1.309,0.02818,2.41644
23:25:11:964993,0.000122173,-0.581998,1.1874,0,1.3519,-0.013823,0,0,0,0,0,0.373745,0.054,0.026,-0.067,0,0,0,-5.236,11.536,-15.071,0.511,0.128219,0.935576
23:25:11:970118,0.000122173,-0.581998,1.1874,0,1.3519,-0.0110479,0,0,0,0,0,0.475672,0.03,0.015,-0.035,0,0,0,-5.635,11.942,-15.925,0.805,0.018317,-0.64814
23:25:11:975102,0.000122173,-0.581998,1.1874,0,1.3519,-0.00961676,0,0,0,0,0,0.341753,0.02,-0.007,0,0,0,0,-5.74,14.035,-16.079,1.127,0.081722,-0.318434
23:25:11:980233,0.000122173,-0.581998,1.1874,0,1.3519,-0.00918043,0,0,0,0,0,0.189578,0.016,-0.005,-0.027,0,0,0,-4.935,13.223,-15.806,1.134,0.05636,0.781995
23:25:11:985236,0.000122173,-0.581998,1.1874,0,1.3519,-0.00820305,0,0,0,0,0,0.199439,0.022,0.036,-0.241,0.001,0,0.001,-5.033,13.503,-15.19,1.603,0.033816,0.701682
23:25:11:990355,0.000122173,-0.581998,1.1874,0,1.3519,-0.00680678,0,0,0,0,0,0.243857,0.041,0.071,-0.465,0.001,0,0.003,-5.033,13.573,-15.617,1.029,0.078904,0.240939
23:25:11:995374,0.000122173,-0.581998,1.1874,0,1.3519,-0.00572468,0,0,0,0,0,0.223228,0.078,0.091,-0.679,0.001,0,0.005,-5.425,14.378,-15.848,1.561,-0.033816,0.187397
23:25:12:364,0.000122173,-0.581998,1.1874,0,1.3519,-0.00462512,0,0,0,0,0,0.217817,0.088,0.081,-0.635,0.001,0,0.005,-6.034,13.916,-16.044,1.183,0.018317,-0.088767
23:25:12:5475,0.000122173,-0.581998,1.1874,0,1.3519,-0.00385718,0,0,0,0,0,0.174358,0.066,0.055,-0.389,0,0,0.003,-4.921,14.273,-15.771,0.903,0.012681,0.115538
23:25:12:10603,0.000122173,-0.581998,1.1874,1.74533e-05,1.3519,-0.0034383,0,0,0,0,0,0.117112,0.042,0.047,-0.255,0,0,0.001,-5.726,13.72,-14.917,0.686,0.061996,0.729862
23:25:12:15603,0.000122173,-0.581998,1.1874,1.74533e-05,1.3519,-0.00275762,0,0,0,0,0,0.131423,0.023,0.05,-0.205,0,0,-0.001,-6.251,14,-15.617,0.931,0.119765,0.727044
23:25:12:20724,0.000122173,-0.581998,1.1874,1.74533e-05,1.3519,-0.00167552,0,0,0,0,0,0.184185,0.026,0.053,-0.213,0,0,-0.002,-4.935,15.008,-15.421,1.582,0.074677,0.045088
23:25:12:25730,0.000122173,-0.581998,1.1874,1.74533e-05,1.3519,-0.000802851,0,0,0,0,0,0.167744,0.04,0.043,-0.174,0.001,0,0,-5.439,13.622,-16.002,0.91,0.040861,-0.184579
23:25:12:30730,0.000122173,-0.581998,1.1874,1.74533e-05,1.3519,-0.000628319,0,0,0,0,0,0.0901637,0.047,0.029,-0.111,0.001,0,0.001,-5.026,15.967,-14.875,1.155,0.087358,0.596007
23:25:12:35848,0.000122173,-0.581998,1.1874,1.74533e-05,1.3519,-0.000401426,0,0,0,0,0,0.0635474,0.049,0.018,-0.023,0.001,0,0.003,-5.439,14.378,-15.225,1.575,0.090176,0.891897
23:25:12:40848,0.000122173,-0.581998,1.1874,1.74533e-05,1.3519,0.000191986,0,0,0,0,0,0.0993267,0.048,0.022,0,0,0,0.001,-5.236,16.107,-16.156,1.708,0.101448,0.625596
23:25:12:45987,0.000122173,-0.581998,1.1874,1.74533e-05,1.3519,0.0010472,0,0,0,0,0,0.142925,0.044,0.027,-0.03,0,0,0,-5.418,13.447,-16.079,1.477,0.040861,0.066223
23:25:12:51000,0.000122173,-0.581998,1.1874,1.74533e-05,1.3519,0.00178024,0,0,0,0,0,0.143239,0.034,0.013,-0.063,0,0,0,-4.438,12.859,-15.806,0.98,0.087358,-0.311389
23:25:12:56125,0.000122173,-0.581998,1.1874,1.74533e-05,1.3519,0.00207694,0,0,0,0,0,0.0881042,0.002,-0.027,-0.073,0,0,0,-5.432,15.673,-15.344,0.462,0.015499,0.015499
23:25:12:61098,0.000122173,-0.581998,1.1874,1.74533e-05,1.3519,0.00218166,0,0,0,0,0,0.0470715,-0.022,-0.053,-0.054,0,0,0.001,-6.153,14.728,-15.302,1.33,0.081722,0.355068
23:25:12:66048,0.000122173,-0.581998,1.1874,1.74533e-05,1.3519,0.00244346,0,0,0,0,0,0.0505971,-0.017,-0.047,-0.06,0,0,0.001,-5.733,13.993,-16.156,1.309,0.002818,0.332524
23:25:12:71227,0.000122173,-0.581998,1.1874,1.74533e-05,1.3519,0.00280998,0,0,0,0,0,0.0663923,0.014,-0.011,-0.073,0,0,0,-6.153,13.23,-15.421,1.414,0.081722,0.576281
23:25:12:76374,0.000122173,-0.581998,1.1874,1.74533e-05,1.3519,0.00315905,0,0,0,0,0,0.065188,0.035,0.015,-0.049,0,0,0,-5.523,14.952,-15.617,1.694,0.08454,0.481878
23:25:12:81376,0.000122173,-0.581998,1.1874,1.74533e-05,1.3519,0.00349066,0,0,0,0,0,0.0666192,0.045,0.048,0.009,-0.001,0,0,-5.936,14.308,-15.652,1.05,0.059178,0.356477
23:25:12:86479,0.000122173,-0.581998,1.1874,1.74533e-05,1.3519,0.00389208,0,0,0,0,0,0.0738972,0.037,0.061,0.013,0,0,0,-5.726,13.916,-15.771,1.085,0.095812,0.326888
23:25:12:91473,0.000122173,-0.581998,1.1874,1.74533e-05,1.3519,0.00429351,0,0,0,0,0,0.0778417,0.013,0.064,-0.04,0,0,0,-5.432,14.266,-16.24,0.483,0.050724,0.101448
23:25:12:96489,0.000122173,-0.581998,1.1874,1.74533e-05,1.3519,0.00450295,0,0,0,0,0,0.0534594,-0.001,0.054,-0.086,0,0,0,-5.726,13.573,-15.617,1.148,0.125401,0.012681
23:25:12:101599,0.000122173,-0.581998,1.1874,1.74533e-05,1.3519,0.00462512,0,0,0,0,0,0.0345052,-0.004,0.033,-0.179,0.001,0,0,-4.529,13.993,-15.575,1.281,-0.131037,0.118356
23:25:12:106573,0.000122173,-0.581998,1.1874,1.74533e-05,1.3519,0.0047822,0,0,0,0,0,0.033266,0.01,0.024,-0.28,0.001,0,0.002,-5.138,14.497,-15.771,0.931,-0.046497,0.236712
23:25:12:111753,0.000122173,-0.581998,1.1874,1.74533e-05,1.3519,0.00499164,0,0,0,0,0,0.0384496,0.032,0.016,-0.406,0.001,0,0.004,-5.425,13.874,-15.652,1.561,0.132446,0.107084
23:25:12:116737,0.000122173,-0.581998,1.1874,1.74533e-05,1.3519,0.00518363,0,0,0,0,0,0.0374722,0.032,0.01,-0.374,0,0,0.003,-5.635,13.881,-15.344,1.106,0.059178,0.122583
23:25:12:121878,0.000122173,-0.581998,1.1874,1.74533e-05,1.3519,0.0053058,0,0,0,0,0,0.0294088,0.016,-0.005,-0.157,0,0,0.001,-5.327,13.566,-15.575,0.84,0.11272,0.278982
23:25:12:126875,0.000122173,-0.581998,1.1874,1.74533e-05,1.3519,0.00541052,0,0,0,0,0,0.0238936,0.018,-0.012,-0.039,0,0,0,-4.739,14.686,-16.002,1.085,-0.040861,0.288845
23:25:12:131826,0.000122173,-0.581998,1.1874,1.74533e-05,1.3519,0.00553269,0,0,0,0,0,0.0233351,0.052,-0.01,-0.079,0,0,0,-5.516,13.755,-15.379,1.337,0.177534,0.466379
23:25:12:136989,0.000122173,-0.581998,1.1874,1.74533e-05,1.3519,0.00565487,0,0,0,0,0,0.0242601,0.072,-0.002,-0.182,0,0,0.001,-6.125,13.685,-15.89,1.176,0.047906,0.332524
23:25:12:141935,0.000122173,-0.581998,1.1874,1.74533e-05,1.3519,0.00577704,0,0,0,0,0,0.0234572,0.06,0.012,-0.229,0,0,0.001,-4.543,14.224,-15.575,0.959,0.074677,0.505831
23:25:12:147112,0.000122173,-0.581998,1.1874,1.74533e-05,1.3519,0.00586431,0,0,0,0,0,0.0217294,0.016,0.033,-0.157,0,0,0.001,-5.831,13.916,-15.267,1.008,0.053542,0.426927
23:25:12:152099,0.000122173,-0.581998,1.1874,1.74533e-05,1.3519,0.00598648,0,0,0,0,0,0.022061,0.003,0.048,-0.157,0,0,0.001,-5.432,13.72,-15.617,1.001,0.046497,0.512876
23:25:12:157223,0.000122173,-0.581998,1.1874,1.74533e-05,1.3519,0.0060912,0,0,0,0,0,0.021677,0.028,0.057,-0.271,0,0,0.002,-4.949,13.671,-16.044,0.987,-0.023953,0.431154
23:25:12:162180,0.000122173,-0.581998,1.1874,1.74533e-05,1.3519,0.00619592,0,0,0,0,0,0.0205425,0.058,0.052,-0.345,0,0,0.002,-5.124,13.489,-15.771,0.644,0.08454,0.598825
23:25:12:167360,0.000122173,-0.581998,1.1874,1.74533e-05,1.3519,0.00630064,0,0,0,0,0,0.0204902,0.079,0.035,-0.343,0.001,0,0.002,-5.124,14.532,-15.652,0.812,0.087358,0.467788
23:25:12:172359,0.000122173,-0.581998,1.1874,1.74533e-05,1.3519,0.00640536,0,0,0,0,0,0.0189892,0.068,0.024,-0.265,0.001,0,0.001,-5.852,13.79,-15.463,0.889,0.131037,0.481878
23:25:12:177481,0.000122173,-0.581998,1.1874,1.74533e-05,1.3519,0.00649262,0,0,0,0,0,0.0184132,0.033,0.006,-0.083,0,0,0,-5.733,13.958,-16.079,1.288,0.046497,0.456516
23:25:12:182487,0.000122173,-0.581998,1.1874,1.74533e-05,1.3519,0.00657989,0,0,0,0,0,0.0183609,0.016,0,0.033,0,0,0,-5.432,14.07,-15.575,0.707,0.053542,0.345205
23:25:12:187609,0.000122173,-0.581998,1.1874,1.74533e-05,1.3519,0.00668461,0,0,0,0,0,0.0193033,0.018,0.008,0.088,0,0,-0.001,-5.628,14.07,-16.156,1.631,0,0.390293
23:25:12:192602,0.000122173,-0.581998,1.1874,1.74533e-05,1.3519,0.00677188,0,0,0,0,0,0.0191114,0.031,0.024,0.021,0,0,0,-5.453,14.805,-16.079,1.204,-0.049315,0.252211
23:25:12:197732,0.000122173,-0.581998,1.1874,1.74533e-05,1.3519,0.0068766,0,0,0,0,0,0.0189019,0.045,0.036,-0.137,0,0,0,-5.334,14.392,-16.121,1.155,0.036634,0.250802
23:25:12:202749,0.000122173,-0.581998,1.1874,1.74533e-05,1.3519,0.00696386,0,0,0,0,0,0.0189368,0.046,0.025,-0.213,0,0,0.001,-5.026,15.029,-15.344,0.777,0.128219,0.162035
23:25:12:207732,0.000122173,-0.581998,1.1874,1.74533e-05,1.3519,0.00703368,0,0,0,0,0,0.0160919,0.048,0,-0.264,0,0,0.002,-5.215,14.14,-15.771,1.288,0.040861,0.160626
23:25:12:212860,0.000122173,-0.581998,1.1874,1.74533e-05,1.3519,0.00710349,0,0,0,0,0,0.0142244,0.048,-0.009,-0.27,0,-0.001,0.002,-6.258,13.818,-15.575,0.917,0.071859,0.122583
23:25:12:217785,0.000122173,-0.581998,1.1874,1.74533e-05,1.3519,0.00715585,0,0,0,0,0,0.0130551,0.031,-0.003,-0.203,0,0,0.001,-5.124,14.168,-15.148,1.106,0.030998,0.123992
23:25:12:222966,0.000122173,-0.581998,1.1874,1.74533e-05,1.3519,0.00720821,0,0,0,0,0,0.0109083,0.01,0.005,-0.102,0,0,0,-5.936,14.406,-16.275,1.155,0.150763,0.142309
23:25:12:228095,0.000122173,-0.581998,1.1874,1.74533e-05,1.3519,0.00726057,0,0,0,0,0,0.00951204,-0.004,0.023,0.021,0,0,0,-4.837,13.552,-15.617,0.91,0.150763,0.138082
23:25:12:233105,0.000122173,-0.581998,1.1874,1.74533e-05,1.3519,0.00729548,0,0,0,0,0,0.00776672,0.024,0.044,-0.014,0,0,0,-5.32,14.161,-16.044,0.56,0.015499,0.119765
23:25:12:238108,0.000122173,-0.581998,1.1874,1.74533e-05,1.3519,0.00731293,0,0,0,0,0,0.00666716,0.054,0.052,-0.107,0,0,0.001,-4.83,14.651,-15.694,1.162,0.023953,0.074677
23:25:12:243238,0.000122173,-0.581998,1.1874,1.74533e-05,1.3519,0.00736529,0,0,0,0,0,0.00731293,0.075,0.041,-0.219,0,0,0.002,-5.628,14.427,-16.121,1.057,0.09863,-0.067632
23:25:12:248234,0.000122173,-0.581998,1.1874,1.74533e-05,1.3519,0.0074002,0,0,0,0,0,0.00638791,0.064,0.025,-0.23,0,0,0.001,-5.551,14.161,-15.575,1.211,0.090176,-0.022544
23:25:12:253341,0.000122173,-0.581998,1.1874,1.74533e-05,1.3519,0.00741765,0,0,0,0,0,0.00495674,0.041,0.013,-0.161,0,0,0,-5.439,13.965,-15.148,0.959,0.133855,0.045088
23:25:12:258342,0.000122173,-0.581998,1.1874,1.74533e-05,1.3519,0.00741765,0,0,0,0,0,0.0029147,0.037,0.02,-0.098,0,0,0,-5.432,13.51,-15.575,1.232,0.071859,0.081722
23:25:12:263482,0.000122173,-0.581998,1.1874,1.74533e-05,1.3519,0.0074351,0,0,0,0,0,0.00246091,0.045,0.035,-0.044,0,0,0,-6.048,14.343,-15.344,0.931,0.102857,0.066223
23:25:12:268478,0.000122173,-0.581998,1.1874,1.74533e-05,1.3519,0.00745256,0,0,0,0,0,0.00335103,0.044,0.029,-0.048,0,0,0,-5.936,14.189,-15.652,0.777,0.05636,-0.100039
23:25:12:273465,0.000122173,-0.581998,1.1874,1.74533e-05,1.3519,0.00747001,0,0,0,0,0,0.0039968,0.025,-0.004,-0.088,0,0,0,-5.635,14.518,-15.617,1.127,0.100039,0.029589
23:25:12:278616,0.000122173,-0.581998,1.1874,1.74533e-05,1.3519,0.00748746,0,0,0,0,0,0.00277507,0.021,-0.021,-0.123,0,0,0,-5.334,14.427,-15.386,0.826,-0.002818,0.022544
23:25:12:283612,0.000122173,-0.581998,1.1874,1.74533e-05,1.3519,0.00750492,0,0,0,0,0,0,0.043,-0.013,-0.182,0,0,0.001,-4.928,14.693,-15.813,1.134,-0.049315,-0.023953
23:25:12:288732,0.000122173,-0.581998,1.1874,1.74533e-05,1.3519,0.00750492,0,0,0,0,0,0.00254818,0.057,0.005,-0.192,0.001,-0.001,0.001,-5.53,14.161,-15.617,1.309,0.046497,0.049315
23:25:12:293732,0.000122173,-0.581998,1.1874,1.74533e-05,1.3519,0.00750492,0,0,0,0,0,0,0.04,0.013,-0.083,0,0,0,-5.229,14.042,-16.044,1.057,0.121174,0.032407
23:25:12:298859,0.000122173,-0.581998,1.1874,1.74533e-05,1.3519,0.00752237,0,0,0,0,0,0.00287979,0.012,0,0.041,0,0,0,-5.124,14.574,-15.54,0.882,0.087358,0.07045
23:25:12:303853,0.000122173,-0.581998,1.1874,1.74533e-05,1.3519,0.00753982,0,0,0,0,0,0.00244346,-0.011,-0.014,0.113,0,0,0,-5.229,14.308,-15.729,1.127,0.046497,-0.094403
23:25:12:308802,0.000122173,-0.581998,1.1874,1.74533e-05,1.3519,0.00755728,0,0,0,0,0,0,-0.018,-0.004,0.024,0,0,0,-5.537,14.182,-16.044,1.106,0.071859,-0.04227
23:25:12:313981,0.000122173,-0.581998,1.1874,1.74533e-05,1.3519,0.00755728,0,0,0,0,0,0.00214676,-0.044,0.025,-0.173,0,0,0.001,-5.831,14.063,-16.079,0.7,-0.018317,-0.311389
23:25:12:319100,0.000122173,-0.581998,1.1874,1.74533e-05,1.3519,0.00755728,0,0,0,0,0,0,-0.062,0.045,-0.244,0,0,0.002,-5.544,14.756,-15.421,1.575,0.025362,0.018317
23:25:12:324121,0.000122173,-0.581998,1.1874,1.74533e-05,1.3519,0.00757473,0,0,0,0,0,0,-0.035,0.052,-0.238,0,0,0.001,-5.642,14.511,-15.806,0.679,0.128219,-0.07045
23:25:12:329088,0.000122173,-0.581998,1.1874,1.74533e-05,1.3519,0.00757473,0,0,0,0,0,0,0.049,0.063,-0.247,0,0,0.001,-5.236,14.14,-15.344,0.749,0.067632,0.04227
23:25:12:334229,0.000122173,-0.581998,1.1874,1.74533e-05,1.3519,0.00759218,0,0,0,0,0,0.00218166,0.087,0.066,-0.249,0,0,0.002,-5.124,13.65,-15.967,1.75,0.046497,0.077495
23:25:12:339227,0.000122173,-0.581998,1.1874,1.74533e-05,1.3519,0.00759218,0,0,0,0,0,0,0.068,0.051,-0.186,0,0,0.002,-6.153,14.084,-16.198,0.707,0.033816,0.036634
23:25:12:344339,0.000122173,-0.581998,1.1874,1.74533e-05,1.3519,0.00759218,0,0,0,0,0,0,0.028,0.035,-0.141,0,0,0.001,-5.544,14.224,-15.925,1.239,0.074677,0.080313
23:25:12:349337,0.000122173,-0.581998,1.1874,1.74533e-05,1.3519,0.00759218,0,0,0,0,0,0,-0.009,0.032,-0.195,0,0,0.001,-5.635,14.413,-15.694,1.176,-0.018317,-0.033816
23:25:12:354467,0.000122173,-0.581998,1.1874,1.74533e-05,1.3519,0.00760964,0,0,0,0,0,0,-0.006,0.043,-0.305,0,0,0.001,-4.823,14.231,-15.498,1.085,0.050724,0.080313
23:25:12:359464,0.000122173,-0.581998,1.1874,1.74533e-05,1.3519,0.00760964,0,0,0,0,0,0,0.022,0.052,-0.431,0,0,0.002,-5.229,13.552,-15.771,0.91,0.059178,-0.118356
23:25:12:364591,0.000122173,-0.581998,1.1874,1.74533e-05,1.3519,0.00760964,0,0,0,0,0,0,0.047,0.041,-0.418,0,0,0.002,-5.229,14.105,-15.463,1.162,0.002818,0.067632
23:25:12:369590,0.000122173,-0.581998,1.1874,1.74533e-05,1.3519,0.00760964,0,0,0,0,0,0,0.078,0.014,-0.269,0,0,0.001,-5.327,13.853,-15.617,0.525,-0.021135,-0.180352
23:25:12:374589,0.000122173,-0.581998,1.1874,1.74533e-05,1.3519,0.00760964,0,0,0,0,0,0,0.088,0.003,-0.16,0,0,0,-5.334,14.476,-15.806,0.812,0.018317,-0.018317
23:25:12:379716,0.000122173,-0.581998,1.1874,1.74533e-05,1.3519,0.00760964,0,0,0,0,0,0,0.09,0.007,-0.127,0,0,0,-5.432,13.958,-15.806,1.113,0.102857,-0.07045
23:25:12:384750,0.000122173,-0.581998,1.1874,1.74533e-05,1.3519,0.00760964,0,0,0,0,0,0,0.093,0.017,-0.21,0,0,0.001,-5.635,13.832,-15.848,1.358,0.01409,-0.015499
23:25:12:389869,0.000122173,-0.581998,1.1874,1.74533e-05,1.3519,0.00760964,0,0,0,0,0,0,0.089,0.021,-0.339,0,0,0.003,-5.439,14.077,-15.729,1.337,0.052133,-0.078904
23:25:12:394860,0.000122173,-0.581998,1.1874,1.74533e-05,1.3519,0.00762709,0,0,0,0,0,0,0.058,0.006,-0.304,0,0,0.002,-5.432,13.769,-15.967,1.015,0.009863,-0.001409
23:25:12:399973,0.000122173,-0.581998,1.1874,1.74533e-05,1.3519,0.00762709,0,0,0,0,0,0,-0.024,-0.032,-0.074,0,0,0,-5.243,13.769,-15.967,1.449,0.071859,0.026771
23:25:12:404957,0.000122173,-0.581998,1.1874,1.74533e-05,1.3519,0.00762709,0,0,0,0,0,0,-0.06,-0.047,0.052,0,0,-0.001,-5.334,14.735,-15.806,0.784,0.11272,-0.001409
23:25:12:409960,0.000122173,-0.581998,1.1874,1.74533e-05,1.3519,0.00762709,0,0,0,0,0,0,-0.025,-0.025,0.012,0,0,-0.001,-5.341,13.944,-16.121,1.134,0.064814,-0.107084
23:25:12:415082,0.000122173,-0.581998,1.1874,1.74533e-05,1.3519,0.00762709,0,0,0,0,0,0,0.042,0.021,-0.15,0,0,0,-5.026,13.881,-15.694,1.106,0.087358,-0.069041
23:25:12:420225,0.000122173,-0.581998,1.1874,1.74533e-05,1.3519,0.00762709,0,0,0,0,0,0,0.037,0.035,-0.169,0,0,0.001,-4.515,14.497,-15.729,0.777,-0.095812,-0.032407
23:25:12:425225,0.000122173,-0.581998,1.1874,1.74533e-05,1.3519,0.00762709,0,0,0,0,0,0,-0.053,0.027,-0.068,0,0,0,-4.921,14.455,-15.967,1.449,0.005636,0.032407
23:25:12:430331,0.000122173,-0.581998,1.1874,1.74533e-05,1.3519,0.00762709,0,0,0,0,0,0,-0.119,0.022,-0.048,0,0,-0.001,-5.327,14.721,-16.233,0.714,0.061996,-0.045088
23:25:12:435372,0.000122173,-0.581998,1.1874,1.74533e-05,1.3519,0.00764454,0,0,0,0,0,0,-0.158,0.04,-0.216,0,0,0,-5.74,14.609,-15.036,0.952,-0.011272,-0.023953
23:25:12:440333,0.000122173,-0.581998,1.1874,1.74533e-05,1.3519,0.00764454,0,0,0,0,0,0,-0.152,0.06,-0.373,0,0.001,0,-5.103,13.839,-15.302,1.057,0.108493,0.057769
23:25:12:445475,0.000122173,-0.581998,1.1874,1.74533e-05,1.3519,0.007662,0,0,0,0,0,0,-0.131,0.067,-0.415,0,0.001,0.001,-6.342,14.343,-16.044,0.616,0.052133,0.022544
23:25:12:450475,0.000122173,-0.581998,1.1874,1.74533e-05,1.3519,0.007662,0,0,0,0,0,0,-0.124,0.048,-0.266,0,0.001,0,-5.523,14.539,-15.456,0.553,0.015499,-0.022544
23:25:12:455427,0.000122173,-0.581998,1.1874,1.74533e-05,1.3519,0.007662,0,0,0,0,0,0,-0.131,0.003,0.035,0,0,-0.001,-5.334,14.077,-16.044,1.155,-0.046497,-0.057769
23:25:12:460598,0.000122173,-0.581998,1.1874,1.74533e-05,1.3519,0.007662,0,0,0,0,0,0,-0.145,-0.02,0.135,0,0,-0.002,-5.943,14.84,-16.002,0.665,0.026771,0.046497
23:25:12:465717,0.000122173,-0.581998,1.1874,1.74533e-05,1.3519,0.007662,0,0,0,0,0,0,-0.154,-0.034,0.047,0,0,-0.002,-5.95,14.007,-14.959,1.001,0.005636,-0.011272
23:25:12:470723,0.000122173,-0.581998,1.1874,1.74533e-05,1.3519,0.007662,0,0,0,0,0,0,-0.141,-0.031,-0.081,0,0,-0.001,-5.733,14.266,-15.225,1.008,-0.029589,-0.069041
23:25:12:475708,0.000122173,-0.581998,1.1874,1.74533e-05,1.3519,0.007662,0,0,0,0,0,0,-0.093,-0.012,-0.205,0,0,0,-5.642,13.776,-15.806,1.253,0.023953,0.001409
23:25:12:480863,0.000122173,-0.581998,1.1874,1.74533e-05,1.3519,0.007662,0,0,0,0,0,0,-0.053,0.012,-0.239,0,0,0,-5.327,14.21,-15.54,1.428,0.128219,-0.107084
23:25:12:485798,0.000122173,-0.581998,1.1874,1.74533e-05,1.3519,0.007662,0,0,0,0,0,0,0.001,0.058,-0.333,0.001,0,0.002,-5.222,14.427,-15.848,1.4,0.081722,-0.059178
23:25:12:490997,0.000122173,-0.581998,1.1874,1.74533e-05,1.3519,0.00759218,0,0,0,0,0,-0.00867429,0.02,0.079,-0.433,0.001,0,0.003,-5.642,14.679,-16.156,1.225,0.215577,0.57769
23:25:12:495971,0.000122173,-0.581998,1.1874,1.74533e-05,1.3519,0.00757473,0,0,0,0,0,-0.00509636,0.003,0.073,-0.47,0,0,0.003,-5.838,13.72,-15.19,1.232,0.054951,0.224031
23:25:12:501095,0.000122173,-0.581998,1.1874,1.74533e-05,1.3519,0.00757473,0,0,0,0,0,0,-0.042,0.035,-0.251,0,0,0.001,-4.935,12.999,-15.652,1.351,0.092994,0.026771
23:25:12:506104,0.00010472,-0.581998,1.1874,1.74533e-05,1.3519,0.00757473,0,0,0,0,0,0,-0.052,0.015,-0.06,0,0,0,-5.026,14.077,-15.54,0.938,0.049315,0.102857
23:25:12:511223,0.00010472,-0.581998,1.1874,1.74533e-05,1.3519,0.00757473,0,0,0,0,0,0,-0.014,0.013,0.074,0,0,-0.001,-5.432,14.385,-15.925,1.099,0.011272,-0.038043
23:25:12:516206,0.00010472,-0.581998,1.1874,1.74533e-05,1.3519,0.00757473,0,0,0,0,0,0,0.023,0.024,0.049,0,0,0,-4.62,14.917,-16.233,0.833,0.119765,0.050724
23:25:12:521331,0.00010472,-0.581998,1.1874,1.74533e-05,1.3519,0.00757473,0,0,0,0,0,0,0.057,0.039,-0.038,0,0,0,-5.635,14.119,-15.694,0.938,0.095812,0.045088
23:25:12:526332,0.00010472,-0.581998,1.1874,1.74533e-05,1.3519,0.00757473,0,0,0,0,0,0,0.064,0.04,-0.092,0,0,0.001,-5.334,13.944,-16.156,0.987,0.087358,0.069041
23:25:12:531286,0.00010472,-0.581998,1.1874,1.74533e-05,1.3519,0.00757473,0,0,0,0,0,0,0.072,0.022,-0.183,0,0,0.002,-5.432,13.874,-15.54,0.903,0.077495,0.077495
23:25:12:536455,0.00010472,-0.581998,1.1874,1.74533e-05,1.3519,0.00757473,0,0,0,0,0,0,0.075,0.001,-0.243,0,0,0.003,-5.537,14.798,-15.883,1.155,0.049315,0.212759
23:25:12:541469,0.00010472,-0.581998,1.1874,1.74533e-05,1.3519,0.00757473,0,0,0,0,0,0,0.076,-0.016,-0.288,0,-0.001,0.004,-5.334,14.609,-16.548,1.134,-0.002818,0.074677
23:25:12:546594,0.00010472,-0.581998,1.1874,1.74533e-05,1.3519,0.00757473,0,0,0,0,0,0,0.082,-0.003,-0.29,0,-0.001,0.003,-5.432,14.14,-15.113,0.588,-0.036634,0.088767
23:25:12:551574,0.00010472,-0.581998,1.1874,1.74533e-05,1.3519,0.00757473,0,0,0,0,0,0,0.106,0.047,-0.3,0,0,0.002,-5.334,14.035,-15.148,1.337,0.092994,0.283209
23:25:12:556722,0.00010472,-0.581998,1.1874,1.74533e-05,1.3519,0.00757473,0,0,0,0,0,0,0.115,0.075,-0.312,0,0,0.002,-5.019,13.489,-14.994,1.253,0.067632,0.1409
23:25:12:561846,0.00010472,-0.581998,1.1874,1.74533e-05,1.3519,0.00757473,0,0,0,0,0,0,0.086,0.074,-0.296,0,0,0.002,-5.327,14.301,-15.302,1.68,0.009863,0.09863
23:25:12:566985,0.00010472,-0.581998,1.1874,1.74533e-05,1.3519,0.00757473,0,0,0,0,0,0,0.048,0.051,-0.268,0,0,0.001,-5.53,13.615,-15.967,0.931,-0.021135,0.188806
23:25:12:571826,0.00010472,-0.581998,1.1874,1.74533e-05,1.3519,0.00757473,0,0,0,0,0,0,0.01,0.025,-0.269,0,0,0.002,-5.124,14.7,-14.994,1.232,-0.008454,0.240939
23:25:12:576968,0.00010472,-0.581998,1.1874,1.74533e-05,1.3519,0.00757473,0,0,0,0,0,0,0.013,0.028,-0.303,0.001,0,0.002,-5.327,14.035,-15.806,1.323,0.059178,0.131037
23:25:12:581968,0.00010472,-0.581998,1.1874,1.74533e-05,1.3519,0.00757473,0,0,0,0,0,0,0.037,0.051,-0.331,0.001,0,0.003,-5.432,14.343,-15.267,0.7,0.067632,0.269119
23:25:12:587095,0.00010472,-0.581998,1.1874,1.74533e-05,1.3519,0.00757473,0,0,0,0,0,0,0.04,0.061,-0.298,0,0,0.003,-5.229,14.49,-16.044,0.987,0.09863,0.193033
23:25:12:592075,0.00010472,-0.581998,1.1874,1.74533e-05,1.3519,0.00757473,0,0,0,0,0,0,0.024,0.051,-0.278,0,0,0.002,-5.95,14.35,-15.575,0.882,0.005636,0.236712
23:25:12:597219,0.00010472,-0.581998,1.1874,1.74533e-05,1.3519,0.00757473,0,0,0,0,0,0,0.002,0.019,-0.275,0,0,0.001,-5.131,14.49,-15.456,1.526,0.046497,0.18317
23:25:12:602150,0.00010472,-0.581998,1.1874,1.74533e-05,1.3519,0.00757473,0,0,0,0,0,0,0.004,-0.003,-0.244,0,0,0,-5.229,14.189,-15.694,1.239,0.133855,0.246575
23:25:12:607172,0.00010472,-0.581998,1.1874,1.74533e-05,1.3519,0.00757473,0,0,0,0,0,0,0.026,-0.018,-0.103,0.001,0,0,-5.53,14.021,-15.54,0.679,0.021135,0.19726
23:25:12:612330,0.00010472,-0.581998,1.1874,1.74533e-05,1.3519,0.00757473,0,0,0,0,0,0,0.036,-0.01,0.007,0,0,0,-6.041,13.881,-15.617,1.61,0.171898,0.264892
23:25:12:617276,0.00010472,-0.581998,1.1874,1.74533e-05,1.3519,0.00757473,0,0,0,0,0,0,0.024,0.019,0.064,0,0,0,-5.537,14.847,-16.198,1.155,0.015499,0.260665
23:25:12:622427,0.00010472,-0.581998,1.1874,1.74533e-05,1.3519,0.00757473,0,0,0,0,0,0,0.011,0.038,0.011,0,0,0,-5.432,14.497,-15.421,1.33,-0.049315,0.240939
23:25:12:627415,0.00010472,-0.581998,1.1874,1.74533e-05,1.3519,0.00757473,0,0,0,0,0,0,0.018,0.049,-0.124,0,0,0.001,-5.537,13.083,-16.002,1.372,-0.067632,0.107084
23:25:12:632592,0.00010472,-0.581998,1.1874,1.74533e-05,1.3519,0.00757473,0,0,0,0,0,0,0.042,0.048,-0.201,0,0,0.001,-6.139,14.245,-15.652,1.148,0.108493,0.273346
23:25:12:637577,0.00010472,-0.581998,1.1874,1.74533e-05,1.3519,0.00757473,0,0,0,0,0,0,0.07,0.042,-0.263,0,0,0.002,-5.131,14.301,-14.875,1.239,0.054951,0.419882
23:25:12:642520,0.00010472,-0.581998,1.1874,1.74533e-05,1.3519,0.00757473,0,0,0,0,0,0,0.055,0.037,-0.269,0,0,0.002,-5.74,14.21,-15.694,1.337,0.01409,0.311389
23:25:12:647698,0.00010472,-0.581998,1.1874,1.74533e-05,1.3519,0.00757473,0,0,0,0,0,0,-0.014,0.026,-0.244,0,0,0.001,-5.53,13.286,-15.729,1.386,0.159217,0.388884
23:25:12:652699,0.00010472,-0.581998,1.1874,1.74533e-05,1.3519,0.00757473,0,0,0,0,0,0,-0.057,0.021,-0.228,0,0,0.001,-5.432,14.651,-15.19,1.134,0.081722,0.331115
23:25:12:657840,0.00010472,-0.581998,1.1874,1.74533e-05,1.3519,0.00757473,0,0,0,0,0,0,-0.058,0.02,-0.201,0,0,0.001,-5.838,13.349,-16.233,1.029,-0.023953,0.388884
23:25:12:662826,0.00010472,-0.581998,1.1874,1.74533e-05,1.3519,0.00757473,0,0,0,0,0,0,-0.022,0.018,-0.141,0,0,0.001,-5.439,14.035,-15.806,1.652,0.097221,0.283209
23:25:12:667952,0.00010472,-0.581998,1.1874,1.74533e-05,1.3519,0.00757473,0,0,0,0,0,0,0.033,0.003,0.031,0,0,0.001,-5.432,13.678,-15.498,0.889,0.059178,0.373385
23:25:12:672950,0.00010472,-0.581998,1.1874,1.74533e-05,1.3519,0.00757473,0,0,0,0,0,0,0.05,-0.008,0.131,0,0,0,-5.222,13.692,-15.225,0.91,0.026771,0.278982
23:25:12:678090,0.00010472,-0.581998,1.1874,1.74533e-05,1.3519,0.00757473,0,0,0,0,0,0,0.059,-0.008,0.126,0,0,0,-4.718,14.14,-15.925,1.239,0.046497,0.307162
23:25:12:683095,0.00010472,-0.581998,1.1874,1.74533e-05,1.3519,0.00757473,0,0,0,0,0,0,0.069,0.007,0.007,0,0,0,-5.74,14.147,-15.225,1.127,0.071859,0.350841
23:25:12:688215,0.00010472,-0.581998,1.1874,1.74533e-05,1.3519,0.00757473,0,0,0,0,0,0,0.066,0.012,-0.023,0.001,0,0,-5.635,14.266,-15.386,1.883,0.015499,0.061996
23:25:12:693165,0.00010472,-0.581998,1.1874,1.74533e-05,1.3519,0.00757473,0,0,0,0,0,0,0.038,0.011,-0.004,0.001,0,0,-5.635,14.469,-15.848,1.337,0.08454,-0.122583
23:25:12:698338,0.00010472,-0.581998,1.1874,1.74533e-05,1.3519,0.00757473,0,0,0,0,0,0,0.013,0.021,-0.041,0.001,0,0,-5.838,13.657,-16.66,0.791,-0.005636,-0.036634
23:25:12:703338,0.00010472,-0.581998,1.1874,1.74533e-05,1.3519,0.00757473,0,0,0,0,0,0,-0.007,0.054,-0.19,0.001,0,0.001,-5.544,14.147,-16.002,0.679,0.067632,0.08454
23:25:12:708464,0.00010472,-0.581998,1.1874,1.74533e-05,1.3519,0.00757473,0,0,0,0,0,0,-0.011,0.063,-0.242,0.001,0,0.001,-5.334,13.923,-15.883,1.736,0.053542,0.07045
23:25:12:713450,0.00010472,-0.581998,1.1874,1.74533e-05,1.3519,0.00757473,0,0,0,0,0,0,-0.019,0.037,-0.148,0,0,0,-5.229,14.301,-15.883,1.127,0.043679,-0.004227
23:25:12:718572,0.00010472,-0.581998,1.1874,1.74533e-05,1.3519,0.00757473,0,0,0,0,0,0,-0.021,0.011,-0.07,0,0,0,-5.537,13.454,-15.071,0.777,-0.018317,0.046497
23:25:12:723537,0.00010472,-0.581998,1.1874,1.74533e-05,1.3519,0.00757473,0,0,0,0,0,0,-0.005,0.003,-0.102,0,0,0,-5.53,14.119,-15.344,1.918,-0.023953,-0.090176
23:25:12:728518,0.00010472,-0.581998,1.1874,1.74533e-05,1.3519,0.00757473,0,0,0,0,0,0,0.013,0.016,-0.166,0,0,0.001,-6.034,14.322,-15.302,1.015,0.066223,-0.023953
23:25:12:733646,0.00010472,-0.581998,1.1874,1.74533e-05,1.3519,0.00757473,0,0,0,0,0,0,0.027,0.019,-0.139,0,0,0.001,-5.642,14.007,-15.883,1.211,0.05636,0.032407
23:25:12:738839,0.00010472,-0.581998,1.1874,1.74533e-05,1.3519,0.00757473,0,0,0,0,0,0,0.019,0.004,-0.054,0,0,0,-5.628,13.468,-15.771,0.966,0.107084,-0.004227
23:25:12:743837,0.00010472,-0.581998,1.1874,1.74533e-05,1.3519,0.00757473,0,0,0,0,0,0,0.003,-0.015,-0.012,0,0,0,-5.327,13.797,-16.471,0.763,0.164853,0.018317
23:25:12:748766,0.00010472,-0.581998,1.1874,1.74533e-05,1.3519,0.00757473,0,0,0,0,0,0,0.005,-0.014,-0.061,0,0,0.001,-4.921,13.965,-15.883,1.036,0.002818,0
23:25:12:753963,0.00010472,-0.581998,1.1874,1.74533e-05,1.3519,0.00757473,0,0,0,0,0,0,0.024,-0.005,-0.09,0,0,0.001,-5.635,14.224,-16.121,1.624,-0.026771,-0.05636
23:25:12:758957,0.00010472,-0.581998,1.1874,1.74533e-05,1.3519,0.00757473,0,0,0,0,0,0,0.033,-0.003,-0.037,0,0,0.001,-5.537,14.35,-15.19,0.931,0.091585,-0.008454
23:25:12:764086,0.00010472,-0.581998,1.1874,1.74533e-05,1.3519,0.00757473,0,0,0,0,0,0,0.032,-0.004,0.03,0,0,0,-5.334,14.455,-15.771,1.036,0.081722,0.022544
23:25:12:769072,0.00010472,-0.581998,1.1874,1.74533e-05,1.3519,0.00757473,0,0,0,0,0,0,0.033,0,0.003,0,0,0,-5.229,13.615,-15.498,1.47,0.074677,0.074677
23:25:12:774212,0.00010472,-0.581998,1.1874,1.74533e-05,1.3519,0.00757473,0,0,0,0,0,0,0.044,0.009,-0.077,0,0,0.001,-5.124,13.076,-16.121,1.575,0.071859,-0.008454
23:25:12:779155,0.00010472,-0.581998,1.1874,1.74533e-05,1.3519,0.00757473,0,0,0,0,0,0,0.046,0.012,-0.09,0,0,0.001,-5.327,14.553,-15.967,0.644,-0.021135,0.046497
23:25:12:784209,0.00010472,-0.581998,1.1874,1.74533e-05,1.3519,0.00757473,0,0,0,0,0,0,0.032,0.013,-0.069,0,0,0,-5.334,14.084,-15.967,1.302,0.090176,0.008454
23:25:12:789326,0.00010472,-0.581998,1.1874,1.74533e-05,1.3519,0.00757473,0,0,0,0,0,0,0,0.017,-0.04,0,0,0,-5.327,13.916,-15.617,1.435,0,0.008454
23:25:12:794322,0.00010472,-0.581998,1.1874,1.74533e-05,1.3519,0.00757473,0,0,0,0,0,0,-0.015,0.017,-0.01,0,0,0,-5.019,14.658,-15.54,1.449,-0.054951,0.008454
23:25:12:799462,0.00010472,-0.581998,1.1874,1.74533e-05,1.3519,0.00757473,0,0,0,0,0,0,-0.02,0.01,0.054,0,0,0,-5.432,14,-15.729,1.26,-0.043679,0.026771
23:25:12:804384,0.00010472,-0.581998,1.1874,1.74533e-05,1.3519,0.00757473,0,0,0,0,0,0,-0.015,0.004,0.076,0,0,0,-5.432,13.776,-15.806,1.155,0.071859,-0.008454
23:25:12:809567,0.00010472,-0.581998,1.1874,1.74533e-05,1.3519,0.00757473,0,0,0,0,0,0,-0.001,0,0.043,0,0,0,-6.146,14.371,-15.575,0.966,0.153581,0.04227
23:25:12:814570,0.00010472,-0.581998,1.1874,1.74533e-05,1.3519,0.00757473,0,0,0,0,0,0,0.009,-0.002,0.018,0,0,0,-4.921,14.182,-16.044,1.148,0.012681,-0.038043
23:25:12:819707,0.00010472,-0.581998,1.1874,1.74533e-05,1.3519,0.00757473,0,0,0,0,0,0,0.017,-0.004,0.032,0,0,0,-5.033,14.035,-15.379,1.925,0.049315,0.02818
23:25:12:824691,0.00010472,-0.581998,1.1874,1.74533e-05,1.3519,0.00757473,0,0,0,0,0,0,0.016,-0.001,0.037,0,0,0,-5.53,13.881,-16.044,0.504,0.015499,0.008454
23:25:12:829833,0.00010472,-0.581998,1.1874,1.74533e-05,1.3519,0.00757473,0,0,0,0,0,0,0.017,0.014,-0.059,0,0,0,-4.928,14,-15.967,0.938,0.015499,-0.136673
23:25:12:834778,0.00010472,-0.581998,1.1874,1.74533e-05,1.3519,0.00757473,0,0,0,0,0,0,0.024,0.03,-0.167,0,0,0.001,-4.928,14.161,-15.729,1.47,0,-0.018317
23:25:12:839764,0.00010472,-0.581998,1.1874,1.74533e-05,1.3519,0.00757473,0,0,0,0,0,0,0.033,0.043,-0.219,0,0,0.002,-5.635,14.721,-16.044,0.686,-0.023953,-0.104266
23:25:12:844944,0.00010472,-0.581998,1.1874,1.74533e-05,1.3519,0.00757473,0,0,0,0,0,0,0.024,0.036,-0.131,0,0,0.001,-6.041,14.203,-15.421,0.903,0.015499,-0.071859
23:25:12:850075,0.00010472,-0.581998,1.1874,1.74533e-05,1.3519,0.00757473,0,0,0,0,0,0,-0.002,0.009,0.038,0,0,0,-5.124,13.902,-16.121,0.959,0.036634,-0.061996
23:25:12:855022,0.00010472,-0.582015,1.1874,1.74533e-05,1.3519,0.00757473,0,0,0,0,0,0,-0.008,-0.009,0.052,0,0,-0.001,-5.635,14.238,-15.771,0.903,0.059178,0.078904
23:25:12:860022,0.00010472,-0.582015,1.1874,1.74533e-05,1.3519,0.00757473,0,0,0,0,0,0,0.02,-0.024,-0.093,0.001,0,0,-5.124,14.35,-15.302,1.134,-0.016908,-0.030998
23:25:12:865195,0.00010472,-0.582015,1.1874,1.74533e-05,1.3519,0.00757473,0,0,0,0,0,0,0.058,-0.016,-0.238,0.001,0,0.002,-5.117,14.119,-16.471,1.561,0.087358,0.047906
23:25:12:870319,0.00010472,-0.582015,1.1874,1.74533e-05,1.3519,0.00757473,0,0,0,0,0,0,0.062,0.001,-0.264,0.001,0,0.002,-5.222,13.636,-16.079,1.435,-0.036634,0.136673
23:25:12:875315,0.00010472,-0.582015,1.1874,1.74533e-05,1.3519,0.00757473,0,0,0,0,0,0,0.045,0.04,-0.267,0,0,0.003,-5.838,15.302,-15.967,1.071,0.071859,0.066223
23:25:12:880334,0.00010472,-0.582015,1.1874,1.74533e-05,1.3519,0.00757473,0,0,0,0,0,0,0.039,0.062,-0.28,0,0,0.003,-5.53,14.371,-15.036,1.47,0.011272,0.05636
23:25:12:885442,0.00010472,-0.582015,1.1874,1.74533e-05,1.3519,0.00757473,0,0,0,0,0,0,0.045,0.062,-0.247,0,0,0.002,-5.544,14.28,-15.806,0.931,0.061996,-0.026771
23:25:12:890440,0.00010472,-0.582015,1.1874,1.74533e-05,1.3519,0.00757473,0,0,0,0,0,0,0.041,0.037,-0.137,0,0,0,-5.432,14.161,-15.89,0.805,0.08454,-0.150763
23:25:12:895574,0.00010472,-0.582015,1.1874,1.74533e-05,1.3519,0.00757473,0,0,0,0,0,0,0.009,-0.008,0.106,0,0,0,-5.943,13.783,-15.89,1.47,0.040861,-0.008454
23:25:12:900544,0.00010472,-0.582015,1.1874,1.74533e-05,1.3519,0.00757473,0,0,0,0,0,0,-0.016,-0.026,0.205,0,0,-0.001,-5.229,13.734,-15.575,0.686,0.077495,0.046497
23:25:12:905566,0.00010472,-0.582015,1.1874,1.74533e-05,1.3519,0.00757473,0,0,0,0,0,0,-0.03,-0.022,0.094,0,0,0,-5.432,14.644,-16.548,1.736,0.046497,0.026771
23:25:12:910692,0.00010472,-0.582015,1.1874,1.74533e-05,1.3519,0.00757473,0,0,0,0,0,0,-0.017,-0.01,-0.127,0,0,0.001,-5.131,14.147,-15.694,0.826,-0.078904,-0.008454
23:25:12:915651,0.00010472,-0.582015,1.1874,1.74533e-05,1.3519,0.00757473,0,0,0,0,0,0,0.016,0.001,-0.453,0,0.001,0.003,-5.943,14.924,-15.617,0.742,0.033816,-0.04227
23:25:12:920762,0.00010472,-0.582015,1.1874,1.74533e-05,1.3519,0.00757473,0,0,0,0,0,0,0.038,0.006,-0.529,0,0.001,0.004,-5.439,14.266,-15.386,0.966,0.153581,-0.053542
23:25:12:925777,0.00010472,-0.582015,1.1874,1.74533e-05,1.3519,0.00757473,0,0,0,0,0,0,0.05,0.019,-0.375,0,0,0.003,-5.831,13.265,-15.267,0.49,-0.008454,0.008454
23:25:12:930957,0.00010472,-0.582015,1.1874,1.74533e-05,1.3519,0.00757473,0,0,0,0,0,0,0.045,0.03,-0.173,0,0,0.001,-5.222,14.427,-15.302,1.323,0.118356,-0.018317
23:25:12:935935,0.00010472,-0.582015,1.1874,1.74533e-05,1.3519,0.00757473,0,0,0,0,0,0,0.039,0.028,0.071,0,0,0,-5.635,13.356,-15.967,1.155,0.067632,-0.008454
23:25:12:941077,0.00010472,-0.582015,1.1874,1.74533e-05,1.3519,0.00757473,0,0,0,0,0,0,0.054,-0.007,0.102,0,0,0,-5.327,15.113,-15.54,1.365,0.059178,0.022544
23:25:12:946025,0.00010472,-0.582015,1.1874,1.74533e-05,1.3519,0.00757473,0,0,0,0,0,0,0.065,-0.032,0.021,0,0,0,-4.921,14.392,-15.267,0.574,0.023953,0.174716
23:25:12:951013,0.00010472,-0.582015,1.1874,1.74533e-05,1.3519,0.00757473,0,0,0,0,0,0,0.069,-0.038,-0.084,0,0,0.001,-5.117,14.245,-15.652,1.421,0.115538,-0.07045
23:25:12:956153,0.00010472,-0.582015,1.1874,1.74533e-05,1.3519,0.00757473,0,0,0,0,0,0,0.068,0,-0.199,0.001,0,0.002,-5.95,13.587,-15.225,1.414,0.023953,-0.026771
23:25:12:961332,0.00010472,-0.582015,1.1874,1.74533e-05,1.3519,0.00757473,0,0,0,0,0,0,0.083,0.055,-0.228,0.001,0,0.002,-5.642,14.189,-15.617,1.008,-0.074677,0.030998
23:25:12:966276,0.00010472,-0.582015,1.1874,1.74533e-05,1.3519,0.00757473,0,0,0,0,0,0,0.093,0.07,-0.215,0.001,0,0.002,-5.635,14.105,-15.729,0.574,0.067632,-0.022544
23:25:12:971327,0.00010472,-0.582015,1.1874,1.74533e-05,1.3519,0.00757473,0,0,0,0,0,0,0.077,0.054,-0.182,0,0,0.002,-4.921,14.098,-15.456,1.043,0.052133,0.104266
23:25:12:976456,0.00010472,-0.582015,1.1874,1.74533e-05,1.3519,0.00757473,0,0,0,0,0,0,0.052,0.033,-0.168,0,0,0.001,-5.432,14.644,-15.575,0.574,0.043679,-0.01409
23:25:12:981435,0.00010472,-0.582015,1.1874,1.74533e-05,1.3519,0.00757473,0,0,0,0,0,0,0.025,0.009,-0.141,0,0,0.001,-5.74,14.7,-15.344,0.749,0.081722,0.008454
23:25:12:986396,0.00010472,-0.582015,1.1874,1.74533e-05,1.3519,0.00757473,0,0,0,0,0,0,0.02,-0.002,-0.09,0,0,0,-5.74,14,-15.806,0.924,0.074677,0.095812
23:25:12:991522,0.00010472,-0.582015,1.1874,1.74533e-05,1.3519,0.00757473,0,0,0,0,0,0,0.017,-0.016,0.031,0,0,0,-5.026,13.573,-16.156,1.246,0.133855,0.033816
23:25:12:996704,0.00010472,-0.582015,1.1874,1.74533e-05,1.3519,0.00757473,0,0,0,0,0,0,0.021,-0.014,0.088,0,0,0,-5.537,14.469,-16.079,0.805,0.053542,-0.033816
23:25:13:1684,0.00010472,-0.582015,1.1874,1.74533e-05,1.3519,0.00757473,0,0,0,0,0,0,0.049,0.01,0.046,0,0,0,-5.222,14.679,-15.89,0.931,0.092994,-0.080313
23:25:13:6837,0.00010472,-0.582015,1.1874,1.74533e-05,1.3519,0.00757473,0,0,0,0,0,0,0.07,0.029,-0.053,0,0,0.001,-5.334,14.322,-16.002,1.589,0.115538,-0.026771
23:25:13:11824,0.00010472,-0.582015,1.1874,1.74533e-05,1.3519,0.00757473,0,0,0,0,0,0,0.072,0.033,-0.212,0.001,-0.001,0.002,-5.222,14.147,-16.394,1.232,0.074677,-0.02818
23:25:13:16777,0.00010472,-0.582015,1.1874,1.74533e-05,1.3519,0.00757473,0,0,0,0,0,0,0.056,0.024,-0.292,0.001,-0.001,0.002,-5.642,13.678,-15.19,1.015,-0.015499,0.030998
23:25:13:21950,0.00010472,-0.582015,1.1874,1.74533e-05,1.3519,0.00757473,0,0,0,0,0,0,0.048,0.019,-0.36,0.001,-0.001,0.002,-5.628,13.622,-15.967,1.687,0.074677,0.266301
23:25:13:26950,0.00010472,-0.582015,1.1874,1.74533e-05,1.3519,0.00757473,0,0,0,0,0,0,0.063,0.023,-0.356,0.001,-0.001,0.002,-5.439,14.427,-15.302,1.029,0.071859,0.08454
23:25:13:32058,0.00010472,-0.582015,1.1874,1.74533e-05,1.3519,0.00757473,0,0,0,0,0,0,0.085,0.02,-0.274,0.001,0,0.003,-5.327,14.427,-15.267,0.805,-0.015499,0.008454
23:25:13:37004,0.00010472,-0.582015,1.1874,1.74533e-05,1.3519,0.00757473,0,0,0,0,0,0,0.082,0.012,-0.222,0.001,0,0.003,-5.53,13.545,-15.806,1.015,0.05636,0.094403
23:25:13:42182,0.00010472,-0.582015,1.1874,1.74533e-05,1.3519,0.00757473,0,0,0,0,0,0,0.06,0.013,-0.234,0.001,0,0.002,-6.342,14.455,-15.421,0.756,0.002818,0.071859
23:25:13:47332,0.00010472,-0.582015,1.1874,1.74533e-05,1.3519,0.00757473,0,0,0,0,0,0,0.039,0.027,-0.261,0,0,0.001,-5.327,14.847,-15.652,0.833,0.019726,0.050724
23:25:13:52322,0.00010472,-0.582015,1.1874,1.74533e-05,1.3519,0.00757473,0,0,0,0,0,0,0.029,0.029,-0.212,0,0,0.001,-4.823,14.574,-15.575,1.337,0.071859,0.085949
23:25:13:57255,0.00010472,-0.582015,1.1874,1.74533e-05,1.3519,0.00757473,0,0,0,0,0,0,0.02,0.016,-0.107,0,0,0,-5.74,14.469,-15.617,1.218,0.030998,0.136673
23:25:13:62435,0.00010472,-0.582015,1.1874,1.74533e-05,1.3519,0.00757473,0,0,0,0,0,0,0.016,0.012,-0.1,0,0,0.001,-5.432,14.693,-16.233,1.246,0.030998,0.08454
23:25:13:67382,0.00010472,-0.582015,1.1874,1.74533e-05,1.3519,0.00757473,0,0,0,0,0,0,0.007,0.025,-0.15,0,0,0.001,-5.432,13.944,-16.856,1.113,-0.029589,0.04227
23:25:13:72448,0.00010472,-0.582015,1.1874,1.74533e-05,1.3519,0.00757473,0,0,0,0,0,0,0,0.038,-0.127,0,0,0.001,-5.425,14.679,-14.721,1.337,0.153581,0.090176
23:25:13:77573,0.00010472,-0.582015,1.1874,1.74533e-05,1.3519,0.00757473,0,0,0,0,0,0,0.002,0.049,0,0,0,0,-5.229,15.057,-15.848,1.148,-0.046497,0.008454
23:25:13:82681,0.00010472,-0.582015,1.1874,1.74533e-05,1.3519,0.00757473,0,0,0,0,0,0,0.019,0.052,0.035,0,0,0,-5.943,13.622,-15.267,2.009,0.064814,0.008454
23:25:13:87631,0.00010472,-0.582015,1.1874,1.74533e-05,1.3519,0.00757473,0,0,0,0,0,0,0.049,0.051,-0.089,0,0,0.001,-5.53,13.412,-16.31,2.275,0.018317,0.085949
23:25:13:92694,0.00010472,-0.582015,1.1874,1.74533e-05,1.3519,0.00757473,0,0,0,0,0,0,0.055,0.046,-0.211,0,0,0.002,-5.628,14.189,-15.54,0.98,0.090176,-0.008454
23:25:13:97806,0.00010472,-0.582015,1.1874,1.74533e-05,1.3519,0.00757473,0,0,0,0,0,0,0.044,0.027,-0.25,0,0,0.002,-5.537,14.014,-15.729,1.071,0.150763,-0.204305
23:25:13:102823,0.00010472,-0.582015,1.1874,1.74533e-05,1.3519,0.00757473,0,0,0,0,0,0,0.036,0.013,-0.155,0,0,0.001,-5.439,14.588,-15.617,0.91,-0.074677,0.07045
23:25:13:107880,0.00010472,-0.582015,1.1874,1.74533e-05,1.3519,0.00757473,0,0,0,0,0,0,0.027,0.001,0.041,0,0,0,-5.229,13.426,-15.848,6.146,0.139491,0.085949
23:25:13:112881,0.00010472,-0.582015,1.1874,1.74533e-05,1.3519,0.00757473,0,0,0,0,0,0,0.015,0.005,0.097,0,0,-0.001,-5.432,13.853,-15.148,1.4,-0.036634,-0.12681
23:25:13:118055,0.00010472,-0.582015,1.1874,1.74533e-05,1.3519,0.00757473,0,0,0,0,0,0,-0.003,0.033,-0.047,0,0,0,-5.334,14.028,-15.379,0.504,0.050724,-0.032407
23:25:13:123002,0.00010472,-0.582015,1.1874,1.74533e-05,1.3519,0.00757473,0,0,0,0,0,0,0.005,0.06,-0.254,0,0,0.001,-5.747,14.35,-15.463,2.926,0.043679,-0.004227
23:25:13:128180,0.00010472,-0.582015,1.1874,1.74533e-05,1.3519,0.00757473,0,0,0,0,0,0,0.074,0.085,-0.466,0,0.001,0.004,-5.635,14.119,-15.421,0.91,0.064814,0.114129
23:25:13:133145,0.00010472,-0.582015,1.1874,1.74533e-05,1.3519,0.00757473,0,0,0,0,0,0,0.197,0.078,-0.311,0,0.006,0.003,-5.229,14.224,-15.925,-0.483,0.091585,0.100039
23:25:13:138303,0.00010472,-0.582015,1.1874,1.74533e-05,1.3519,0.00757473,0,0,0,0,0,0,0.294,0.076,-0.069,-0.001,0.011,0.002,-5.222,14.161,-15.967,-0.679,0.105675,0.004227
23:25:13:143259,0.00010472,-0.582015,1.1874,1.74533e-05,1.3519,0.00757473,0,0,0,0,0,0,0.459,0.127,0.187,-0.005,0.021,0,-5.432,13.65,-15.694,3.178,0.040861,-0.08454
23:25:13:148443,0.00010472,-0.582015,1.1874,1.74533e-05,1.3519,0.00757473,0,0,0,0,0,0,0.582,0.197,0.192,-0.009,0.029,0,-5.432,14.35,-15.575,1.526,0.033816,0.032407
23:25:13:153427,0.00010472,-0.582015,1.1874,1.74533e-05,1.3519,0.00757473,0,0,0,0,0,0,0.768,0.31,0.041,-0.015,0.038,0.001,-4.823,15.246,-15.575,0.714,0.053542,0.156399
23:25:13:158560,0.00010472,-0.582015,1.1874,1.74533e-05,1.3519,0.00757473,0,0,0,0,0,0,0.873,0.362,-0.066,-0.018,0.042,0.002,-5.838,14.119,-15.344,1.274,0.005636,-0.090176
23:25:13:163568,0.00010472,-0.582015,1.1874,1.74533e-05,1.3519,0.00757473,0,0,0,0,0,0,0.97,0.404,-0.181,-0.021,0.046,0.004,-5.845,14.238,-15.302,1.666,0.077495,-0.004227
23:25:13:168500,0.00010472,-0.582015,1.1874,1.74533e-05,1.3519,0.00757473,0,0,0,0,0,0,0.988,0.419,-0.241,-0.021,0.048,0.005,-5.327,13.895,-15.309,0.861,0.015499,0.114129
23:25:13:173676,0.00010472,-0.582015,1.1874,1.74533e-05,1.3519,0.00757473,0,0,0,0,0,0,0.969,0.435,-0.32,-0.02,0.049,0.006,-5.327,13.573,-15.225,1.519,0.043679,0.071859
23:25:13:178828,0.00010472,-0.582015,1.1874,1.74533e-05,1.3519,0.00757473,0,0,0,0,0,0,0.948,0.439,-0.35,-0.019,0.049,0.006,-5.124,14.777,-14.413,1.204,-0.008454,-0.022544
23:25:13:183749,0.00010472,-0.582015,1.1874,1.74533e-05,1.3519,0.00757473,0,0,0,0,0,0,0.939,0.417,-0.324,-0.017,0.049,0.006,-5.236,14.147,-14.567,0.609,-0.029589,0.008454
23:25:13:188819,0.00010472,-0.582015,1.1874,1.74533e-05,1.3519,0.00757473,0,0,0,0,0,0,0.949,0.377,-0.268,-0.016,0.048,0.006,-5.635,15.491,-14.182,0.868,-0.040861,0.04227
23:25:13:193943,0.00010472,-0.582015,1.1874,1.74533e-05,1.3519,0.00757473,0,0,0,0,0,0,0.972,0.297,-0.24,-0.014,0.046,0.007,-5.229,16.17,-12.943,1.05,-0.054951,0.047906
23:25:13:198874,0.00010472,-0.582015,1.1874,1.74533e-05,1.3519,0.00757473,0,0,0,0,0,0,0.98,0.252,-0.329,-0.012,0.046,0.007,-5.019,15.624,-13.447,1.246,0.061996,0.108493
23:25:13:204051,0.00010472,-0.582015,1.1874,1.74533e-05,1.3519,0.00757473,0,0,0,0,0,0,0.973,0.228,-0.59,-0.009,0.046,0.009,-5.124,15.995,-12.985,1.253,-0.097221,-0.122583
23:25:13:209049,0.00010472,-0.581998,1.1874,1.74533e-05,1.35188,0.00757473,0,0,0,0,0,0,0.961,0.23,-0.732,-0.008,0.048,0.01,-4.823,15.904,-13.055,0.588,-0.083131,-0.090176
23:25:13:213996,0.00010472,-0.581998,1.1874,1.74533e-05,1.35188,0.00757473,0,0,0,0,0,0,0.941,0.227,-0.738,-0.008,0.051,0.01,-4.823,16.009,-11.935,0.588,-0.159217,-0.008454
23:25:13:219149,0.00010472,-0.581998,1.1874,1.74533e-05,1.35188,0.00757473,0,0,0,0,0,0,0.932,0.21,-0.567,-0.011,0.053,0.009,-4.921,16.352,-11.97,0.644,-0.081722,-0.05636
23:25:13:224118,0.00010472,-0.581998,1.1874,1.74533e-05,1.35186,0.00757473,0,0,0,0,0,0,0.939,0.21,-0.465,-0.014,0.054,0.007,-5.222,16.289,-11.704,0.861,-0.150763,-0.152172
23:25:13:229299,0.00010472,-0.581998,1.18742,1.74533e-05,1.35186,0.00757473,0,0,0,0,0,0,0.97,0.241,-0.403,-0.019,0.054,0.006,-5.019,16.464,-11.319,1.449,-0.198669,0.012681
23:25:13:234246,0.00010472,-0.581998,1.18742,1.74533e-05,1.35186,0.00757473,0,0,0,0,0,0,0.994,0.28,-0.4,-0.023,0.053,0.006,-4.921,17.059,-11.767,0.553,-0.180352,-0.050724
23:25:13:239374,0.00010472,-0.581998,1.18742,1.74533e-05,1.35186,0.00757473,0,0,0,0,0,0,1.002,0.365,-0.414,-0.029,0.053,0.005,-5.019,16.604,-11.158,1.169,-0.202896,-0.043679
23:25:13:244367,0.00010472,-0.581998,1.18742,1.74533e-05,1.35184,0.00757473,0,0,0,0,0,0,0.971,0.445,-0.441,-0.034,0.051,0.005,-4.613,17.381,-10.059,0.588,-0.209941,-0.156399
23:25:13:249563,0.00010472,-0.581998,1.18743,1.74533e-05,1.35184,0.00757473,0,0,0.00172788,0,0,0,0.866,0.603,-0.507,-0.045,0.045,0.006,-4.606,18.718,-10.339,1.106,-0.166262,0.012681
23:25:13:254551,0.00010472,-0.581998,1.18743,1.74533e-05,1.35181,0.00757473,0,0,0.00165806,0,-0.00338594,0,0.767,0.715,-0.534,-0.054,0.039,0.006,-4.102,18.186,-10.045,0.994,-0.174716,-0.05636
23:25:13:259690,0.00010472,-0.581998,1.18745,1.74533e-05,1.35181,0.00757473,0,0,0.00233874,0,-0.00284489,0,0.612,0.856,-0.5,-0.068,0.026,0.005,-3.997,18.298,-9.072,1.169,-0.201487,-0.004227
23:25:13:264688,0.00010472,-0.581998,1.18747,1.74533e-05,1.35179,0.00757473,0,0,0.00267035,0,-0.00216421,0,0.526,0.917,-0.46,-0.073,0.018,0.004,-4.599,18.375,-8.785,1.337,-0.284618,0.008454
23:25:13:269688,0.00010472,-0.581998,1.18747,1.74533e-05,1.35177,0.00757473,0,0,0.00267035,0,-0.003735,0,0.45,0.94,-0.462,-0.073,0.01,0.003,-4.606,17.829,-8.596,1.092,-0.325479,-0.108493
23:25:13:274813,0.00010472,-0.581998,1.1875,1.74533e-05,1.35176,0.00757473,0,0,0.00349066,0,-0.00284489,0,0.439,0.898,-0.498,-0.067,0.009,0.003,-4.298,18.844,-8.834,1.302,-0.308571,-0.008454
23:25:13:279952,0.00010472,-0.581998,1.18752,1.74533e-05,1.35176,0.00757473,0,0,0.00401426,0,-0.00226893,0,0.477,0.754,-0.511,-0.054,0.013,0.003,-3.997,19.152,-8.82,0.392,-0.307162,0.104266
23:25:13:284948,0.00010472,-0.581998,1.18752,1.74533e-05,1.35174,0.00757473,0,0,0.00301942,0,-0.00226893,0,0.534,0.629,-0.479,-0.045,0.019,0.003,-4.291,19.964,-8.379,1.638,-0.300117,0.052133
23:25:13:290063,0.000122173,-0.581998,1.18754,1.74533e-05,1.35174,0.00757473,0,0,0.00258309,0,0,0,0.649,0.456,-0.457,-0.035,0.028,0.004,-3.584,20.111,-8.176,0.714,-0.362113,0.004227
23:25:13:295007,0.000122173,-0.581998,1.18756,1.74533e-05,1.35172,0.00757473,0,0,0.00244346,0,0,0,0.716,0.372,-0.504,-0.029,0.032,0.004,-3.465,19.53,-7.889,1.127,-0.266301,-0.063405
23:25:13:300013,0.000122173,-0.581998,1.18757,1.74533e-05,1.35171,0.00757473,0,0,0.00158825,0,-0.00209439,0,0.736,0.304,-0.635,-0.022,0.031,0.005,-3.479,20.573,-7.917,1.309,-0.23953,0
23:25:13:305197,0.000122173,-0.58198,1.18757,1.74533e-05,1.35171,0.00757473,0,0,0.00198968,0,0,0,0.615,0.301,-0.71,-0.021,0.02,0.005,-2.87,19.264,-7.511,1.351,-0.474833,-0.04227
23:25:13:310185,0.000122173,-0.58198,1.18757,1.74533e-05,1.35169,0.00757473,0,0,0,0,-0.00221657,0,0.481,0.325,-0.685,-0.023,0.01,0.006,-3.269,19.46,-6.888,0.469,-0.288845,-0.008454
23:25:13:315312,0.000122173,-0.58198,1.18759,1.74533e-05,1.35169,0.00757473,0,0,0.00230383,0,0,0,0.307,0.372,-0.593,-0.03,-0.002,0.006,-2.247,20.076,-6.762,1.064,-0.36634,-0.046497
23:25:13:320239,0.000122173,-0.58198,1.18759,1.74533e-05,1.35167,0.00757473,0,0,0.00169297,0,0,0,0.272,0.395,-0.571,-0.034,-0.004,0.007,-3.164,20.076,-6.755,1.89,-0.240939,-0.081722
23:25:13:325250,0.000122173,-0.58198,1.18761,1.74533e-05,1.35165,0.00757473,0,0,0.00209439,0,0,0,0.37,0.405,-0.627,-0.037,0.003,0.009,-2.261,20.111,-6.664,1.267,-0.486105,-0.095812
23:25:13:330420,0.000122173,-0.58198,1.18763,1.74533e-05,1.35165,0.00757473,0,0,0.00260054,0,-0.00211185,0,0.504,0.395,-0.635,-0.036,0.013,0.01,-2.058,20.419,-5.957,1.05,-0.483287,0.071859
23:25:13:335420,0.000122173,-0.58198,1.18763,1.74533e-05,1.35164,0.00757473,0,0,0.00191986,0,0,0,0.737,0.367,-0.492,-0.036,0.027,0.01,-2.548,20.496,-6.062,1.533,-0.355068,-0.040861
23:25:13:340561,0.000122173,-0.58198,1.18764,1.74533e-05,1.35162,0.00757473,0,0,0,0,0,0,0.891,0.352,-0.375,-0.036,0.036,0.011,-2.156,20.23,-5.649,0.84,-0.383248,-0.046497
23:25:13:345561,0.000122173,-0.58198,1.18764,1.74533e-05,1.35162,0.00757473,0,0,0,0,0,0,1.104,0.352,-0.383,-0.035,0.046,0.012,-2.541,20.496,-6.02,1.372,-0.410019,0.018317
23:25:13:350493,0.000122173,-0.58198,1.18764,1.74533e-05,1.3516,0.00757473,0,0,0,0,-0.00225147,0,1.221,0.362,-0.496,-0.034,0.052,0.013,-2.037,21.665,-5.663,1.19,-0.369158,-0.045088
23:25:13:355684,0.000122173,-0.58198,1.18766,1.74533e-05,1.3516,0.00757473,0,0,0,0,-0.00221657,0,1.333,0.362,-0.585,-0.03,0.056,0.013,-1.54,21.049,-5.537,1.211,-0.429745,-0.085949
23:25:13:360809,0.000122173,-0.581963,1.18766,1.74533e-05,1.35158,0.00757473,0,0,0,0,0,0,1.37,0.343,-0.544,-0.028,0.057,0.013,-1.939,20.888,-5.159,1.064,-0.384657,-0.036634
23:25:13:365792,0.000122173,-0.581963,1.18768,1.74533e-05,1.35157,0.00757473,0,0,0.0018326,0,-0.00354302,0,1.414,0.313,-0.546,-0.024,0.058,0.013,-1.134,21.189,-4.627,1.309,-0.441017,-0.022544
23:25:13:370754,0.000122173,-0.581963,1.1877,1.74533e-05,1.35157,0.00757473,0,0,0.00300197,0,0,0,1.461,0.306,-0.706,-0.02,0.06,0.014,-1.743,21.434,-4.746,1.071,-0.395929,-0.05636
23:25:13:375886,0.000122173,-0.581963,1.18771,1.74533e-05,1.35155,0.00757473,0,0,0.00352557,0,0,0,1.57,0.299,-1.079,-0.014,0.064,0.017,-0.938,21.581,-4.963,1.057,-0.601643,0.004227
23:25:13:380933,0.000122173,-0.581963,1.18775,1.74533e-05,1.35155,0.00757473,0,0,0.00438078,0,0,0,1.652,0.261,-1.255,-0.008,0.066,0.017,-1.512,22.295,-4.718,0.749,-0.43679,-0.094403
23:25:13:386061,0.000122173,-0.581945,1.18777,1.74533e-05,1.35151,0.00757473,0,0,0.00464258,0,-0.00352557,0,1.754,0.112,-1.306,0.001,0.069,0.015,-0.105,22.981,-3.857,1.61,-0.418473,0.085949
23:25:13:391002,0.000122173,-0.581945,1.1878,1.74533e-05,1.3515,0.00757473,0,0,0.00390954,0,-0.00427606,0,1.799,-0.034,-1.276,0.008,0.07,0.014,-0.007,22.309,-3.745,0.623,-0.500195,-0.060587
23:25:13:396179,0.000122173,-0.581928,1.1878,1.74533e-05,1.3515,0.00757473,0,0,0.00376991,0,-0.00305433,0,1.848,-0.256,-1.305,0.021,0.072,0.012,-0.21,22.841,-3.794,0.623,-0.463561,0.008454
23:25:13:401171,0.000139626,-0.581928,1.18784,1.74533e-05,1.35146,0.00757473,0,0,0.00382227,0,-0.00364774,0,1.916,-0.41,-1.45,0.034,0.076,0.012,-0.434,22.862,-2.408,0.812,-0.441017,0.004227
23:25:13:406183,0.000139626,-0.581928,1.18785,1.74533e-05,1.35144,0.00757473,0,0,0.00382227,0,-0.00371755,0,1.981,-0.476,-1.565,0.04,0.079,0.012,-0.413,22.89,-2.513,1.33,-0.53542,0.012681
23:25:13:411255,0.000139626,-0.58191,1.18787,1.74533e-05,1.35141,0.00757473,0,0.00185005,0.00459022,0,-0.00485202,0,2.1,-0.558,-1.694,0.046,0.086,0.011,-0.728,22.463,-2.366,1.232,-0.46497,0.081722
23:25:13:416256,0.000139626,-0.581893,1.18791,1.74533e-05,1.35139,0.00757473,0,0.00218166,0.00490437,0,-0.0058294,0,2.191,-0.615,-1.734,0.048,0.091,0.011,-0.903,23.737,-1.61,0.868,-0.525557,0.180352
23:25:13:421418,0.000139626,-0.581875,1.18794,1.74533e-05,1.35136,0.00757473,0,0.00254818,0.00645772,0,-0.00479966,0,2.361,-0.687,-1.745,0.05,0.101,0.01,-0.399,23.87,-1.358,0.931,-0.459334,-0.026771
23:25:13:426418,0.000139626,-0.581875,1.18798,1.74533e-05,1.35134,0.00757473,0,0.0029147,0.00829031,0,-0.00415388,0,2.499,-0.721,-1.765,0.053,0.108,0.01,-0.903,24.248,-1.666,1.134,-0.529784,0.150763
23:25:13:431558,0.000139626,-0.581858,1.18803,1.74533e-05,1.35132,0.00757473,0,0.00280998,0.00876155,0,-0.00511381,0,2.702,-0.777,-1.857,0.061,0.116,0.009,-1.218,24.675,-1.365,1.225,-0.552328,0
23:25:13:436503,0.000139626,-0.58184,1.18808,1.74533e-05,1.35127,0.00757473,0,0.00371755,0.00958186,0,-0.00685914,0,2.803,-0.84,-1.919,0.068,0.119,0.009,-1.218,25.501,-1.127,0.896,-0.433972,0.004227
23:25:13:441542,0.000139626,-0.581823,1.18815,1.74533e-05,1.35122,0.00757473,0,0.00389208,0.0117635,0,-0.00923279,0,2.89,-0.963,-1.923,0.077,0.124,0.009,-0.833,25.487,-1.309,1.351,-0.646731,0.090176
23:25:13:446627,0.000139626,-0.581788,1.18822,1.74533e-05,1.35118,0.00757473,0,0.00481711,0.01309,0,-0.00836013,0,2.931,-1.037,-1.882,0.083,0.127,0.009,-1.106,25.746,-0.462,1.155,-0.553737,0.100039
23:25:13:451685,0.000139626,-0.581771,1.18829,1.74533e-05,1.35113,0.00757473,0,0.0050091,0.0146608,0,-0.00954695,0,3.027,-1.105,-1.864,0.089,0.135,0.008,-1.022,25.739,-0.938,0.322,-0.377612,0.052133
23:25:13:456756,0.000139626,-0.581736,1.18838,1.74533e-05,1.35108,0.00757473,0,0.00677188,0.0143466,0,-0.0101578,0,3.122,-1.127,-1.898,0.093,0.141,0.007,-1.925,25.487,-0.448,0.952,-0.45088,0.047906
23:25:13:461774,0.000139626,-0.581683,1.18845,1.74533e-05,1.35101,0.00757473,0,0.00753982,0.0158825,0,-0.0119381,0,3.268,-1.14,-1.947,0.095,0.15,0.006,-2.023,25.984,-0.042,1.365,-0.474833,-0.012681
23:25:13:466882,0.000139626,-0.581631,1.18853,1.74533e-05,1.35094,0.00757473,0,0.00916298,0.0157778,0,-0.0126536,0,3.331,-1.138,-1.95,0.096,0.155,0.005,-1.519,26.796,1.176,1.491,-0.556555,0
23:25:13:471917,0.000139626,-0.581596,1.18862,1.74533e-05,1.35087,0.00757473,0,0.00942478,0.0167377,0,-0.0139626,0,3.35,-1.129,-1.934,0.095,0.158,0.003,-1.96,26.544,0.56,0.231,-0.376203,-0.132446
23:25:13:477057,0.000139626,-0.581544,1.18873,1.74533e-05,1.3508,0.00757473,0,0.00942478,0.018326,0,-0.0158825,0,3.329,-1.132,-1.931,0.095,0.158,0.001,-2.079,27.174,2.086,0.385,-0.269119,-0.036634
23:25:13:481986,0.000139626,-0.581491,1.18883,1.74533e-05,1.35069,0.00757473,0,0.00919789,0.0214501,0,-0.0191288,0,3.311,-1.159,-1.98,0.096,0.157,0,-2.345,27.44,0.945,0.868,-0.160626,-0.05636
23:25:13:487180,0.000139626,-0.581439,1.18899,1.74533e-05,1.35059,0.00757473,0,0.0103673,0.0260752,0,-0.0205076,0,3.339,-1.179,-2.136,0.099,0.159,-0.001,-2.765,27.286,1.015,1.05,-0.259256,0.080313
23:25:13:492180,0.000139626,-0.581369,1.18916,1.74533e-05,1.35048,0.00757473,0,0.0117635,0.0319046,0,-0.0178547,0,3.364,-1.172,-2.266,0.101,0.16,-0.002,-2.667,27.825,0.42,1.134,-0.308571,0.198669
23:25:13:497294,0.000139626,-0.581299,1.18937,1.74533e-05,1.35041,0.00757473,0,0.0141721,0.037193,0,-0.0165981,0,3.361,-1.147,-2.346,0.102,0.164,-0.003,-3.073,27.748,-1.106,1.134,-0.331115,0.018317
23:25:13:502258,0.000122173,-0.581212,1.18962,1.74533e-05,1.35034,0.00757473,0,0.0149924,0.0447677,0,-0.0152542,0,3.337,-1.142,-2.284,0.102,0.166,-0.005,-3.787,28.259,-1.638,1.197,-0.350841,-0.008454
23:25:13:507431,0.000122173,-0.581125,1.18988,1.74533e-05,1.35026,0.00757473,0,0.0172788,0.0492532,0,-0.0146782,0,3.327,-1.15,-2.162,0.101,0.169,-0.008,-3.899,27.783,-3.374,0.931,-0.170489,0.080313
23:25:13:512377,0.000122173,-0.581038,1.19012,1.74533e-05,1.35017,0.00757473,0,0.0170519,0.0473159,0,-0.0165981,0,3.362,-1.145,-2.161,0.1,0.171,-0.01,-4.704,27.811,-3.122,1.232,-0.209941,0.032407
23:25:13:517540,0.000122173,-0.58095,1.19031,1.74533e-05,1.3501,0.00757473,0,0.0177325,0.0430049,0,-0.0137706,0,3.457,-1.095,-2.247,0.1,0.178,-0.011,-4.186,27.664,-2.52,1.47,-0.135264,0.036634
23:25:13:522540,0.000122173,-0.580846,1.19051,1.74533e-05,1.35003,0.00757473,0,0.0188845,0.0400553,0,-0.012514,0,3.523,-1.05,-2.27,0.099,0.185,-0.012,-5.019,27.776,-2.296,0.805,-0.250802,-0.05636
23:25:13:527673,0.000122173,-0.580741,1.19072,1.74533e-05,1.34998,0.00757473,0,0.0203505,0.0397062,0,-0.0139103,0,3.622,-1.014,-2.237,0.1,0.199,-0.014,-5.026,27.776,-1.302,1.071,-0.245166,-0.01409
23:25:13:532605,0.000122173,-0.580619,1.19093,1.74533e-05,1.34989,0.00757473,0,0.0222355,0.0406313,0,-0.0144339,0,3.7,-1.029,-2.258,0.101,0.209,-0.015,-5.026,27.412,-1.652,1.246,-0.390293,-0.004227
23:25:13:537786,0.00010472,-0.580496,1.19115,1.74533e-05,1.34982,0.00757473,0,0.0245044,0.0445059,0,-0.0155509,0,3.817,-1.095,-2.426,0.106,0.224,-0.017,-5.635,27.678,-2.205,1.372,-0.346614,-0.026771
23:25:13:542739,0.00010472,-0.580357,1.19141,1.74533e-05,1.34973,0.00757473,0,0.026145,0.0490263,0,-0.0149749,0,3.864,-1.143,-2.552,0.109,0.231,-0.018,-5.635,27.566,-1.953,1.267,-0.318434,-0.026771
23:25:13:547915,0.00010472,-0.5802,1.19171,1.74533e-05,1.34965,0.00757473,0,0.0283092,0.0531627,0,-0.0157429,0,3.865,-1.182,-2.616,0.111,0.236,-0.02,-6.454,26.446,-2.877,0.924,-0.200078,-0.060587
23:25:13:552858,8.72665e-05,-0.580043,1.19197,1.74533e-05,1.34956,0.00757473,-0.00200713,0.0307178,0.0537212,0,-0.0172264,0,3.838,-1.176,-2.579,0.111,0.238,-0.022,-6.048,26.586,-3.045,1.113,-0.369158,-0.018317
23:25:13:557876,8.72665e-05,-0.579851,1.1922,1.74533e-05,1.34947,0.00757473,-0.00244346,0.0332485,0.0482933,0,-0.0170868,0,3.801,-1.121,-2.493,0.107,0.241,-0.027,-6.671,26.901,-1.708,1.169,-0.362113,-0.046497
23:25:13:562993,5.23599e-05,-0.579694,1.19237,1.74533e-05,1.34938,0.00757473,-0.00397935,0.0333183,0.0394968,0,-0.0163188,0,3.796,-1.068,-2.428,0.104,0.243,-0.031,-6.783,26.502,-0.189,0.651,-0.370567,-0.07045
23:25:13:567988,1.74533e-05,-0.579537,1.19253,1.74533e-05,1.3493,0.00757473,-0.00539307,0.0318174,0.0336674,0,-0.0164759,0,3.846,-0.992,-2.314,0.1,0.249,-0.037,-6.062,26.894,1.162,1.092,-0.433972,0.080313
23:25:13:573157,0,-0.579379,1.19271,1.74533e-05,1.34921,0.00757473,-0.0058294,0.0295484,0.0345575,0,-0.016633,0,4.014,-0.933,-2.274,0.096,0.259,-0.041,-6.685,27.517,2.52,0.609,-0.443835,-0.008454
23:25:13:578107,-1.74533e-05,-0.57924,1.19292,1.74533e-05,1.34912,0.00757473,-0.00614356,0.0297753,0.039619,0,-0.0187972,0,4.184,-0.902,-2.34,0.092,0.269,-0.042,-6.279,27.825,2.842,1.148,-0.456516,-0.04227
23:25:13:583298,-5.23599e-05,-0.579083,1.19318,1.74533e-05,1.349,0.00757473,-0.00619592,0.0307527,0.0460767,0,-0.0199666,0,4.421,-0.861,-2.494,0.087,0.286,-0.042,-6.86,27.636,1.288,1.113,-0.477651,-0.018317
23:25:13:588249,-8.72665e-05,-0.578908,1.19346,1.74533e-05,1.3489,0.00757473,-0.00563741,0.0319046,0.0543845,0,-0.0217119,0,4.497,-0.844,-2.55,0.085,0.296,-0.043,-7.014,27.755,0.301,0.931,-0.517103,-0.004227
23:25:13:593357,-0.00010472,-0.578734,1.19382,1.74533e-05,1.34879,0.00757473,-0.0055676,0.033615,0.0637569,0,-0.0200364,0,4.449,-0.849,-2.589,0.085,0.303,-0.047,-7.483,27.209,-0.273,0.455,-0.426927,-0.170489
23:25:13:598355,-0.000139626,-0.578542,1.19419,1.74533e-05,1.34869,0.00757473,-0.00542797,0.0370184,0.0694816,0,-0.0207869,0,4.348,-0.871,-2.688,0.087,0.301,-0.05,-7.945,27.496,-1.302,1.533,-0.538238,-0.032407
23:25:13:603415,-0.000174533,-0.57835,1.19456,1.74533e-05,1.34858,0.00757473,-0.00579449,0.0382227,0.0708604,0,-0.0202109,0,4.196,-0.91,-2.97,0.091,0.294,-0.053,-8.029,27.566,-1.512,1.211,-0.531193,0.100039
23:25:13:608531,-0.00020944,-0.578158,1.1949,1.74533e-05,1.34849,0.00757473,-0.00720821,0.0376293,0.0709127,0,-0.0206996,0,4.142,-0.927,-3.083,0.091,0.289,-0.054,-7.574,28.133,-0.623,1.148,-0.40861,-0.11272
23:25:13:613476,-0.000244346,-0.577948,1.19529,1.74533e-05,1.34837,0.00757473,-0.0084823,0.038502,0.0750666,0,-0.0220959,0,4.171,-0.935,-2.858,0.086,0.288,-0.058,-7.819,27.881,-1.61,0.924,-0.455107,-0.038043
23:25:13:618670,-0.000296706,-0.577774,1.19569,1.74533e-05,1.34823,0.00757473,-0.00911062,0.0375769,0.0785049,0,-0.0239808,0,4.261,-0.923,-2.487,0.079,0.294,-0.061,-8.631,28.651,-2.016,1.246,-0.7045,0.05636
23:25:13:623780,-0.000331613,-0.577582,1.19609,1.74533e-05,1.34809,0.00757473,-0.00792379,0.035884,0.077737,0,-0.0264417,0,4.43,-0.847,-2.021,0.069,0.309,-0.063,-7.56,28.826,-1.414,1.512,-0.63405,-0.008454
23:25:13:628778,-0.000383972,-0.577407,1.19642,1.74533e-05,1.34794,0.00757473,-0.00748746,0.035308,0.0703542,0,-0.0306131,0,4.491,-0.75,-1.99,0.063,0.318,-0.062,-7.847,29.379,-0.98,1.19,-0.598825,0
23:25:13:633758,-0.000418879,-0.577233,1.19672,1.74533e-05,1.34776,0.00757473,-0.00759218,0.0360411,0.0613832,0,-0.0338245,0,4.391,-0.598,-2.349,0.059,0.317,-0.059,-8.141,30.352,0.714,1.771,-0.562191,-0.032407
23:25:13:638872,-0.000453786,-0.577023,1.19702,1.74533e-05,1.34755,0.00757473,-0.00706858,0.0376118,0.0599172,0,-0.037734,0,4.18,-0.548,-2.655,0.059,0.305,-0.057,-8.281,29.687,1.078,0.952,-0.319843,0.05636
23:25:13:643852,-0.000471239,-0.576831,1.19737,1.74533e-05,1.34732,0.00757473,-0.00588176,0.0386416,0.0663923,0,-0.0418704,0,3.741,-0.569,-2.896,0.061,0.277,-0.059,-8.106,30.128,1.33,1.792,-0.260665,-0.032407
23:25:13:649025,-0.000506145,-0.576622,1.19777,1.74533e-05,1.34708,0.00757473,-0.0050091,0.0414341,0.0743336,0,-0.0458847,0,3.471,-0.589,-2.889,0.06,0.257,-0.061,-8.82,29.533,0.28,0.707,-0.273346,0.046497
23:25:13:653978,-0.000523599,-0.57636,1.19819,1.74533e-05,1.34687,0.00757473,-0.00523599,0.0464781,0.0794474,0,-0.0444186,0,3.269,-0.512,-2.809,0.052,0.236,-0.065,-9.023,29.75,-0.553,1.015,-0.191624,-0.080313
23:25:13:659109,-0.000541052,-0.576098,1.19862,1.74533e-05,1.34671,0.00757473,-0.0045204,0.0499164,0.0823446,0,-0.0365123,0,3.356,-0.298,-2.811,0.039,0.231,-0.064,-9.016,29.505,-1.456,0.896,-0.166262,0.008454
23:25:13:664153,-0.000575959,-0.575836,1.19904,1.74533e-05,1.34659,0.00757473,-0.00492183,0.0511731,0.0836013,0,-0.0272097,0,3.486,-0.135,-2.849,0.029,0.234,-0.063,-9.128,28.301,-1.232,1.183,-0.2818,-0.132446
23:25:13:669281,-0.000610865,-0.575592,1.19949,1.74533e-05,1.34649,0.00757473,-0.00654498,0.0479966,0.0882438,0,-0.0231605,0,3.568,0.074,-2.928,0.018,0.24,-0.06,-8.988,28.77,-1.764,1.316,-0.40861,-0.07045
23:25:13:674295,-0.000663225,-0.575383,1.19997,1.74533e-05,1.34636,0.00757473,-0.0082205,0.0447328,0.0887674,0,-0.0245219,0,3.472,0.181,-3.001,0.011,0.239,-0.058,-8.323,29.869,-2.562,0.889,-0.373385,-0.008454
23:25:13:679404,-0.000698132,-0.575191,1.20035,1.74533e-05,1.34624,0.00757473,-0.00895354,0.0407709,0.0813673,0,-0.0263196,0,3.201,0.28,-3.099,0.005,0.226,-0.058,-8.96,29.988,-0.959,1.533,-0.417064,0.060587
23:25:13:684404,-0.000767945,-0.575016,1.2007,1.74533e-05,1.3461,0.00757473,-0.00968658,0.0384147,0.073426,0,-0.0276635,0,3.074,0.293,-3.084,0.002,0.214,-0.058,-7.833,31.486,-0.714,1.757,-0.466379,-0.080313
23:25:13:689351,-0.000820305,-0.574807,1.20103,1.74533e-05,1.34596,0.00757473,-0.0106116,0.0382751,0.0695863,0,-0.0261276,0,3.116,0.268,-2.904,0.001,0.204,-0.059,-7.637,31.192,0.231,1.253,-0.428336,0.012681
23:25:13:694476,-0.000872665,-0.574597,1.20138,1.74533e-05,1.34582,0.00757473,-0.0115541,0.0402298,0.0705811,0,-0.0265465,0,3.253,0.272,-2.773,0,0.208,-0.058,-8.099,30.968,0.448,1.155,-0.518512,0.05636
23:25:13:699667,-0.000942478,-0.57437,1.20178,1.74533e-05,1.34568,0.00757473,-0.0114319,0.042778,0.0756251,0,-0.0270875,0,3.372,0.363,-2.772,-0.005,0.219,-0.054,-7.322,30.954,-0.105,1.134,-0.448062,0.05636
23:25:13:704670,-0.000994838,-0.574144,1.20217,1.74533e-05,1.34556,0.00757473,-0.0113621,0.0455531,0.0763931,0,-0.0261276,0,3.27,0.452,-2.924,-0.009,0.221,-0.051,-7.056,29.897,-1.547,1.134,-0.439608,-0.066223
23:25:13:709672,-0.00106465,-0.573899,1.20255,1.74533e-05,1.34542,0.00757473,-0.0114494,0.0474031,0.0759916,0,-0.0265465,0,2.854,0.529,-3.203,-0.012,0.205,-0.048,-6.755,29.96,-0.924,0.882,-0.393111,0.018317
23:25:13:714615,-0.00111701,-0.573655,1.20295,1.74533e-05,1.34526,0.00757473,-0.0113446,0.0476475,0.0786794,0,-0.0284838,0,2.537,0.516,-3.291,-0.011,0.184,-0.048,-6.188,29.008,-1.946,0.665,-0.612915,0.026771
23:25:13:719742,-0.00116937,-0.573428,1.20339,1.74533e-05,1.34511,0.00757473,-0.011013,0.0464607,0.0822225,0,-0.0304909,0,2.246,0.446,-3.174,-0.008,0.152,-0.049,-5.432,29.932,-2.065,0.917,-0.495968,-0.046497
23:25:13:724901,-0.00122173,-0.573201,1.20379,1.74533e-05,1.34495,0.00757473,-0.010472,0.0442092,0.0816814,0,-0.0314683,0,2.214,0.417,-2.976,-0.009,0.138,-0.049,-6.216,29.309,-2.387,1.4,-0.504422,-0.004227
23:25:13:729868,-0.00127409,-0.572992,1.20415,1.74533e-05,1.34479,0.00757473,-0.0103673,0.0436507,0.0734085,0,-0.0318697,0,2.294,0.467,-2.691,-0.016,0.131,-0.047,-5.782,29.428,-2.513,1.841,-0.457925,0.054951
23:25:13:734917,-0.00132645,-0.572765,1.20443,1.74533e-05,1.34464,0.00757473,-0.0104022,0.0439648,0.0629017,0,-0.0308749,0,2.355,0.573,-2.596,-0.024,0.133,-0.044,-5.768,28.945,-0.07,1.316,-0.494559,0.02818
23:25:13:740024,-0.00137881,-0.572538,1.2047,1.74533e-05,1.34448,0.00757473,-0.0107512,0.0457451,0.0563567,0,-0.0315905,0,2.411,0.805,-2.574,-0.038,0.138,-0.04,-5.264,28.665,0.749,0.826,-0.426927,0
23:25:13:745167,-0.00144862,-0.572293,1.20499,1.74533e-05,1.34429,0.00757473,-0.0113621,0.0458323,0.0587827,0,-0.0369137,0,2.414,1.032,-2.555,-0.051,0.14,-0.038,-4.956,28.315,-0.308,0.791,-0.184579,0.136673
23:25:13:750113,-0.00150098,-0.572049,1.20532,1.74533e-05,1.34406,0.00757473,-0.010821,0.047438,0.0634776,0,-0.041277,0,2.363,1.143,-2.558,-0.058,0.137,-0.037,-4.55,26.698,-0.385,0.931,-0.030998,-0.067632
23:25:13:755164,-0.00153589,-0.571805,1.20567,1.74533e-05,1.34385,0.00757473,-0.00902335,0.0487121,0.0652928,0,-0.0416436,0,2.211,1.25,-2.741,-0.063,0.127,-0.035,-4.648,26.817,-1.386,1.246,0.029589,-0.036634
23:25:13:760283,-0.0015708,-0.57156,1.20601,1.74533e-05,1.34369,0.00757473,-0.00813323,0.0464607,0.0649612,0,-0.033807,0,2.107,1.299,-2.988,-0.064,0.118,-0.033,-4.067,26.852,-1.554,1.281,-0.038043,0.038043
23:25:13:765224,-0.0016057,-0.571351,1.20632,1.74533e-05,1.34361,0.00757473,-0.00722566,0.0430398,0.0633031,0,-0.0243299,0,2.034,1.36,-3.308,-0.065,0.107,-0.03,-4.368,26.866,-2.072,1.519,-0.087358,0.012681
23:25:13:770345,-0.00162316,-0.571176,1.20663,1.74533e-05,1.3435,0.00757473,-0.00591667,0.0385543,0.0620465,0,-0.0193906,0,2.039,1.403,-3.351,-0.066,0.102,-0.029,-3.962,27.062,-2.352,0.763,-0.029589,0.008454
23:25:13:775556,-0.00165806,-0.571019,1.20696,1.74533e-05,1.34341,0.00757473,-0.00441568,0.0337198,0.0652753,0,-0.0195651,0,2.072,1.487,-3.214,-0.07,0.1,-0.029,-3.416,27.888,-2.303,1.05,-0.147945,0.022544
23:25:13:780484,-0.00165806,-0.57088,1.20731,1.74533e-05,1.34333,0.00757473,-0.00287979,0.0315381,0.0682075,0,-0.0190241,0,2.107,1.555,-3.125,-0.074,0.099,-0.028,-3.941,28.462,-3.255,1.134,-0.097221,0.108493
23:25:13:785523,-0.00165806,-0.570705,1.20763,1.74533e-05,1.34324,0.00757473,0,0.0321664,0.0623083,0,-0.0174533,0,2.247,1.628,-3.115,-0.077,0.103,-0.027,-3.759,27.692,-3.038,0.791,-0.1409,-0.060587
23:25:13:790668,-0.00165806,-0.570531,1.20786,1.74533e-05,1.34317,0.00757473,0,0.0329344,0.0523599,0,-0.0156032,0,2.426,1.624,-3.149,-0.078,0.11,-0.026,-3.843,27.783,-1.876,0.847,-0.356477,-0.066223
23:25:13:795667,-0.00165806,-0.570374,1.20805,1.74533e-05,1.3431,0.00757473,0,0.032341,0.043162,0,-0.0122522,0,2.755,1.541,-3.209,-0.077,0.127,-0.024,-3.92,27.79,0,1.134,-0.297299,-0.004227
23:25:13:800773,-0.00165806,-0.570217,1.2082,1.74533e-05,1.34305,0.00757473,0,0.0304036,0.0365123,0,-0.0121824,0,2.924,1.472,-3.284,-0.074,0.139,-0.022,-3.885,28.175,0.42,0.882,-0.350841,-0.04227
23:25:13:805805,-0.00165806,-0.570077,1.20838,1.74533e-05,1.34298,0.00757473,0,0.0292343,0.0345575,0,-0.0120428,0,2.968,1.407,-3.482,-0.07,0.148,-0.02,-3.696,27.482,0.616,0.973,-0.425518,-0.108493
23:25:13:810721,-0.00165806,-0.569937,1.20857,1.74533e-05,1.34293,0.00757473,0,0.0290772,0.0358316,0,-0.0124093,0,2.86,1.392,-3.619,-0.068,0.145,-0.019,-3.388,28.686,0.987,1.106,-0.483287,-0.050724
23:25:13:815899,-0.00165806,-0.56978,1.20878,1.74533e-05,1.34286,0.00757473,0,0.0298102,0.0394444,0,-0.0140499,0,2.667,1.405,-3.71,-0.07,0.132,-0.019,-2.94,28.777,1.19,1.029,-0.514285,-0.085949
23:25:13:820845,-0.00165806,-0.569623,1.20902,1.74533e-05,1.34279,0.00757473,0,0.0304909,0.0464607,0,-0.0147829,0,2.65,1.444,-3.682,-0.074,0.127,-0.018,-2.982,27.167,-0.196,1.183,-0.498786,0.032407
23:25:13:826055,-0.00165806,-0.569466,1.20934,1.74533e-05,1.3427,0.00757473,0,0.0309447,0.0541227,0,-0.0140499,0,2.867,1.561,-3.576,-0.084,0.133,-0.016,-2.898,27.286,-1.316,1.351,-0.593189,-0.108493
23:25:13:830997,-0.00165806,-0.569326,1.20962,1.74533e-05,1.34263,0.00757473,0,0.0296008,0.0568279,0,-0.0144513,0,3.071,1.666,-3.507,-0.091,0.143,-0.015,-2.807,27.048,-2.114,0.931,-0.519921,-0.05636
23:25:13:836159,-0.00165806,-0.569204,1.2099,1.74533e-05,1.34256,0.00757473,0,0.0254993,0.0545415,0,-0.01494,0,3.203,1.815,-3.453,-0.101,0.157,-0.013,-2.674,28.252,-2.653,1.785,-0.579099,-0.05636
23:25:13:841094,-0.00165806,-0.569099,1.21016,1.74533e-05,1.34249,0.00757473,0,0.0226369,0.0520108,0,-0.0150447,0,3.09,1.887,-3.47,-0.107,0.159,-0.013,-1.96,29.309,-2.828,1.134,-0.511467,-0.07045
23:25:13:846272,-0.00165806,-0.569012,1.2104,1.74533e-05,1.3424,0.00757473,0,0.0202109,0.0502655,0,-0.0157429,0,3.044,1.945,-3.558,-0.114,0.156,-0.011,-1.841,29.75,-2.961,0.546,-0.629823,0.023953
23:25:13:851220,-0.00165806,-0.568908,1.21066,1.74533e-05,1.34232,0.00757473,0,0.0189892,0.0513301,0,-0.0179071,0,3.275,1.938,-3.596,-0.113,0.16,-0.008,-1.624,29.428,-3.22,0.847,-0.641095,0.02818
23:25:13:856396,-0.00165806,-0.568803,1.21094,1.74533e-05,1.34223,0.00757473,0,0.0217817,0.0525868,0,-0.0158476,0,3.608,1.898,-3.527,-0.11,0.174,-0.005,-1.134,30.093,-2.387,1.267,-0.614324,0.114129
23:25:13:861343,-0.00165806,-0.568663,1.21122,1.74533e-05,1.34214,0.00757473,0,0.0246266,0.0552048,0,-0.01775,0,4.095,1.818,-3.363,-0.103,0.205,-0.002,-0.777,28.721,-2.905,1.001,-0.603052,0.036634
23:25:13:866519,-0.00165806,-0.568506,1.2115,1.74533e-05,1.34204,0.00757473,0,0.0278555,0.0549953,0,-0.0178547,0,4.259,1.782,-3.352,-0.1,0.222,0,-0.735,28.511,-2.702,1.351,-0.642504,-0.118356
23:25:13:871543,-0.00164061,-0.568332,1.21173,1.74533e-05,1.34195,0.00757473,0,0.0312938,0.0470366,0,-0.0187448,0,4.219,1.791,-3.625,-0.098,0.232,0.001,-0.049,28.343,-2.275,1.344,-0.73268,-0.022544
23:25:13:876489,-0.00164061,-0.568157,1.21189,1.74533e-05,1.34186,0.00757473,0,0.0334231,0.0387812,0,-0.0175929,0,4.08,1.843,-3.916,-0.099,0.225,0.002,0.217,27.349,-0.973,1.029,-0.59178,0.076086
23:25:13:881650,-0.00164061,-0.567982,1.21206,1.74533e-05,1.34176,0.00757473,0,0.0333881,0.0343132,0,-0.020909,0,3.884,1.973,-4.204,-0.105,0.206,0.001,0.462,28.931,1.092,1.001,-0.581917,-0.080313
23:25:13:886772,-0.00162316,-0.567843,1.21224,1.74533e-05,1.34163,0.00757473,0.00169297,0.0308574,0.0355698,0,-0.0236667,0,3.838,2.079,-4.186,-0.113,0.196,0,0.231,29.568,1.953,0.581,-0.598825,-0.022544
23:25:13:891788,-0.0016057,-0.567686,1.21245,1.74533e-05,1.34146,0.00757473,0.00289725,0.0301244,0.0385194,0,-0.0277682,0,3.941,2.241,-3.929,-0.129,0.193,0,0.189,28.623,1.519,1.351,-0.719999,-0.045088
23:25:13:896905,-0.00158825,-0.567546,1.21269,1.74533e-05,1.3413,0.00757473,0.00347321,0.030072,0.044663,0,-0.0314159,0,4.094,2.343,-3.738,-0.14,0.2,0,0.42,28.189,0.595,1.169,-0.388884,0.026771
23:25:13:901843,-0.0015708,-0.567389,1.21297,1.74533e-05,1.34115,0.00757473,0.00390954,0.0298626,0.052133,0,-0.0316079,0,4.319,2.477,-3.588,-0.153,0.216,0,0.931,29.351,0.014,1.078,-0.321252,0
23:25:13:906885,-0.00155334,-0.567232,1.2133,1.74533e-05,1.34101,0.00757473,0.00228638,0.0296357,0.0591143,0,-0.03084,0,4.382,2.541,-3.596,-0.158,0.224,0,1.204,29.043,-1.232,0.714,-0.249393,0.018317
23:25:13:912039,-0.00155334,-0.567075,1.21363,1.74533e-05,1.34085,0.00757473,0.00219911,0.0297404,0.0641059,0,-0.0286758,0,4.287,2.59,-3.703,-0.161,0.222,0,1.428,29.008,-2.352,1.26,-0.283209,-0.15499
23:25:13:917155,-0.00153589,-0.566918,1.21396,1.74533e-05,1.34069,0.00757473,0.00324631,0.031573,0.0640361,0,-0.0284838,0,4.07,2.603,-3.83,-0.161,0.208,0,1.946,29.148,-3.255,0.896,-0.156399,0.046497
23:25:13:922159,-0.00150098,-0.566761,1.21426,3.49066e-05,1.34057,0.00757473,0.00357793,0.0322188,0.0619592,0,-0.0273842,0,3.982,2.611,-3.874,-0.161,0.199,0,2.324,29.449,-2.352,0.714,-0.162035,0.023953
23:25:13:927119,-0.00148353,-0.566586,1.21459,3.49066e-05,1.34045,0.00757473,0.00506145,0.0330565,0.0649088,0,-0.025028,0,4.099,2.626,-3.829,-0.163,0.199,0,2.114,29.26,-3.136,1.246,-0.160626,-0.08454
23:25:13:932091,-0.00143117,-0.566412,1.21496,3.49066e-05,1.34034,0.00757473,0.00651008,0.0354127,0.069115,0,-0.0211883,0,4.35,2.632,-3.737,-0.165,0.21,0.001,2.793,29.365,-3.57,0.931,-0.236712,-0.100039
23:25:13:937216,-0.00139626,-0.566202,1.21531,3.49066e-05,1.34024,0.00757473,0.00708604,0.0387463,0.0690976,0,-0.0213977,0,4.799,2.639,-3.604,-0.166,0.238,0.003,2.681,27.951,-3.997,0.665,-0.26771,0.004227
23:25:13:942406,-0.00136136,-0.565993,1.21562,3.49066e-05,1.34013,0.00757473,0.0071733,0.0406313,0.0638092,0,-0.0208392,0,4.987,2.643,-3.577,-0.166,0.254,0.004,3.374,27.762,-2.842,1.491,-0.240939,0.018317
23:25:13:947415,-0.00132645,-0.565801,1.21587,3.49066e-05,1.34006,0.00757473,0.00747001,0.0397062,0.0545764,0,-0.0181514,0,4.933,2.632,-3.662,-0.164,0.261,0.004,3.514,27.223,-2.198,0.28,-0.284618,-0.052133
23:25:13:952340,-0.00127409,-0.565609,1.21609,3.49066e-05,1.33998,0.00757473,0.00844739,0.0377864,0.0472461,0,-0.0157254,0,4.703,2.607,-3.782,-0.162,0.251,0.004,3.493,28.357,0.098,1.113,-0.345205,-0.100039
23:25:13:957536,-0.00122173,-0.565434,1.2163,3.49066e-05,1.33991,0.00757473,0.00954695,0.0359887,0.0448724,0,-0.0161443,0,4.278,2.586,-4.003,-0.16,0.222,0.003,3.262,29.211,0.707,0.917,-0.443835,0.085949
23:25:13:962469,-0.00115192,-0.565277,1.21656,3.49066e-05,1.3398,0.00757473,0.0121475,0.0341735,0.0491834,0,-0.0175755,0,4.069,2.627,-4.141,-0.162,0.202,0.004,3.15,28.966,0.994,0.896,-0.497377,-0.114129
23:25:13:967658,-0.00106465,-0.565103,1.21688,3.49066e-05,1.33971,0.00757473,0.0154985,0.0335452,0.0569675,0,-0.018675,0,3.987,2.8,-4.239,-0.173,0.184,0.005,2.695,29.379,-0.406,0.392,-0.494559,-0.032407
23:25:13:972603,-0.000977384,-0.564928,1.21723,3.49066e-05,1.33963,0.00757473,0.0164061,0.0354825,0.0643677,0,-0.0175057,0,4.084,2.955,-4.18,-0.184,0.184,0.005,2.632,29.071,-1.127,0.945,-0.5636,-0.032407
23:25:13:977616,-0.000890118,-0.564719,1.21756,3.49066e-05,1.33954,0.00757473,0.0163886,0.0387638,0.0664098,0,-0.0182736,0,4.35,3.164,-3.929,-0.201,0.197,0.005,2.842,28.518,-1.323,1.421,-0.574872,-0.032407
23:25:13:982739,-0.000802851,-0.564509,1.21793,3.49066e-05,1.33944,0.00757473,0.0167203,0.0390954,0.0683995,0,-0.0184132,0,4.505,3.263,-3.771,-0.208,0.208,0.005,2.59,29.085,-2.912,0.28,-0.57769,0.040861
23:25:13:987713,-0.000715585,-0.564317,1.21827,3.49066e-05,1.33937,0.00757473,0.0175231,0.0391303,0.0686263,0,-0.0164585,0,4.552,3.344,-3.784,-0.212,0.216,0.005,2.016,28.763,-2.226,1.204,-0.784813,0.012681
23:25:13:992892,-0.000610865,-0.564108,1.21862,3.49066e-05,1.3393,0.00757473,0.0187797,0.0405964,0.0707731,0,-0.0153764,0,4.458,3.344,-3.963,-0.211,0.213,0.006,1.995,28.602,-2.751,0.903,-0.800312,-0.076086
23:25:13:997842,-0.000506145,-0.563898,1.21901,3.49066e-05,1.33919,0.00757473,0.019984,0.0416087,0.0740718,0,-0.0174358,0,4.337,3.248,-4.197,-0.206,0.205,0.007,2.352,27.412,-3.906,0.868,-0.812993,0.018317
23:25:14:3017,-0.000383972,-0.563689,1.21937,3.49066e-05,1.33905,0.00757473,0.0219213,0.0410851,0.0712967,0,-0.0217817,0,4.433,3.138,-4.163,-0.202,0.208,0.008,2.527,28.147,-3.857,0.7,-0.842582,-0.074677
23:25:14:7962,-0.000261799,-0.56348,1.21965,3.49066e-05,1.33893,0.00757473,0.0229685,0.0406487,0.0609818,0,-0.0255516,0,4.936,2.992,-3.885,-0.194,0.235,0.009,2.324,27.629,-2.163,0.42,-0.725635,-0.052133
23:25:14:13140,-0.00015708,-0.563288,1.21988,3.49066e-05,1.33879,0.00757473,0.0226544,0.0402473,0.0515221,0,-0.0265465,0,5.577,2.923,-3.749,-0.186,0.28,0.013,1.883,28.098,-0.889,1.19,-0.712954,0.071859
23:25:14:18164,-5.23599e-05,-0.563096,1.22011,3.49066e-05,1.33863,0.00757473,0.0216944,0.0394619,0.0490612,0,-0.026721,0,5.822,2.896,-3.878,-0.181,0.303,0.015,2.478,28.07,0.21,1.162,-0.555146,-0.004227
23:25:14:23114,3.49066e-05,-0.562904,1.22037,3.49066e-05,1.33848,0.00757473,0.0212407,0.0376817,0.0503527,0,-0.0310843,0,5.719,2.85,-4.276,-0.175,0.307,0.018,1.841,28.203,0.945,0.742,-0.597416,0.066223
23:25:14:28282,0.000139626,-0.562712,1.22067,3.49066e-05,1.33828,0.00757473,0.0204204,0.0383798,0.0555538,0,-0.0355698,0,5.421,2.832,-4.535,-0.174,0.289,0.019,2.856,27.748,0.035,0.826,-0.60587,0
23:25:14:33389,0.000226893,-0.56252,1.22101,3.49066e-05,1.33804,0.00757473,0.0183958,0.0389732,0.0639838,0,-0.0434063,0,4.983,2.875,-4.749,-0.178,0.251,0.019,2.702,29.022,-0.742,1.134,-0.287436,0.012681
23:25:14:38390,0.000314159,-0.562293,1.22138,3.49066e-05,1.33781,0.00757473,0.0172264,0.0413119,0.069307,0,-0.0460243,0,4.876,2.946,-4.735,-0.185,0.234,0.02,3.017,28.049,-1.043,0.392,-0.224031,0.032407
23:25:14:43369,0.000383972,-0.562066,1.22175,3.49066e-05,1.33759,0.00757473,0.0161268,0.0440696,0.0696037,0,-0.0429526,0,5.044,3.071,-4.484,-0.198,0.235,0.022,3.675,26.971,-0.427,1.162,-0.114129,-0.076086
23:25:14:48526,0.000453786,-0.561839,1.22211,3.49066e-05,1.33745,0.00757473,0.0150273,0.0448201,0.0717679,0,-0.0332136,0,5.254,3.152,-4.244,-0.205,0.249,0.024,4.284,27.566,-1.743,0.987,-0.156399,0.064814
23:25:14:53542,0.000523599,-0.561612,1.2225,3.49066e-05,1.33732,0.00757473,0.0142768,0.0445234,0.0751888,0,-0.028571,0,5.436,3.27,-4.006,-0.213,0.269,0.026,5.103,27.58,-2.149,1.043,-0.185988,0.018317
23:25:14:58660,0.000593412,-0.561403,1.2229,3.49066e-05,1.33718,0.00757473,0.0143117,0.0427955,0.0786096,0,-0.0282394,0,5.396,3.328,-3.991,-0.216,0.272,0.027,4.886,27.517,-2.212,0.987,-0.080313,0.032407
23:25:14:63590,0.000680678,-0.561193,1.2233,3.49066e-05,1.33704,0.00757473,0.016057,0.0422195,0.0787842,0,-0.0278031,0,5.239,3.326,-4.046,-0.215,0.26,0.028,5.621,27.622,-2.744,0.987,-0.273346,-0.07045
23:25:14:68776,0.000767945,-0.560966,1.22363,3.49066e-05,1.33692,0.00757473,0.0168948,0.0447851,0.0709825,0,-0.0255691,0,5.223,3.265,-4.014,-0.212,0.254,0.029,5.222,27.685,-1.176,1.029,-0.247984,0.114129
23:25:14:73728,0.000855211,-0.560722,1.22391,3.49066e-05,1.3368,0.00757473,0.0167726,0.0461989,0.0605106,0,-0.0239459,0,5.457,3.168,-3.87,-0.208,0.264,0.032,5.229,27.027,-0.329,1.085,-0.298708,-0.081722
23:25:14:78895,0.000959931,-0.560478,1.22421,3.49066e-05,1.33671,0.00757473,0.0178722,0.0482933,0.0578053,0,-0.0193906,0,5.698,3.157,-3.829,-0.207,0.282,0.036,6.111,26.908,0.917,0.854,-0.397338,-0.02818
23:25:14:83904,0.0010472,-0.560216,1.22454,3.49066e-05,1.33663,0.00757473,0.0189368,0.049899,0.0641932,0,-0.0200364,0,5.906,3.249,-3.988,-0.209,0.307,0.042,5.481,25.76,0.644,0.294,-0.453698,0.136673
23:25:14:88894,0.00115192,-0.559954,1.22492,3.49066e-05,1.3365,0.00757473,0.0201935,0.0505447,0.070075,0,-0.0218864,0,5.834,3.363,-4.194,-0.213,0.309,0.044,4.893,26.586,-0.966,0.567,-0.472015,-0.036634
23:25:14:94016,0.00127409,-0.559692,1.22533,3.49066e-05,1.3364,0.00757473,0.022061,0.0514349,0.0759916,0,-0.0214501,0,5.464,3.576,-4.428,-0.226,0.286,0.045,5.236,25.795,-1.414,0.826,-0.612915,-0.11272
23:25:14:98961,0.00141372,-0.55943,1.22569,3.49066e-05,1.33629,0.00757473,0.0245044,0.0512952,0.0755204,0,-0.0201935,0,5.182,3.733,-4.418,-0.238,0.261,0.045,3.892,25.648,-1.148,0.525,-0.57769,0.094403
23:25:14:104138,0.00153589,-0.559186,1.22609,3.49066e-05,1.33619,0.00757473,0.0264766,0.049515,0.0764454,0,-0.0203505,0,4.932,3.99,-4.146,-0.259,0.231,0.044,4.844,25.788,-1.54,0.483,-0.727044,0.085949
23:25:14:109142,0.00167552,-0.558959,1.2265,3.49066e-05,1.3361,0.00757473,0.0262672,0.0479791,0.0811578,0,-0.0190241,0,4.927,4.284,-3.856,-0.281,0.224,0.046,4.13,26.18,-1.246,1.085,-0.639686,0.008454
23:25:14:114216,0.00181514,-0.558715,1.22697,3.49066e-05,1.336,0.00757473,0.026721,0.0466527,0.0869698,0,-0.0203331,0,4.964,4.504,-3.837,-0.295,0.228,0.048,4.438,26.922,-2.772,0.392,-0.825674,0.004227
23:25:14:119278,0.00193732,-0.558505,1.22737,3.49066e-05,1.33588,0.00757473,0.0245393,0.0452738,0.0835315,0,-0.0217119,0,4.941,4.84,-4.051,-0.316,0.233,0.051,5.145,27.244,-1.897,0.826,-0.790449,-0.04227
