srisadhan/powerball/bin/HRI_project/2021/admittance/Non-stiff env/admittance_hg.csv
TimeStamp , Q1, Q2, Q3, Q4, Q5, Q6, dQ1, dQ2, dQ3, dQ4, dQ5, dQ6, Fx, Fy, Fz, Mx, My, Mz, Joint1_torque, Joint2_torque, Joint3_torque, Joint4_torque, Joint5_torque, Joint6_torque 
23:26:50:301614,0.000244346,-0.581788,1.1875,3.49066e-05,1.35184,-0.00596903,0,-0.00190241,0,0,0,0,0,0,0,0,0,0,-1.932,14.483,-14.049,3.08,-0.049315,-0.317025
23:26:50:306563,0.000244346,-0.581788,1.1875,3.49066e-05,1.35184,-0.00596903,0,0,0,0,0,0,0,0,0,0,0,0,-2.352,13.93,-14.364,2.331,0.04227,-0.287436
23:26:50:311763,0.000244346,-0.581788,1.1875,3.49066e-05,1.35184,-0.00596903,0,0,0,0,0,0,0,0,0,0,0,0,-2.205,13.517,-14.42,2.779,-0.001409,-0.287436
23:26:50:316736,0.000244346,-0.581788,1.1875,3.49066e-05,1.35184,-0.00596903,0,0,0,0,0,0,0,0,0,0,0,0,-1.883,13.475,-14.455,2.149,0.077495,-0.348023
23:26:50:321701,0.000244346,-0.581788,1.1875,3.49066e-05,1.35184,-0.00596903,0,0,0,0,0,0,0,0,0,0,0,0,-1.673,13.797,-14.616,2.842,0.005636,-0.315616
23:26:50:326824,0.000244346,-0.581788,1.1875,3.49066e-05,1.35184,-0.00596903,0,0,0,0,0,0,0,0,0,0,0,0,-2.107,13.958,-14.105,2.485,0.077495,-0.336751
23:26:50:331824,0.000244346,-0.581788,1.1875,3.49066e-05,1.35184,-0.00596903,0,0,0,0,0,0,0,0,0,0,0,0,-2.184,14.175,-13.496,2.534,-0.018317,-0.312798
23:26:50:336999,0.000244346,-0.581788,1.1875,3.49066e-05,1.35184,-0.0058294,0,0,0,0,0,0.0193382,0,0,0,0,0,0,-2.352,14.245,-14.084,2.597,0.016908,1.38505
23:26:50:341983,0.000244346,-0.581788,1.1875,5.23599e-05,1.35184,-0.00486947,0,0,0,0,0,0.122208,0,0,0,0,0,0,-2.492,14.336,-14.819,3.08,0.04227,-0.931349
23:26:50:347121,0.000244346,-0.581788,1.1875,5.23599e-05,1.35184,-0.0047473,0,0,0,0,0,0.0536689,0,0,0,0,0,0,-2.191,13.874,-13.993,2.058,0.133855,-0.38043
23:26:50:352126,0.000244346,-0.581788,1.1875,5.23599e-05,1.35184,-0.00490437,0,0,0,0,0,0.00481711,0,0,0,0,0,0,-1.925,13.853,-14.364,1.652,0,-0.157808
23:26:50:357235,0.000244346,-0.581788,1.1875,5.23599e-05,1.35184,-0.00488692,0,0,0,0,0,0.00509636,0,0,0,0,0,0,-1.785,14.189,-13.496,2.45,0.008454,-0.087358
23:26:50:362195,0.000244346,-0.581788,1.1875,5.23599e-05,1.35184,-0.00488692,0,0,0,0,0,0,0,0,0,0,0,0,-2.044,13.986,-13.881,2.94,-0.035225,-0.115538
23:26:50:367374,0.000244346,-0.581788,1.1875,5.23599e-05,1.35184,-0.00488692,0,0,0,0,0,0,0,0,0,0,0,0,-2.163,14.189,-14.14,2.891,0.032407,-0.09863
23:26:50:372371,0.000244346,-0.581788,1.1875,5.23599e-05,1.35184,-0.00488692,0,0,0,0,0,0,0,0,0,0,0,0,-2.408,13.811,-13.937,3.395,0.035225,-0.149354
23:26:50:377426,0.000244346,-0.581788,1.1875,5.23599e-05,1.35184,-0.00488692,0,0,0,0,0,0,0,0,0,0,0,0,-2.044,13.622,-14.511,2.793,0.021135,-0.162035
23:26:50:382478,0.000244346,-0.581788,1.1875,5.23599e-05,1.35184,-0.00488692,0,0,0,0,0,0,0,0,0,0,0,0,-2.24,14.07,-14.399,2.324,0.102857,-0.288845
23:26:50:387567,0.000244346,-0.581788,1.1875,5.23599e-05,1.35184,-0.00488692,0,0,0,0,0,0,0,0,0,0,0,0,-1.841,14.308,-13.867,3.108,0.005636,-0.193033
23:26:50:392624,0.000244346,-0.581788,1.1875,5.23599e-05,1.35184,-0.00488692,0,0,0,0,0,0,0,0,0,0,0,0,-2.044,13.636,-14.084,2.555,0.012681,-0.260665
23:26:50:397733,0.000244346,-0.581788,1.1875,5.23599e-05,1.35184,-0.00488692,0,0,0,0,0,0,0,0,0,0,0,0,-2.611,13.517,-14.287,2.674,0.046497,-0.173307
23:26:50:402695,0.000244346,-0.581788,1.1875,5.23599e-05,1.35184,-0.00488692,0,0,0,0,0,0,0,0,0,0,0,0,-1.925,13.783,-14.714,2.52,-0.097221,-0.138082
23:26:50:407866,0.000244346,-0.581788,1.1875,5.23599e-05,1.35184,-0.00488692,0,0,0,0,0,0,0,0,0,0,0,0,-2.093,14.644,-14.049,2.681,-0.046497,-0.178943
23:26:50:412802,0.000244346,-0.581788,1.1875,5.23599e-05,1.35184,-0.00488692,0,0,0,0,0,0,0,0,0,0,0,0,-2.268,13.664,-13.881,2.814,0.021135,-0.094403
23:26:50:417996,0.000244346,-0.581788,1.1875,5.23599e-05,1.35184,-0.00488692,0,0,0,0,0,0,0,0,0,0,0,0,-1.925,13.755,-14.378,2.338,-0.005636,-0.264892
23:26:50:422996,0.000244346,-0.581788,1.1875,5.23599e-05,1.35184,-0.00488692,0,0,0,0,0,0,0,0,0,0,0,0,-2.212,14.028,-14.637,3.164,0.088767,-0.243757
23:26:50:428120,0.000244346,-0.581788,1.1875,5.23599e-05,1.35184,-0.00488692,0,0,0,0,0,0,0,0,0,0,0,0,-1.82,13.986,-13.846,2.52,-0.018317,-0.328297
23:26:50:433048,0.000244346,-0.581805,1.1875,5.23599e-05,1.35184,-0.00488692,0,0,0,0,0,0,0,0,0,0,0,0,-1.988,14.014,-14.784,2.863,0.029589,-0.053542
23:26:50:438244,0.000244346,-0.581805,1.1875,5.23599e-05,1.35184,-0.00488692,0,0,0,0,0,0,0,0,0,0,0,0,-2.072,13.447,-14.252,2.723,-0.022544,-0.188806
23:26:50:443190,0.000244346,-0.581805,1.1875,5.23599e-05,1.35184,-0.00488692,0,0,0,0,0,0,0,0,0,0,0,0,-1.848,13.755,-13.699,2.611,0.021135,-0.118356
23:26:50:448192,0.000244346,-0.581805,1.1875,5.23599e-05,1.35184,-0.00488692,0,0,0,0,0,0,0,0,0,0,0,0,-2.1,13.853,-14.252,2.87,0.029589,-0.219804
23:26:50:453372,0.000244346,-0.581805,1.1875,5.23599e-05,1.35184,-0.00488692,0,0,0,0,0,0,0,0,0,0,0,0,-1.988,13.664,-13.79,2.94,0.088767,-0.145127
23:26:50:458300,0.000244346,-0.581805,1.1875,5.23599e-05,1.35184,-0.00488692,0,0,0,0,0,0,0,0,0,0,0,0,-1.967,13.853,-14.567,2.485,0.054951,-0.138082
23:26:50:463314,0.000244346,-0.581805,1.1875,5.23599e-05,1.35184,-0.00488692,0,0,0,0,0,0,0,0,0,0,0,0,-1.932,13.643,-13.405,2.52,-0.025362,-0.233894
23:26:50:468422,0.000244346,-0.581805,1.1875,5.23599e-05,1.35184,-0.00488692,0,0,0,0,0,0,0,0,0,0,0,0,-1.785,13.636,-13.517,2.688,-0.02818,-0.274755
23:26:50:473438,0.000244346,-0.581805,1.1875,5.23599e-05,1.35184,-0.00488692,0,0,0,0,0,0,0,0,0,0,0,0,-2.044,13.776,-14.028,3.129,0.077495,-0.236712
23:26:50:478548,0.000244346,-0.581805,1.1875,5.23599e-05,1.35184,-0.00488692,0,0,0,0,0,0,0,0,0,0,0,0,-1.785,14.399,-14.175,3.017,0.005636,-0.094403
23:26:50:483562,0.000244346,-0.581805,1.1875,5.23599e-05,1.35184,-0.00488692,0,0,0,0,0,0,0,0,0,0,0,0,-1.904,13.167,-13.825,2.485,-0.036634,-0.162035
23:26:50:488688,0.000244346,-0.581805,1.1875,5.23599e-05,1.35184,-0.00488692,0,0,0,0,0,0,0,0,0,0,0,0,-2.184,13.734,-13.664,1.911,-0.01409,-0.216986
23:26:50:493725,0.000244346,-0.581805,1.1875,5.23599e-05,1.35184,-0.00488692,0,0,0,0,0,0,0,0,0,0,0,0,-2.324,13.692,-13.916,2.394,0.049315,-0.219804
23:26:50:498812,0.000244346,-0.581805,1.1875,5.23599e-05,1.35184,-0.00488692,0,0,0,0,0,0,0,0,0,0,0,0,-1.68,14.224,-14.399,2.702,-0.167671,-0.356477
23:26:50:503815,0.000244346,-0.581805,1.1875,6.98132e-05,1.35184,-0.00488692,0,0,0,0,0,0,0,0,0,0,0,0,-2.527,13.594,-14.049,2.667,0.040861,-0.315616
23:26:50:508923,0.000244346,-0.581805,1.1875,6.98132e-05,1.35184,-0.00488692,0,0,0,0,0,0,0,0,0,0,0,0,-1.988,13.524,-14.322,2.352,-0.032407,-0.101448
23:26:50:513994,0.000244346,-0.581805,1.1875,6.98132e-05,1.35184,-0.00488692,0,0,0,0,0,0,0,0,0,0,0,0,-1.876,13.706,-13.678,2.674,0.046497,-0.067632
23:26:50:519114,0.000244346,-0.581805,1.1875,6.98132e-05,1.35184,-0.00488692,0,0,0,0,0,0,0,0,0,0,0,0,-1.764,14.07,-14.749,2.632,-0.061996,-0.236712
23:26:50:524065,0.000244346,-0.581805,1.1875,6.98132e-05,1.35184,-0.00488692,0,0,0,0,0,0,0,0,0,0,0,0,-2.184,14.182,-14.637,2.17,-0.021135,-0.152172
23:26:50:529244,0.000244346,-0.581805,1.1875,6.98132e-05,1.35184,-0.00488692,0,0,0,0,0,0,0,0,0,0,0,0,-1.988,13.279,-13.769,2.835,0.02818,-0.188806
23:26:50:534173,0.000244346,-0.581805,1.1875,6.98132e-05,1.35184,-0.00488692,0,0,0,0,0,0,0,0,0,0,0,0,-2.065,14.14,-14.196,2.261,-0.059178,-0.114129
23:26:50:539358,0.000244346,-0.581805,1.1875,6.98132e-05,1.35184,-0.00488692,0,0,0,0,0,0,0,0,0,0,0,0,-2.016,13.545,-14.364,1.722,0.004227,-0.125401
23:26:50:544298,0.000244346,-0.581805,1.1875,6.98132e-05,1.35184,-0.00488692,0,0,0,0,0,0,0.058,-0.007,-0.079,0.001,0,0,-2.149,13.993,-13.419,2.485,-0.07045,-0.243757
23:26:50:549493,0.000244346,-0.581805,1.1875,6.98132e-05,1.35184,-0.00488692,0,0,0,0,0,0,0.071,-0.031,0.16,0,0,0,-2.555,13.923,-13.643,2.401,0.11272,-0.209941
23:26:50:554419,0.000244346,-0.581805,1.1875,6.98132e-05,1.35184,-0.00488692,0,0,0,0,0,0,0.07,-0.018,0.134,0,0,0,-2.275,13.384,-13.916,2.793,-0.022544,-0.178943
23:26:50:559441,0.000244346,-0.581805,1.1875,6.98132e-05,1.35184,-0.00488692,0,0,0,0,0,0,0.035,0.036,-0.164,0,0,0.001,-1.498,13.384,-14.028,1.876,0.001409,0.002818
23:26:50:564547,0.000244346,-0.581805,1.1875,6.98132e-05,1.35184,-0.00488692,0,0,0,0,0,0,-0.015,0.06,-0.285,0,0.001,0.001,-1.876,13.664,-14.063,2.667,0.083131,-0.2818
23:26:50:569546,0.000244346,-0.581805,1.1875,6.98132e-05,1.35184,-0.00488692,0,0,0,0,0,0,-0.105,0.053,-0.111,0,0.001,0,-1.561,14.889,-13.44,2.555,-0.021135,-0.057769
23:26:50:574671,0.000244346,-0.581805,1.1875,6.98132e-05,1.35184,-0.00488692,0,0,0,0,0,0,-0.142,0.05,0.077,0,0.001,-0.002,-1.785,13.755,-14.364,2.492,0.021135,-0.019726
23:26:50:579672,0.000244346,-0.581805,1.1875,6.98132e-05,1.35184,-0.00488692,0,0,0,0,0,0,-0.132,0.088,0.097,0,0,-0.002,-1.897,14.749,-13.993,2.611,0.059178,-0.212759
23:26:50:584886,0.000244346,-0.581805,1.1875,6.98132e-05,1.35184,-0.00488692,0,0,0,0,0,0,-0.096,0.119,-0.038,-0.001,0,0,-2.044,14.462,-13.972,2.59,0.004227,-0.138082
23:26:50:589790,0.000244346,-0.581805,1.1875,6.98132e-05,1.35184,-0.00488692,0,0,0,0,0,0,-0.047,0.113,-0.139,-0.001,0,0,-2.38,14.014,-14.105,2.317,-0.046497,-0.212759
23:26:50:594933,0.000244346,-0.581805,1.1875,6.98132e-05,1.35184,-0.00488692,0,0,0,0,0,0,-0.034,0.07,-0.057,-0.001,0,0,-1.904,13.993,-14.343,2.611,0.080313,-0.149354
23:26:50:599938,0.000244346,-0.581805,1.1875,6.98132e-05,1.35184,-0.00488692,0,0,0,0,0,0,-0.032,0,0.134,-0.001,0,0,-1.708,14.161,-13.825,3.304,0.040861,-0.284618
23:26:50:605113,0.000244346,-0.581805,1.1875,6.98132e-05,1.35184,-0.00488692,0,0,0,0,0,0,-0.023,-0.027,0.236,0,0,-0.001,-1.904,13.314,-14.175,2.968,0.083131,-0.193033
23:26:50:610097,0.000244346,-0.581805,1.1875,6.98132e-05,1.35184,-0.00488692,0,0,0,0,0,0,-0.007,-0.024,0.253,0,0,-0.001,-1.932,13.832,-13.643,3.283,-0.022544,-0.149354
23:26:50:615224,0.000244346,-0.581805,1.1875,6.98132e-05,1.35184,-0.00488692,0,0,0,0,0,0,0.02,-0.002,0.2,0,0,-0.002,-2.408,13.615,-14.105,2.632,-0.054951,-0.284618
23:26:50:620181,0.000244346,-0.581805,1.1875,6.98132e-05,1.35184,-0.00488692,0,0,0,0,0,0,0.035,0.018,0.098,0,0,-0.001,-1.932,13.265,-13.867,1.995,0.038043,-0.162035
23:26:50:625168,0.000244346,-0.581805,1.1875,6.98132e-05,1.35184,-0.00488692,0,0,0,0,0,0,0.045,0.036,-0.083,0,0,0,-2.044,13.097,-14.399,2.499,-0.11272,-0.216986
23:26:50:630343,0.000244346,-0.581805,1.1875,6.98132e-05,1.35184,-0.00488692,0,0,0,0,0,0,0.039,0.027,-0.133,0,0,0.001,-1.841,13.006,-14.343,1.764,-0.01409,-0.315616
23:26:50:635306,0.000244346,-0.581805,1.1875,6.98132e-05,1.35184,-0.00488692,0,0,0,0,0,0,0.009,-0.013,-0.035,0,0,0,-1.785,12.579,-14.084,2.436,0.046497,-0.260665
23:26:50:640439,0.000244346,-0.581805,1.1875,6.98132e-05,1.35184,-0.00488692,0,0,0,0,0,0,-0.016,-0.038,0.082,0,0,0,-1.848,13.783,-13.517,3.059,0.064814,-0.128219
23:26:50:645430,0.000244346,-0.581805,1.1875,6.98132e-05,1.35184,-0.00488692,0,0,0,0,0,0,-0.04,-0.047,0.191,0,0,-0.001,-1.988,14.112,-14.07,3.15,-0.025362,-0.138082
23:26:50:650539,0.000244346,-0.581805,1.1875,6.98132e-05,1.35184,-0.00488692,0,0,0,0,0,0,-0.03,-0.036,0.198,0,0,-0.001,-1.988,13.454,-14.322,2.989,-0.045088,-0.178943
23:26:50:655610,0.000244346,-0.581805,1.1875,6.98132e-05,1.35184,-0.00488692,0,0,0,0,0,0,0.017,-0.014,0.177,0,0,-0.001,-2.128,13.356,-13.713,2.681,-0.129628,-0.152172
23:26:50:660722,0.000244346,-0.581805,1.1875,6.98132e-05,1.35184,-0.00488692,0,0,0,0,0,0,0.05,0.001,0.167,0,0,-0.001,-2.016,13.832,-14.14,3.01,0.054951,-0.114129
23:26:50:665679,0.000244346,-0.581805,1.1875,6.98132e-05,1.35184,-0.00488692,0,0,0,0,0,0,0.065,0.041,0.117,0,0,0,-2.352,12.887,-14.399,2.212,0.038043,-0.128219
23:26:50:670867,0.000244346,-0.581805,1.1875,6.98132e-05,1.35184,-0.00488692,0,0,0,0,0,0,0.054,0.068,0.038,-0.001,0,0,-2.415,13.923,-14.322,2.478,-0.021135,-0.233894
23:26:50:675805,0.000244346,-0.581805,1.1875,6.98132e-05,1.35184,-0.00488692,0,0,0,0,0,0,0.039,0.081,-0.081,-0.001,0,0,-1.652,13.902,-14.175,2.59,-0.083131,-0.202896
23:26:50:680982,0.000244346,-0.581805,1.1875,6.98132e-05,1.35184,-0.00488692,0,0,0,0,0,0,0.039,0.067,-0.083,0,0,0,-2.436,13.804,-13.937,2.793,0.001409,-0.18317
23:26:50:685971,0.000244346,-0.581805,1.1875,6.98132e-05,1.35184,-0.00488692,0,0,0,0,0,0,0.04,0.038,0.051,-0.001,0,0,-1.995,13.664,-13.608,2.394,-0.054951,-0.091585
23:26:50:690915,0.000244346,-0.581805,1.1875,6.98132e-05,1.35184,-0.00488692,0,0,0,0,0,0,0.029,0.032,0.14,-0.001,0,0,-2.212,13.902,-14.49,2.366,-0.004227,-0.077495
23:26:50:696105,0.000244346,-0.581805,1.1875,6.98132e-05,1.35184,-0.00488692,0,0,0,0,0,0,0.01,0.036,0.103,-0.001,0,0,-1.848,13.713,-14.105,2.191,0.052133,-0.226849
23:26:50:701049,0.000244346,-0.581805,1.1875,6.98132e-05,1.35184,-0.00488692,0,0,0,0,0,0,0.006,0.034,-0.005,-0.001,0,0,-1.988,14.161,-14.364,2.1,-0.02818,-0.050724
23:26:50:706217,0.000244346,-0.581805,1.1875,6.98132e-05,1.35184,-0.00488692,0,0,0,0,0,0,0.009,0.012,-0.085,0,0,0.001,-1.96,13.853,-14.378,2.548,-0.129628,-0.200078
23:26:50:711179,0.000244346,-0.581805,1.1875,6.98132e-05,1.35184,-0.00488692,0,0,0,0,0,0,0,-0.011,-0.001,0,0,0,-2.044,14.581,-13.755,2.478,-0.066223,-0.207123
23:26:50:716357,0.000244346,-0.581805,1.1875,6.98132e-05,1.35184,-0.00488692,0,0,0,0,0,0,-0.007,-0.017,0.038,0,0,0,-2.044,14.161,-14.14,2.394,-0.035225,-0.15499
23:26:50:721411,0.000244346,-0.581805,1.1875,6.98132e-05,1.35184,-0.00488692,0,0,0,0,0,0,-0.012,-0.016,-0.017,0.001,0,0,-1.932,14.252,-14.105,2.793,0.125401,-0.185988
23:26:50:726606,0.000244346,-0.581805,1.1875,6.98132e-05,1.35184,-0.00488692,0,0,0,0,0,0,-0.018,-0.015,-0.057,0.001,0,0,-2.072,13.713,-13.79,2.415,0.090176,-0.277573
23:26:50:731552,0.000244346,-0.581805,1.1875,6.98132e-05,1.35184,-0.00488692,0,0,0,0,0,0,-0.046,-0.016,0.005,0,0,0,-2.163,13.097,-13.79,2.527,-0.118356,-0.171898
23:26:50:736553,0.000244346,-0.581805,1.1875,6.98132e-05,1.35184,-0.00488692,0,0,0,0,0,0,-0.072,-0.008,0.083,0,0,-0.001,-2.044,14.77,-14.728,3.353,0.040861,-0.178943
23:26:50:741718,0.000244346,-0.581805,1.1875,6.98132e-05,1.35184,-0.00488692,0,0,0,0,0,0,-0.097,0.01,0.102,0,0,-0.002,-1.736,13.475,-13.419,2.191,0.046497,-0.111311
23:26:50:746659,0.000244346,-0.581805,1.1875,6.98132e-05,1.35184,-0.00488692,0,0,0,0,0,0,-0.101,0.012,0.047,0,0,-0.002,-2.135,13.664,-14.343,2.324,0,-0.195851
23:26:50:751677,0.000244346,-0.581805,1.1875,6.98132e-05,1.35184,-0.00488692,0,0,0,0,0,0,-0.089,-0.005,-0.026,0,0,-0.001,-2.1,14.392,-13.902,3.017,0.066223,-0.207123
23:26:50:756855,0.000244346,-0.581805,1.1875,6.98132e-05,1.35184,-0.00488692,0,0,0,0,0,0,-0.067,-0.008,-0.041,0,0,-0.001,-2.016,14.413,-13.272,3.332,0.045088,-0.111311
23:26:50:761982,0.000244346,-0.581805,1.1875,6.98132e-05,1.35184,-0.00488692,0,0,0,0,0,0,-0.027,0.032,-0.049,0,0,-0.001,-2.261,14.105,-14.14,3.08,0.136673,-0.108493
23:26:50:766926,0.000244346,-0.581805,1.1875,6.98132e-05,1.35184,-0.00488692,0,0,0,0,0,0,-0.018,0.074,-0.05,0,0,-0.001,-2.1,13.356,-14.525,1.925,0.059178,-0.246575
23:26:50:772095,0.000244346,-0.581805,1.1875,6.98132e-05,1.35184,-0.00488692,0,0,0,0,0,0,-0.052,0.097,-0.017,-0.001,0.001,-0.001,-1.764,13.734,-13.902,3.038,0.105675,-0.138082
23:26:50:777051,0.000244346,-0.581805,1.1875,6.98132e-05,1.35184,-0.00488692,0,0,0,0,0,0,-0.105,0.06,0.006,-0.001,0.001,-0.002,-2.275,14.28,-13.867,2.611,0.01409,-0.104266
23:26:50:782049,0.000244346,-0.581805,1.1875,6.98132e-05,1.35184,-0.00488692,0,0,0,0,0,0,-0.122,0.033,-0.041,-0.001,0.001,-0.002,-2.415,13.622,-14.14,2.73,0.083131,-0.274755
23:26:50:787158,0.000244346,-0.581805,1.1875,8.72665e-05,1.35184,-0.00488692,0,0,0,0,0,0,-0.114,0.034,-0.181,-0.001,0.001,-0.001,-1.925,14.154,-14.322,2.779,-0.021135,-0.209941
23:26:50:792176,0.000244346,-0.581805,1.1875,8.72665e-05,1.35184,-0.00488692,0,0,0,0,0,0,-0.109,0.05,-0.216,-0.001,0,0,-2.408,13.664,-14.105,-0.448,-0.046497,-0.138082
23:26:50:797337,0.000244346,-0.581805,1.1875,8.72665e-05,1.35184,-0.00488692,0,0,0,0,0,0,-0.12,0.051,-0.065,-0.001,0,-0.001,-1.876,13.755,-14.07,3.899,0.046497,-0.224031
23:26:50:802343,0.000244346,-0.581805,1.1875,8.72665e-05,1.35184,-0.00488692,0,0,0,0,0,0,-0.13,0.028,0.102,-0.001,0,-0.002,-1.988,13.881,-13.867,2.275,0.030998,-0.202896
23:26:50:807481,0.000244346,-0.581805,1.1875,8.72665e-05,1.35184,-0.00488692,0,0,0,0,0,0,-0.108,-0.01,0.218,0,0,-0.002,-1.764,14.161,-14.455,2.961,0.1409,-0.18317
23:26:50:812426,0.000244346,-0.581805,1.1875,8.72665e-05,1.35184,-0.00488692,0,0,0,0,0,0,-0.063,-0.027,0.168,0,0,-0.001,-2.128,14.182,-13.734,4.452,0.046497,-0.216986
23:26:50:817426,0.000244346,-0.581805,1.1875,8.72665e-05,1.35184,-0.00488692,0,0,0,0,0,0,0.014,-0.048,0.094,0,0,0,-1.988,13.685,-13.79,6.615,0.04227,-0.178943
23:26:50:822610,0.000244346,-0.581805,1.1875,8.72665e-05,1.35184,-0.00488692,0,0,0,0,0,0,0.04,-0.061,0.146,0.001,0,0,-2.128,13.895,-13.552,2.464,0.01409,-0.178943
23:26:50:827547,0.000244346,-0.581805,1.1875,8.72665e-05,1.35184,-0.00488692,0,0,0,0,0,0,0.019,-0.056,0.272,0,0,-0.001,-2.016,14.392,-14.105,1.827,-0.105675,-0.111311
23:26:50:832724,0.000244346,-0.581805,1.1875,8.72665e-05,1.35184,-0.00488692,0,0,0,0,0,0,-0.006,-0.026,0.255,0,0,-0.002,-1.785,14.301,-14.49,2.975,0.009863,-0.132446
23:26:50:837672,0.000244346,-0.581805,1.1875,8.72665e-05,1.35184,-0.00488692,0,0,0,0,0,0,-0.005,0.028,0.056,0,0,0,-1.841,13.426,-13.734,2.324,0.01409,-0.107084
23:26:50:842845,0.000244346,-0.581805,1.1875,8.72665e-05,1.35184,-0.00481711,0,0,0,0,0,0,0.025,0.045,-0.075,0,0,0,-1.96,13.825,-14.175,3.052,-0.066223,0.097221
23:26:50:847851,0.000244346,-0.581805,1.1875,8.72665e-05,1.35184,-0.0047822,0,0,0,0,0,0.00666716,0.063,0.039,-0.116,0,0,0,-2.191,14.112,-13.811,2.478,-0.045088,-0.108493
23:26:50:852978,0.000244346,-0.581805,1.1875,8.72665e-05,1.35184,-0.00476475,0,0,0,0,0,0.0026529,0.056,0.032,-0.048,0,0,0,-1.981,14.063,-13.475,2.079,-0.022544,-0.036634
23:26:50:857964,0.000244346,-0.581805,1.1875,8.72665e-05,1.35184,-0.00476475,0,0,0,0,0,0,0.008,0.031,0.098,-0.001,0,-0.001,-2.247,13.524,-13.811,1.981,0.009863,-0.094403
23:26:50:862919,0.000244346,-0.581805,1.1875,8.72665e-05,1.35184,-0.00476475,0,0,0,0,0,0,-0.017,0.033,0.177,-0.001,0,-0.001,-2.1,14.56,-13.405,2.387,-0.001409,-0.060587
23:26:50:868046,0.000244346,-0.581805,1.1875,8.72665e-05,1.35184,-0.00476475,0,0,0,0,0,0,-0.011,0.047,0.173,-0.002,0,-0.001,-1.414,13.993,-13.272,2.212,0.094403,-0.060587
23:26:50:873106,0.000244346,-0.581805,1.1875,8.72665e-05,1.35184,-0.00476475,0,0,0,0,0,0,0.04,0.087,-0.04,-0.001,0,0,-1.757,14.14,-13.825,2.198,0.066223,-0.05636
23:26:50:878223,0.000244346,-0.581805,1.1875,8.72665e-05,1.35184,-0.00476475,0,0,0,0,0,0,0.087,0.117,-0.235,0,0,0.002,-1.953,13.923,-14.322,2.177,0.004227,-0.184579
23:26:50:883213,0.000244346,-0.581805,1.1875,8.72665e-05,1.35184,-0.00476475,0,0,0,0,0,0,0.147,0.119,-0.385,0,0,0.003,-1.561,13.825,-14.119,2.24,-0.077495,-0.01409
23:26:50:888347,0.000244346,-0.581805,1.1875,8.72665e-05,1.35184,-0.00476475,0,0,0,0,0,0,0.157,0.085,-0.316,0,0,0.003,-1.757,13.923,-14.014,2.366,0.016908,-0.345205
23:26:50:893334,0.000244346,-0.581805,1.1875,0.00010472,1.35184,-0.00476475,0,0,0,0,0,0,0.109,0.02,-0.065,0,0,0.001,-1.876,13.713,-13.958,2.982,0.146536,-0.102857
23:26:50:898458,0.000244346,-0.581805,1.1875,0.00010472,1.35184,-0.00476475,0,0,0,0,0,0,0.049,-0.004,0.078,0,0,0,-1.96,13.734,-14.287,3.136,-0.066223,-0.132446
23:26:50:903418,0.000244346,-0.581805,1.1875,0.00010472,1.35184,-0.00476475,0,0,0,0,0,0,-0.019,-0.009,0.162,0,0,-0.001,-2.128,13.944,-14.14,2.415,-0.053542,-0.060587
23:26:50:908421,0.000244346,-0.581805,1.1875,0.00010472,1.35184,-0.00476475,0,0,0,0,0,0,-0.028,-0.01,0.153,0,0,-0.001,-1.897,13.664,-14.343,2.744,0.009863,-0.136673
23:26:50:913527,0.000244346,-0.581805,1.1875,0.00010472,1.35184,-0.00476475,0,0,0,0,0,0,0.006,-0.016,0.084,0,0,0,-2.387,13.643,-13.958,2.38,-0.021135,-0.245166
23:26:50:918709,0.000244346,-0.581805,1.1875,0.00010472,1.35184,-0.00476475,0,0,0,0,0,0,0.036,-0.014,0.003,0,0,0,-2.212,13.202,-14.693,2.632,-0.004227,-0.122583
23:26:50:923711,0.000244346,-0.581805,1.1875,0.00010472,1.35184,-0.00476475,0,0,0,0,0,0,0.057,-0.004,-0.114,0,0,0.001,-2.443,14.28,-13.734,2.247,-0.021135,-0.150763
23:26:50:928671,0.000244346,-0.581805,1.1875,0.00010472,1.35184,-0.00476475,0,0,0,0,0,0,0.044,-0.006,-0.121,0,0,0.001,-2.044,13.384,-13.867,1.904,0.029589,-0.1409
23:26:50:933848,0.000244346,-0.581805,1.1875,0.00010472,1.35184,-0.00476475,0,0,0,0,0,0,-0.006,-0.029,0.017,0,0,0,-2.331,13.776,-14.308,2.653,-0.022544,-0.156399
23:26:50:938849,0.000244346,-0.581805,1.1875,0.00010472,1.35184,-0.00476475,0,0,0,0,0,0,-0.04,-0.037,0.145,0,0,0,-1.96,14.021,-13.181,1.995,0.111311,-0.15499
23:26:50:943967,0.000244346,-0.581805,1.1875,0.00010472,1.35184,-0.00476475,0,0,0,0,0,0,-0.052,-0.008,0.253,0,0,-0.001,-2.212,13.244,-13.664,2.415,-0.029589,-0.246575
23:26:50:948918,0.000244346,-0.581805,1.1875,0.00010472,1.35184,-0.00476475,0,0,0,0,0,0,-0.025,0.031,0.229,0,0,-0.001,-2.212,14.392,-13.902,2.345,0.054951,-0.142309
23:26:50:954098,0.000244346,-0.581805,1.1875,0.00010472,1.35184,-0.00476475,0,0,0,0,0,0,0.043,0.089,0.059,0,0,0,-2.527,14.441,-13.769,2.702,0.064814,-0.298708
23:26:50:959084,0.000244346,-0.581805,1.1875,0.00010472,1.35184,-0.00476475,0,0,0,0,0,0,0.083,0.104,-0.151,0,0,0.001,-1.932,14.35,-13.272,2.38,0.01409,-0.360704
23:26:50:964216,0.000244346,-0.581805,1.1875,0.00010472,1.35184,-0.00476475,0,0,0,0,0,0,0.07,0.084,-0.195,0,0,0.002,-1.876,14.483,-14.049,1.876,-0.04227,-0.250802
23:26:50:969206,0.000244346,-0.581805,1.1875,0.00010472,1.35184,-0.00476475,0,0,0,0,0,0,0.008,0.033,-0.028,0,0,0,-2.205,13.573,-13.587,2.289,-0.157808,-0.15499
23:26:50:974346,0.000244346,-0.581805,1.1875,0.00010472,1.35184,-0.00476475,0,0,0,0,0,0,-0.026,0.007,0.146,0,0,0,-2.212,14.623,-14.105,1.771,0.02818,-0.321252
23:26:50:979278,0.000244346,-0.581805,1.1875,0.00010472,1.35184,-0.00476475,0,0,0,0,0,0,-0.028,0.009,0.25,0,0,-0.002,-2.275,14.112,-13.678,2.212,0.021135,-0.264892
23:26:50:984334,0.000244346,-0.581805,1.1875,0.00010472,1.35184,-0.00476475,0,0,0,0,0,0,0,0.029,0.163,0,0,-0.001,-1.617,13.412,-13.881,2.653,0.01409,-0.132446
23:26:50:989455,0.000244346,-0.581805,1.1875,0.00010472,1.35184,-0.00476475,0,0,0,0,0,0,0.045,0.049,-0.039,0,0,0,-1.589,14.301,-14.161,2.793,-0.029589,-0.288845
23:26:50:994398,0.000244346,-0.581805,1.1875,0.00010472,1.35184,-0.00476475,0,0,0,0,0,0,0.063,0.043,-0.105,0,0,0,-1.449,14.259,-13.517,3.206,0.029589,-0.202896
23:26:50:999593,0.000244346,-0.581805,1.1875,0.00010472,1.35184,-0.00476475,0,0,0,0,0,0,0.06,0.011,-0.048,0,0,0,-1.876,13.482,-13.461,2.702,0.045088,-0.226849
23:26:51:4540,0.000244346,-0.581805,1.1875,0.00010472,1.35184,-0.00476475,0,0,0,0,0,0,0.033,-0.013,0.047,0,0,0,-1.953,13.804,-14.434,3.003,-0.004227,-0.449471
23:26:51:9543,0.000244346,-0.581805,1.1875,0.00010472,1.35184,-0.00476475,0,0,0,0,0,0,-0.043,-0.043,0.174,0,0,-0.001,-2.52,13.923,-13.825,2.534,-0.109902,-0.297299
23:26:51:14720,0.000244346,-0.581805,1.1875,0.00010472,1.35184,-0.00476475,0,0,0,0,0,0,-0.098,-0.052,0.212,0,0,-0.002,-1.309,14.042,-14.217,2.226,0.007045,-0.287436
23:26:51:19827,0.000244346,-0.581805,1.1875,0.00010472,1.35184,-0.00476475,0,0,0,0,0,0,-0.121,-0.045,0.18,0,0,-0.002,-2.044,13.503,-13.587,2.45,0.029589,-0.377612
23:26:51:24829,0.000244346,-0.581805,1.1875,0.00010472,1.35184,-0.00476475,0,0,0,0,0,0,-0.083,-0.027,0.106,0,0,-0.001,-1.904,13.944,-13.552,2.751,0.125401,-0.387475
23:26:51:29844,0.000244346,-0.581805,1.1875,0.00010472,1.35184,-0.00476475,0,0,0,0,0,0,0.007,0.007,-0.029,0,0,0,-2.212,13.643,-14.014,2.128,0.078904,-0.321252
23:26:51:34968,0.000244346,-0.581805,1.1875,0.00010472,1.35184,-0.00476475,0,0,0,0,0,0,0.045,0.025,-0.09,0,0,0,-1.82,14.252,-13.867,2.968,0.01409,-0.283209
23:26:51:40092,0.000244346,-0.581805,1.1875,0.00010472,1.35184,-0.00476475,0,0,0,0,0,0,0.042,0.029,-0.077,0,0,0.001,-1.757,13.594,-14.581,3.031,-0.088767,-0.193033
23:26:51:45094,0.000244346,-0.581805,1.1875,0.00010472,1.35184,-0.00476475,0,0,0,0,0,0,0.006,0.009,0.042,0,0,0,-2.093,14.35,-13.958,2.247,0.02818,-0.245166
23:26:51:50091,0.000244346,-0.581805,1.1875,0.00010472,1.35184,-0.00476475,0,0,0,0,0,0,-0.001,-0.004,0.129,0,0,0,-2.044,14.042,-14.14,2.366,-0.022544,-0.264892
23:26:51:55220,0.000244346,-0.581805,1.1875,0.00010472,1.35184,-0.00476475,0,0,0,0,0,0,0.022,-0.011,0.173,0,0,0,-2.1,12.964,-14.749,3.017,0.026771,-0.193033
23:26:51:60221,0.000244346,-0.581805,1.1875,0.00010472,1.35184,-0.00476475,0,0,0,0,0,0,0.05,-0.005,0.137,0,0,0,-2.184,13.384,-13.734,2.527,0.016908,-0.325479
23:26:51:65327,0.000244346,-0.581805,1.1875,0.00010472,1.35184,-0.00476475,0,0,0,0,0,0,0.075,0.007,0.084,0,0,0,-1.645,14.203,-13.699,2.891,0.04227,-0.269119
23:26:51:70326,0.000244346,-0.581805,1.1875,0.00010472,1.35184,-0.00476475,0,0,0,0,0,0,0.074,0.007,0.116,0,0,-0.001,-2.009,13.482,-14.084,2.415,0.090176,-0.401565
23:26:51:75453,0.000244346,-0.581805,1.1875,0.00010472,1.35184,-0.00476475,0,0,0,0,0,0,0.059,-0.01,0.249,0,0,-0.003,-1.848,14.343,-13.349,1.96,-0.001409,-0.221213
23:26:51:80473,0.000244346,-0.581805,1.1875,0.00010472,1.35184,-0.00476475,0,0,0,0,0,0,0.05,-0.024,0.308,0,0,-0.003,-1.897,14.042,-13.825,2.513,0.018317,-0.231076
23:26:51:85415,0.000244346,-0.581805,1.1875,0.00010472,1.35184,-0.0047822,0,0,0,0,0,0,0.038,-0.027,0.254,0,0,-0.002,-2.135,14.623,-13.531,2.611,-0.053542,-0.269119
23:26:51:90581,0.000244346,-0.581805,1.1875,0.00010472,1.35184,-0.0047822,0,0,0,0,0,0,0.024,-0.016,0.166,0,0,-0.001,-1.533,15.008,-14.119,2.807,-0.032407,-0.359295
23:26:51:95575,0.000244346,-0.581805,1.1875,0.00010472,1.35184,-0.0047822,0,0,0,0,0,0,-0.001,0,0.095,0,0,0,-1.281,14.203,-14.14,2.842,-0.018317,-0.236712
23:26:51:100697,0.000244346,-0.581805,1.1875,0.00010472,1.35184,-0.0047822,0,0,0,0,0,0,-0.013,-0.001,0.114,0,0,0,-2.527,13.783,-13.678,2.779,0,-0.415655
23:26:51:105717,0.000244346,-0.581805,1.1875,0.00010472,1.35184,-0.0047822,0,0,0,0,0,0,-0.016,-0.022,0.17,0,0,0,-2.072,13.923,-13.769,2.639,0,-0.325479
23:26:51:110836,0.000244346,-0.581805,1.1875,0.00010472,1.35184,-0.0047822,0,0,0,0,0,0,-0.015,-0.034,0.182,0,0,0,-1.281,14.392,-13.755,2.492,-0.005636,-0.231076
23:26:51:115770,0.000244346,-0.581805,1.1875,0.00010472,1.35184,-0.0047822,0,0,0,0,0,0,-0.017,-0.033,0.146,0,0,0,-2.499,14.21,-13.419,2.856,-0.114129,-0.373385
23:26:51:120948,0.000244346,-0.581805,1.1875,0.00010472,1.35184,-0.0047822,0,0,0,0,0,0,-0.019,-0.022,0.098,-0.001,0.001,0,-1.813,13.594,-14.273,3.003,0.09863,-0.373385
23:26:51:125915,0.000244346,-0.581805,1.1875,0.00010472,1.35184,-0.0047822,0,0,0,0,0,0,-0.008,0.007,0,-0.001,0.001,0,-1.561,13.461,-14.028,2.352,0.11272,-0.350841
23:26:51:130915,0.000244346,-0.581805,1.1875,0.00010472,1.35184,-0.0047822,0,0,0,0,0,0,0.012,0.036,-0.073,0,0.001,0,-1.904,13.755,-14.14,2.478,-0.105675,-0.419882
23:26:51:136076,0.000244346,-0.581805,1.1875,0.00010472,1.35184,-0.0047822,0,0,0,0,0,0,0.052,0.086,-0.129,0,0,0,-1.897,14.371,-13.937,2.303,0.109902,-0.353659
23:26:51:141020,0.000244346,-0.581805,1.1875,0.00010472,1.35184,-0.0047822,0,0,0,0,0,0,0.066,0.103,-0.087,0,0,0,-1.596,13.874,-14.084,2.135,0.016908,-0.12681
23:26:51:146201,0.000244346,-0.581805,1.1875,0.00010472,1.35184,-0.0047822,0,0,0,0,0,0,0.055,0.079,0.067,0,0,0,-1.512,14.441,-13.993,2.303,-0.116947,-0.387475
23:26:51:151341,0.000244346,-0.581805,1.1875,0.00010472,1.35184,-0.0047822,0,0,0,0,0,0,0.03,0.017,0.165,0,0,-0.001,-1.953,14.371,-13.937,2.415,0.038043,-0.287436
23:26:51:156322,0.000244346,-0.581805,1.1875,0.00010472,1.35184,-0.0047822,0,0,0,0,0,0,0.026,-0.012,0.147,0,0,0,-1.757,13.342,-13.349,2.527,-0.035225,-0.284618
23:26:51:161324,0.000244346,-0.581805,1.1875,0.00010472,1.35184,-0.0047822,0,0,0,0,0,0,0.04,-0.016,0.074,0,0,0,-2.023,14.441,-13.622,2.051,-0.001409,-0.184579
23:26:51:166448,0.000244346,-0.581805,1.1875,0.00010472,1.35184,-0.0047822,0,0,0,0,0,0,0.048,-0.007,0.066,0,0,0,-2.296,13.734,-14.063,2.387,-0.025362,-0.216986
23:26:51:171465,0.000244346,-0.581805,1.1875,0.00010472,1.35184,-0.0047822,0,0,0,0,0,0,0.031,-0.01,0.127,0,0,0,-1.932,14.511,-13.755,3.115,0.012681,-0.184579
23:26:51:176570,0.000244346,-0.581805,1.1875,0.00010472,1.35184,-0.0047822,0,0,0,0,0,0,0,-0.025,0.166,0,0,0,-1.652,14.133,-13.587,2.611,0.004227,-0.266301
23:26:51:181519,0.000244346,-0.581805,1.1875,0.00010472,1.35184,-0.0047822,0,0,0,0,0,0,-0.046,-0.035,0.138,0,0,-0.001,-1.813,14.28,-13.916,2.506,-0.025362,-0.355068
23:26:51:186715,0.000244346,-0.581805,1.1875,0.00010472,1.35184,-0.0047822,0,0,0,0,0,0,-0.048,-0.019,0.059,0,0,0,-1.897,14.182,-14.126,2.1,0,-0.438199
23:26:51:191696,0.000244346,-0.581805,1.1875,0.00010472,1.35184,-0.0047822,0,0,0,0,0,0,0.006,0.024,-0.076,0,0,0,-1.386,13.279,-13.566,3.031,0.078904,-0.349432
23:26:51:196839,0.000244346,-0.581805,1.1875,0.00010472,1.35184,-0.0047822,0,0,0,0,0,0,0.059,0.043,-0.121,0,0,0.001,-1.953,14.231,-13.531,2.59,0.090176,-0.277573
23:26:51:201820,0.000244346,-0.581805,1.1875,0.00010472,1.35184,-0.0047822,0,0,0,0,0,0,0.098,0.039,-0.087,0,0,0.001,-2.009,14.07,-14.07,2.072,0.030998,-0.315616
23:26:51:206962,0.000244346,-0.581805,1.1875,0.00010472,1.35184,-0.0047822,0,0,0,0,0,0,0.079,0.028,-0.033,0,0,0,-1.596,14.133,-13.769,2.639,-0.001409,-0.307162
23:26:51:211942,0.000244346,-0.581805,1.1875,0.00010472,1.35184,-0.0047822,0,0,0,0,0,0,0.02,0.039,0.003,0,0.001,0,-1.624,14.21,-13.664,2.856,0.021135,-0.322661
23:26:51:216894,0.000244346,-0.581805,1.1875,0.00010472,1.35184,-0.0047822,0,0,0,0,0,0,-0.009,0.067,-0.01,0,0.001,0,-1.449,13.685,-14.14,2.814,0.012681,-0.329706
23:26:51:222093,0.000244346,-0.581805,1.1875,0.00010472,1.35184,-0.00479966,0,0,0,0,0,0,-0.016,0.099,-0.016,0,0.001,0,-1.589,13.412,-14.231,2.667,0.021135,-0.304344
23:26:51:227085,0.000244346,-0.581805,1.1875,0.00010472,1.35184,-0.00479966,0,0,0,0,0,0,0.001,0.078,0.08,0,0,0,-2.163,14.441,-13.461,2.247,-0.04227,-0.212759
23:26:51:232193,0.000244346,-0.581805,1.1875,0.00010472,1.35184,-0.00479966,0,0,0,0,0,0,0.007,0.041,0.201,0,0,-0.001,-1.764,14.483,-14.287,1.708,-0.066223,-0.246575
23:26:51:237195,0.000244346,-0.581805,1.1875,0.00010472,1.35184,-0.00479966,0,0,0,0,0,0,0.006,-0.001,0.36,-0.001,0,-0.003,-1.785,13.573,-13.461,2.527,0.040861,-0.345205
23:26:51:242319,0.000244346,-0.581805,1.1875,0.00010472,1.35184,-0.00479966,0,0,0,0,0,0,0.009,-0.002,0.365,-0.001,0,-0.003,-1.561,13.713,-13.769,1.764,0.021135,-0.308571
23:26:51:247337,0.000244346,-0.581805,1.1875,0.00010472,1.35184,-0.00479966,0,0,0,0,0,0,0.032,0.026,0.177,0,0,-0.001,-1.869,13.951,-14.063,2.415,0.025362,-0.243757
23:26:51:252465,0.000244346,-0.581805,1.1875,0.00010472,1.35184,-0.00479966,0,0,0,0,0,0,0.044,0.043,0.018,0,0,0,-1.841,13.594,-14.028,2.296,0,-0.236712
23:26:51:257443,0.000244346,-0.581805,1.1875,0.00010472,1.35184,-0.00479966,0,0,0,0,0,0,0.023,0.046,-0.026,0,0,0,-1.743,13.783,-13.811,2.807,0,-0.270528
23:26:51:262573,0.000244346,-0.581805,1.1875,0.00010472,1.35184,-0.00479966,0,0,0,0,0,0,-0.011,0.039,0.101,0,0,0,-1.393,14.07,-13.517,2.464,0.129628,-0.311389
23:26:51:267585,0.000244346,-0.581805,1.1875,0.00010472,1.35184,-0.00479966,0,0,0,0,0,0,-0.044,0.033,0.292,0,0,-0.002,-1.932,13.664,-13.958,2.191,-0.040861,-0.345205
23:26:51:272567,0.000244346,-0.581805,1.1875,0.00010472,1.35184,-0.00479966,0,0,0,0,0,0,-0.031,0.028,0.278,0,0,-0.001,-1.624,13.923,-13.769,2.303,0.046497,-0.26771
23:26:51:277692,0.000244346,-0.581805,1.1875,0.00010472,1.35184,-0.00479966,0,0,0,0,0,0,0.019,0.005,0.073,0,0,0,-1.645,13.853,-13.993,2.1,0.01409,-0.250802
23:26:51:282726,0.000244346,-0.581805,1.1875,0.00010472,1.35184,-0.00479966,0,0,0,0,0,0,0.044,-0.018,-0.061,0,0,0,-1.477,14.413,-14.637,2.331,-0.049315,-0.376203
23:26:51:287820,0.000244346,-0.581805,1.1875,0.00010472,1.35184,-0.00479966,0,0,0,0,0,0,0.043,-0.038,-0.129,0,0.001,0.001,-2.072,14.553,-13.846,2.59,0.094403,-0.400156
23:26:51:292817,0.000244346,-0.581805,1.1875,0.00010472,1.35184,-0.00479966,0,0,0,0,0,0,0.029,-0.028,-0.104,0,0.001,0.001,-1.785,13.321,-13.475,2.443,0.040861,-0.294481
23:26:51:297784,0.000244346,-0.581805,1.1875,0.00010472,1.35184,-0.00479966,0,0,0,0,0,0,0.023,0.005,-0.04,0,0,0.001,-1.624,14.273,-14.364,2.611,0.059178,-0.426927
23:26:51:302958,0.000244346,-0.581805,1.1875,0.00010472,1.35184,-0.00479966,0,0,0,0,0,0,0.039,0.022,-0.012,0,0,0.001,-1.785,14.672,-14.105,2.191,-0.088767,-0.188806
23:26:51:308065,0.000244346,-0.581805,1.1875,0.00010472,1.35184,-0.00479966,0,0,0,0,0,0,0.079,0.032,-0.022,0,0,0,-1.526,13.293,-13.79,2.156,-0.001409,-0.369158
23:26:51:313085,0.000244346,-0.581805,1.1875,0.00010472,1.35184,-0.00479966,0,0,0,0,0,0,0.094,0.038,-0.07,0,0,0,-2.303,13.993,-13.258,3.094,-0.021135,-0.284618
23:26:51:318011,0.000244346,-0.581805,1.1875,0.00010472,1.35184,-0.00479966,0,0,0,0,0,0,0.078,0.039,-0.084,0,0,0,-1.393,14.462,-13.867,2.667,-0.045088,-0.386066
23:26:51:323213,0.000244346,-0.581805,1.1875,0.00010472,1.35184,-0.00479966,0,0,0,0,0,0,0.043,0.029,-0.077,0,0,0,-1.876,14.98,-13.699,1.855,0.040861,-0.308571
23:26:51:328319,0.000244346,-0.581805,1.1875,0.00010472,1.35184,-0.00479966,0,0,0,0,0,0,0.033,0.022,-0.087,0,0,0,-2.436,13.972,-13.384,2.562,0.021135,-0.159217
23:26:51:333274,0.000244346,-0.581805,1.1875,0.00010472,1.35184,-0.00479966,0,0,0,0,0,0,0.041,0.031,-0.138,0,0,0.001,-1.82,14.392,-13.517,2.107,0.035225,-0.240939
23:26:51:338330,0.000244346,-0.581805,1.1875,0.00010472,1.35184,-0.00479966,0,0,0,0,0,0,0.044,0.053,-0.148,0,0,0.001,-1.785,13.853,-13.517,2.331,0.025362,-0.240939
23:26:51:343443,0.000244346,-0.581805,1.1875,0.00010472,1.35184,-0.00479966,0,0,0,0,0,0,0.029,0.081,-0.058,0,0,0,-1.736,13.734,-13.405,2.303,0.085949,-0.402974
23:26:51:348390,0.000244346,-0.581805,1.1875,0.00010472,1.35184,-0.00479966,0,0,0,0,0,0,0.013,0.078,0.03,0,0,0,-1.309,14.042,-14.273,2.443,-0.035225,-0.26771
23:26:51:353560,0.000244346,-0.581805,1.1875,0.00010472,1.35184,-0.00479966,0,0,0,0,0,0,0.003,0.052,0.04,0,0,0,-1.904,14.182,-13.608,3.122,-0.074677,-0.222622
23:26:51:358508,0.000244346,-0.581805,1.1875,0.00010472,1.35184,-0.00479966,0,0,0,0,0,0,0.013,0.042,-0.084,0,0,0,-1.708,13.664,-13.846,2.751,0.04227,-0.325479
23:26:51:363707,0.000244346,-0.581805,1.1875,0.00010472,1.35184,-0.00479966,0,0,0,0,0,0,0.046,0.054,-0.335,0.001,0,0.003,-1.617,14.651,-14.161,2.387,-0.004227,-0.325479
23:26:51:368690,0.000244346,-0.581805,1.1875,0.00010472,1.35184,-0.00479966,0,0,0,0,0,0,0.068,0.064,-0.388,0.001,0,0.004,-1.736,14.581,-13.769,2.072,-0.04227,-0.43679
23:26:51:373656,0.000244346,-0.581805,1.1875,0.00010472,1.35184,-0.00479966,0,0,0,0,0,0,0.066,0.05,-0.184,0,0,0.002,-2.1,14.595,-13.216,3.143,0.022544,-0.441017
23:26:51:378819,0.000244346,-0.581805,1.1875,0.00010472,1.35184,-0.0047822,0,0,0,0,0,0,0.036,0.023,0.031,0,0,0,-1.848,14.63,-13.769,2.835,-0.076086,-0.363522
23:26:51:383816,0.000244346,-0.581805,1.1875,0.00010472,1.35184,-0.0047822,0,0,0,0,0,0,-0.016,0.002,0.184,0,0,-0.001,-1.68,14.042,-14.273,2.919,0.097221,-0.317025
23:26:51:388954,0.000244346,-0.581805,1.1875,0.00010472,1.35184,-0.0047822,0,0,0,0,0,0,-0.029,0.014,0.121,0,0,0,-1.708,13.993,-13.937,2.73,0.004227,-0.232485
23:26:51:394070,0.000244346,-0.581805,1.1875,0.00010472,1.35184,-0.0047822,0,0,0,0,0,0,0.001,0.044,-0.042,0,0,0,-2.324,13.923,-13.972,2.639,0.097221,-0.402974
23:26:51:399015,0.000244346,-0.581805,1.1875,0.00010472,1.35184,-0.0047822,0,0,0,0,0,0,0.049,0.036,-0.083,0,0,0.001,-1.568,13.993,-13.916,2.191,0,-0.395929
23:26:51:404013,0.000244346,-0.581805,1.1875,0.00010472,1.35184,-0.0047822,0,0,0,0,0,0,0.063,0.014,-0.048,0,0,0.001,-1.876,14.462,-13.566,2.107,0.069041,-0.331115
23:26:51:409190,0.000244346,-0.581805,1.1875,0.00010472,1.35184,-0.0047822,0,0,0,0,0,0,0.052,0.008,-0.041,0,0,0,-1.246,14.21,-14.175,1.764,-0.018317,-0.345205
23:26:51:414203,0.000244346,-0.581805,1.1875,0.00010472,1.35184,-0.0047822,0,0,0,0,0,0,0.03,0.032,-0.067,0,0,0,-1.862,13.482,-13.419,2.107,0.045088,-0.222622
23:26:51:419314,0.000244346,-0.581805,1.1875,0.00010472,1.35184,-0.0047822,0,0,0,0,0,0,-0.003,0.065,-0.051,0,0,0,-2.023,13.524,-13.181,2.282,-0.038043,-0.297299
23:26:51:424316,0.000244346,-0.581805,1.1875,0.00010472,1.35184,-0.0047822,0,0,0,0,0,0,-0.017,0.058,0.033,0,0,0,-1.673,13.853,-14.105,2.072,-0.049315,-0.33816
23:26:51:429438,0.000244346,-0.581805,1.1875,0.00010472,1.35184,-0.0047822,0,0,0,0,0,0,-0.01,0.017,0.194,0,0,-0.001,-1.449,14.42,-14.049,2.247,-0.012681,-0.384657
23:26:51:434435,0.000244346,-0.581805,1.1875,0.00010472,1.35184,-0.0047822,0,0,0,0,0,0,0.009,0,0.244,0,0,-0.001,-1.848,14.301,-13.034,2.667,-0.045088,-0.297299
23:26:51:439576,0.000244346,-0.581805,1.1875,0.00010472,1.35184,-0.0047822,0,0,0,0,0,0,0.039,0.012,0.164,0,0,0,-1.904,13.573,-13.937,2.779,-0.064814,-0.246575
23:26:51:444565,0.000244346,-0.581805,1.1875,0.00010472,1.35184,-0.0047822,0,0,0,0,0,0,0.045,0.03,0.05,0,0,0,-1.981,14.889,-13.384,2.275,-0.029589,-0.369158
23:26:51:449692,0.000244346,-0.581805,1.1875,0.00010472,1.35184,-0.0047822,0,0,0,0,0,0,0.033,0.041,-0.066,-0.001,0,0.001,-1.953,14.322,-14.161,2.758,0.066223,-0.476242
23:26:51:454687,0.000244346,-0.581805,1.1875,0.00010472,1.35184,-0.0047822,0,0,0,0,0,0,0.023,0.039,-0.052,-0.001,0,0,-1.414,14.063,-13.678,2.107,-0.038043,-0.325479
23:26:51:459706,0.000244346,-0.581805,1.1875,0.00010472,1.35184,-0.0047822,0,0,0,0,0,0,0.017,0.037,0.078,0,0,0,-1.589,14.063,-13.755,2.562,0.018317,-0.271937
23:26:51:464809,0.000244346,-0.581805,1.1875,0.00010472,1.35184,-0.0047822,0,0,0,0,0,0,0.014,0.032,0.172,0,0,-0.001,-1.708,14.042,-13.517,1.764,-0.022544,-0.232485
23:26:51:469823,0.000244346,-0.581805,1.1875,0.00010472,1.35184,-0.0047822,0,0,0,0,0,0,0.008,0.006,0.207,0,0,-0.001,-1.477,13.867,-13.587,2.107,-0.04227,-0.315616
23:26:51:474949,0.000244346,-0.581805,1.1875,0.00010472,1.35184,-0.0047822,0,0,0,0,0,0,0.008,-0.017,0.13,0,0,0,-1.386,12.495,-13.79,2.1,-0.088767,-0.393111
23:26:51:479941,0.000244346,-0.581805,1.1875,0.00010472,1.35184,-0.0047822,0,0,0,0,0,0,0.026,-0.03,-0.082,0,0,0.001,-1.827,15.043,-13.552,2.779,-0.139491,-0.388884
23:26:51:484963,0.000244346,-0.581805,1.1875,0.00010472,1.35184,-0.0047822,0,0,0,0,0,0,0.04,-0.016,-0.187,0,0,0.001,-1.246,14.042,-13.993,2.492,-0.049315,-0.388884
23:26:51:490049,0.000244346,-0.581805,1.1875,0.00010472,1.35184,-0.0047822,0,0,0,0,0,0,0.034,0.001,-0.119,0,0,0.001,-1.876,12.845,-13.902,2.303,0.069041,-0.304344
23:26:51:495022,0.000244346,-0.581805,1.1875,0.00010472,1.35184,-0.0047822,0,0,0,0,0,0,-0.009,-0.016,0.159,0,0,0,-1.505,12.964,-13.769,1.848,0.054951,-0.335342
23:26:51:500190,0.000244346,-0.581805,1.1875,0.00010472,1.35184,-0.0047822,0,0,0,0,0,0,-0.035,-0.036,0.288,0,0,-0.001,-1.848,14.413,-13.902,2.695,0.061996,-0.256438
23:26:51:505149,0.000244346,-0.581805,1.1875,0.00010472,1.35184,-0.0047822,0,0,0,0,0,0,-0.032,-0.034,0.216,0,0,0,-1.246,16.38,-13.664,1.96,-0.02818,-0.429745
23:26:51:510326,0.000244346,-0.581805,1.1875,0.00010472,1.35184,-0.0047822,0,0,0,0,0,0,-0.005,-0.012,0.061,0,0,0,-1.729,15.505,-13.755,2.492,0.033816,-0.376203
23:26:51:515252,0.000244346,-0.581805,1.1875,0.00010472,1.35184,-0.0047822,0,0,0,0,0,0,0.036,0.011,-0.057,0,0,0.001,-1.974,13.503,-13.734,2.415,0.025362,-0.226849
23:26:51:520437,0.000244346,-0.581805,1.1875,0.00010472,1.35184,-0.0047822,0,0,0,0,0,0,0.045,0.006,0.009,0,0,0,-1.617,14.371,-14.07,2.674,0.064814,-0.157808
23:26:51:525376,0.000244346,-0.581805,1.1875,0.00010472,1.35184,-0.0047822,0,0,0,0,0,0,0.028,-0.021,0.203,0,0,-0.001,-1.477,13.881,-13.825,2.247,-0.038043,-0.410019
23:26:51:530563,0.000244346,-0.581805,1.1875,0.00010472,1.35184,-0.0047822,0,0,0,0,0,0,0.013,-0.033,0.274,-0.001,0,-0.002,-1.722,13.832,-13.699,2.471,-0.090176,-0.38043
23:26:51:535549,0.000244346,-0.581805,1.1875,0.00010472,1.35184,-0.0047822,0,0,0,0,0,0,0.006,-0.03,0.23,0,0,-0.001,-2.163,14.21,-14.126,1.932,0.029589,-0.40861
23:26:51:540682,0.000244346,-0.581805,1.1875,0.00010472,1.35184,-0.0047822,0,0,0,0,0,0,0.012,-0.014,0.151,0,0,0,-2.1,13.734,-13.72,1.883,-0.081722,-0.410019
23:26:51:545698,0.000244346,-0.581805,1.1875,0.00010472,1.35184,-0.0047822,0,0,0,0,0,0,0.025,0.02,0.035,0,0,0,-1.792,14.35,-13.664,2.24,-0.018317,-0.25362
23:26:51:550831,0.000244346,-0.581805,1.1875,0.00010472,1.35184,-0.0047822,0,0,0,0,0,0,0.026,0.044,-0.043,0,0,0,-1.813,14.259,-13.328,2.443,-0.004227,-0.252211
23:26:51:555810,0.000244346,-0.581805,1.1875,0.00010472,1.35184,-0.0047822,0,0,0,0,0,0,0.009,0.059,-0.161,0,0,0,-2.121,14.028,-13.202,2.443,0.050724,-0.335342
23:26:51:560932,0.000244346,-0.581805,1.1875,0.00010472,1.35184,-0.0047822,0,0,0,0,0,0,-0.004,0.044,-0.174,0,0,0,-1.876,13.181,-13.72,2.408,0,-0.345205
23:26:51:565882,0.000244346,-0.581823,1.1875,0.00010472,1.35184,-0.0047822,0,0,0,0,0,0,-0.006,0.001,-0.003,0,0,0,-2.016,12.719,-14.364,1.652,-0.007045,-0.236712
23:26:51:571052,0.000244346,-0.581805,1.1875,0.00010472,1.35184,-0.0047822,0,0,0,0,0,0,0.02,-0.017,0.235,0,0,-0.001,-1.589,15.631,-13.146,2.044,-0.01409,-0.280391
23:26:51:576002,0.000244346,-0.581823,1.1875,0.00010472,1.35184,-0.0047822,0,0,0,0,0,0,0.041,0,0.262,0,0,0,-1.869,15.701,-14.105,2.352,-0.11272,-0.369158
23:26:51:581003,0.000244346,-0.581823,1.1875,0.00010472,1.35184,-0.0047822,0,0,0,0,0,0,0.054,0.032,0.15,0,0,0,-1.281,14.924,-13.419,2.1,-0.009863,-0.246575
23:26:51:586178,0.000244346,-0.581805,1.1875,0.00010472,1.35184,-0.0047822,0,0,0,0,0,0,0.052,0.058,-0.079,0,0,0.002,-1.421,12.824,-13.958,2.555,0.116947,-0.26771
23:26:51:591207,0.000244346,-0.581805,1.1875,0.00010472,1.35184,-0.0047822,0,0,0,0,0,0,0.045,0.033,-0.102,0,0,0.002,-1.372,13.958,-14.511,2.191,-0.01409,-0.339569
23:26:51:596320,0.000244346,-0.581805,1.1875,0.00010472,1.35184,-0.0047822,0,0,0,0,0,0,0.05,0.007,-0.017,0,0,0.001,-2.1,14.259,-14.273,2.051,0.090176,-0.294481
23:26:51:601312,0.000244346,-0.581805,1.1875,0.00010472,1.35184,-0.0047822,0,0,0,0,0,0,0.062,-0.005,0.061,0,0,0,-1.848,13.713,-13.678,2.527,0.018317,-0.25362
23:26:51:606427,0.000244346,-0.581805,1.1875,0.00010472,1.35184,-0.0047822,0,0,0,0,0,0,0.062,0.004,0.04,0,0,0,-0.966,14.119,-13.993,2.443,-0.053542,-0.457925
23:26:51:611464,0.000244346,-0.581805,1.1875,0.00010472,1.35184,-0.0047822,0,0,0,0,0,0,0.047,0.024,-0.029,0,0,0.001,-1.834,13.692,-13.216,2.212,0.078904,-0.277573
23:26:51:616396,0.000244346,-0.581805,1.1875,0.00010472,1.35184,-0.0047822,0,0,0,0,0,0,0.039,0.034,-0.078,0,0,0.001,-0.658,13.713,-13.811,2.695,0.038043,-0.238121
23:26:51:621556,0.000244346,-0.581805,1.1875,0.00010472,1.35184,-0.0047822,0,0,0,0,0,0,0.046,0.052,-0.192,0,0,0.002,-1.561,14,-13.643,2.415,0.004227,-0.331115
23:26:51:626707,0.000244346,-0.581805,1.1875,0.00010472,1.35184,-0.0047822,0,0,0,0,0,0,0.056,0.063,-0.271,0,0,0.003,-1.932,13.993,-12.978,2.814,-0.073268,-0.284618
23:26:51:631681,0.000244346,-0.581805,1.1875,0.00010472,1.35184,-0.0047822,0,0,0,0,0,0,0.058,0.055,-0.256,0,0,0.002,-1.533,13.664,-13.531,2.499,0.019726,-0.202896
23:26:51:636819,0.000244346,-0.581805,1.1875,0.00010472,1.35184,-0.0047822,0,0,0,0,0,0,0.048,0.029,-0.138,0,0,0.001,-1.673,13.972,-13.216,1.82,-0.045088,-0.325479
23:26:51:641802,0.000244346,-0.581805,1.1875,0.00010472,1.35184,-0.0047822,0,0,0,0,0,0,0.035,-0.004,0.017,0,0,0,-1.561,14.483,-13.825,2.919,0.04227,-0.242348
23:26:51:646809,0.000244346,-0.581805,1.1875,0.00010472,1.35184,-0.0047822,0,0,0,0,0,0,0.037,-0.005,0.009,0,0,0,-1.701,13.454,-13.678,2.702,-0.057769,-0.171898
23:26:51:651932,0.000244346,-0.581805,1.1875,0.00010472,1.35184,-0.0047822,0,0,0,0,0,0,0.055,0.014,-0.087,0,0,0.001,-1.624,14.119,-13.664,2.814,-0.105675,-0.231076
23:26:51:656930,0.000244346,-0.581805,1.1875,0.00010472,1.35184,-0.0047822,0,0,0,0,0,0,0.067,0.029,-0.1,0,0,0.001,-1.337,14.203,-13.461,2.695,-0.046497,-0.284618
23:26:51:662051,0.000244346,-0.581805,1.1875,0.00010472,1.35184,-0.0047822,0,0,0,0,0,0,0.073,0.049,-0.049,0,0,0,-2.191,14.28,-13.622,2.66,-0.131037,-0.256438
23:26:51:667004,0.000244346,-0.581823,1.1875,0.00010472,1.35184,-0.0047822,0,0,0,0,0,0,0.071,0.066,-0.072,0,0,0,-1.456,14.798,-13.664,2.835,-0.049315,-0.345205
23:26:51:671998,0.000244346,-0.581823,1.1875,0.00010472,1.35184,-0.0047822,0,0,0,0,0,0,0.07,0.089,-0.229,0,0,0.001,-1.113,14.21,-13.475,2.443,-0.038043,-0.314207
23:26:51:677120,0.000244346,-0.581823,1.1875,0.00010472,1.35184,-0.0047822,0,0,0,0,0,0,0.074,0.083,-0.302,0,0,0.002,-0.882,13.853,-13.531,2.331,-0.016908,-0.271937
23:26:51:682126,0.000244346,-0.581823,1.1875,0.00010472,1.35184,-0.0047822,0,0,0,0,0,0,0.072,0.063,-0.219,0,0,0.001,-1.176,13.853,-13.517,2.352,0.004227,-0.260665
23:26:51:687318,0.000244346,-0.581823,1.1875,0.00010472,1.35184,-0.0047822,0,0,0,0,0,0,0.054,0.033,-0.033,0,0,0,-1.477,14.462,-13.552,2.24,-0.088767,-0.30998
23:26:51:692300,0.000244346,-0.581823,1.1875,0.00010472,1.35184,-0.0047822,0,0,0,0,0,0,0.036,0.025,0.021,0,0,0,-2.121,14.042,-13.937,2.191,0.022544,-0.325479
23:26:51:697424,0.000244346,-0.581823,1.1875,0.00010472,1.35184,-0.0047822,0,0,0,0,0,0,0.014,0.031,-0.011,0,0,0,-1.589,14.462,-13.734,2.303,0.059178,-0.16908
23:26:51:702445,0.000244346,-0.581823,1.1875,0.00010472,1.35184,-0.0047822,0,0,0,0,0,0,0.008,0.041,-0.039,0,0,0,-1.932,14.378,-13.79,3.157,0.074677,-0.100039
23:26:51:707565,0.000244346,-0.581823,1.1875,0.00010472,1.35184,-0.0047822,0,0,0,0,0,0,0.008,0.05,-0.052,0,0,0.001,-2.352,14.259,-13.937,1.96,0.008454,-0.243757
23:26:51:712565,0.000244346,-0.581823,1.1875,0.00010472,1.35184,-0.0047822,0,0,0,0,0,0,0.008,0.043,-0.067,0,0,0.001,-1.47,14.189,-13.902,2.296,0.022544,-0.195851
23:26:51:717674,0.000244346,-0.581823,1.1875,0.00010472,1.35184,-0.0047822,0,0,0,0,0,0,0.009,0.008,-0.066,0,0,0,-1.309,13.643,-13.034,2.072,-0.02818,-0.356477
23:26:51:722692,0.000244346,-0.581823,1.1875,0.00010472,1.35184,-0.0047822,0,0,0,0,0,0,0.007,-0.025,0.02,0,0,0,-2.044,14.329,-13.552,2.443,-0.066223,-0.345205
23:26:51:727641,0.000244346,-0.581823,1.1875,0.00010472,1.35184,-0.0047822,0,0,0,0,0,0,-0.003,-0.059,0.247,0,0,-0.002,-1.918,14.343,-13.202,2.499,-0.008454,-0.305753
23:26:51:732813,0.000244346,-0.581823,1.1875,0.00010472,1.35184,-0.0047822,0,0,0,0,0,0,-0.012,-0.052,0.319,0,0,-0.002,-1.981,14.721,-13.293,2.324,0.021135,-0.242348
23:26:51:737943,0.000244346,-0.581823,1.1875,0.00010472,1.35184,-0.0047822,0,0,0,0,0,0,0,0.007,0.124,0,0,0,-1.596,13.972,-13.79,2.415,0.018317,-0.359295
23:26:51:742943,0.000244346,-0.581823,1.1875,0.00010472,1.35184,-0.0047822,0,0,0,0,0,0,0.033,0.054,-0.119,0,0,0.001,-1.764,13.853,-13.587,2.583,0.01409,-0.188806
23:26:51:747869,0.000244346,-0.581823,1.1875,0.00010472,1.35184,-0.0047822,0,0,0,0,0,0,0.075,0.082,-0.305,0,0,0.002,-0.833,14.077,-13.496,2.611,-0.114129,-0.212759
23:26:51:752889,0.000244346,-0.581823,1.1875,0.00010472,1.35184,-0.0047822,0,0,0,0,0,0,0.06,0.062,-0.203,0,0,0,-1.617,14.189,-13.902,1.848,-0.045088,-0.260665
23:26:51:758064,0.000244346,-0.581823,1.1875,0.00010472,1.35184,-0.0047822,0,0,0,0,0,0,-0.032,0.007,0.122,0,0,-0.001,-1.246,14.259,-13.916,3.15,-0.025362,-0.353659
23:26:51:763207,0.000244346,-0.581823,1.1875,0.00010472,1.35184,-0.0047822,0,0,0,0,0,0,-0.118,-0.012,0.28,0,0,-0.003,-1.54,14.07,-13.678,2.73,-0.025362,-0.331115
23:26:51:768188,0.000244346,-0.581823,1.1875,0.00010472,1.35184,-0.0047822,0,0,0,0,0,0,-0.119,0.007,0.198,0,0.001,-0.002,-1.477,14.672,-13.125,2.135,-0.059178,-0.221213
23:26:51:773119,0.000244346,-0.581823,1.1875,0.00010472,1.35184,-0.0047822,0,0,0,0,0,0,-0.047,0.055,-0.054,0,0.001,0,-1.988,14.042,-13.622,3.066,0.040861,-0.270528
23:26:51:778298,0.000244346,-0.581823,1.1875,0.00010472,1.35184,-0.0047822,0,0,0,0,0,0,0.008,0.074,-0.163,0,0,0.001,-1.652,14.49,-13.979,2.639,0.021135,-0.369158
23:26:51:783243,0.000244346,-0.581823,1.1875,0.00010472,1.35184,-0.0047822,0,0,0,0,0,0,0.048,0.056,-0.126,0,0,0.001,-1.764,13.895,-13.111,2.695,-0.064814,-0.260665
23:26:51:788420,0.000244346,-0.581823,1.1875,0.00010472,1.35184,-0.0047822,0,0,0,0,0,0,0.047,0.021,-0.024,0,0,0,-1.673,14.189,-13.314,2.331,0.021135,-0.301526
23:26:51:793422,0.000244346,-0.581823,1.1875,0.00010472,1.35184,-0.0047822,0,0,0,0,0,0,0.033,-0.026,0.074,0,0,0,-1.638,13.706,-14.105,2.352,0.049315,-0.363522
23:26:51:798548,0.000244346,-0.581823,1.1875,0.00010472,1.35184,-0.0047822,0,0,0,0,0,0,0.023,-0.037,0.066,0,0,0,-1.813,13.902,-13.678,1.995,0.064814,-0.326888
23:26:51:803545,0.000244346,-0.581823,1.1875,0.00010472,1.35184,-0.0047822,0,0,0,0,0,0,0.012,-0.017,0.001,0,0,0,-1.561,15.225,-13.937,2.87,-0.004227,-0.379021
23:26:51:808678,0.000244346,-0.581823,1.1875,0.00010472,1.35184,-0.0047822,0,0,0,0,0,0,0.013,0.004,-0.022,0,0,0,-1.869,14.413,-13.531,2.023,0.085949,-0.297299
23:26:51:813671,0.000244346,-0.581823,1.1875,0.00010472,1.35184,-0.0047822,0,0,0,0,0,0,0.034,0.023,0.001,0,0,0,-1.764,14.77,-13.972,2.534,0,-0.515694
23:26:51:818812,0.000244346,-0.581823,1.1875,0.00010472,1.35184,-0.0047822,0,0,0,0,0,0,0.047,0.021,0.045,0,0,0,-1.386,13.902,-14.322,2.814,0.005636,-0.395929
23:26:51:823812,0.000244346,-0.581823,1.1875,0.00010472,1.35184,-0.00479966,0,0,0,0,0,0,0.038,0,0.118,0,0,0,-1.596,13.937,-14.175,2.667,-0.035225,-0.342387
23:26:51:828919,0.000244346,-0.581823,1.1875,0.00010472,1.35184,-0.00479966,0,0,0,0,0,0,0.013,-0.018,0.156,0,0,-0.001,-1.701,14.07,-14.14,2.184,-0.109902,-0.349432
23:26:51:833935,0.000244346,-0.581823,1.1875,0.00010472,1.35184,-0.00479966,0,0,0,0,0,0,-0.022,-0.026,0.164,0,0,-0.001,-1.456,14.098,-13.566,2.723,-0.09863,-0.518512
23:26:51:838935,0.000244346,-0.581823,1.1875,0.00010472,1.35184,-0.00479966,0,0,0,0,0,0,-0.027,-0.011,0.121,0,0,-0.001,-1.673,13.902,-13.475,1.904,0.090176,-0.405792
23:26:51:844060,0.000244346,-0.581823,1.1875,0.00010472,1.35184,-0.00481711,0,0,0,0,0,0,-0.006,0.028,0.012,0,0,0,-1.617,14.147,-13.167,2.611,-0.053542,-0.301526
23:26:51:849084,0.000244346,-0.581823,1.1875,0.00010472,1.35184,-0.00481711,0,0,0,0,0,0,0.023,0.054,-0.05,0,0,0,-2.156,14.189,-13.475,2.576,-0.040861,-0.359295
23:26:51:854167,0.000244346,-0.581823,1.1875,0.00010472,1.35184,-0.00481711,0,0,0,0,0,0,0.034,0.053,-0.038,0,0,0,-2.128,13.993,-13.237,2.359,0.035225,-0.548101
23:26:51:859195,0.000244346,-0.581823,1.1875,0.00010472,1.35184,-0.00481711,0,0,0,0,0,0,0.036,0.04,-0.005,0,0,0,-1.757,14.511,-13.622,1.904,0.092994,-0.46497
23:26:51:864291,0.000244346,-0.581823,1.1875,0.00010472,1.35184,-0.00481711,0,0,0,0,0,0,0.033,0.034,-0.012,0,0,0,-1.792,13.972,-13.958,2.443,-0.001409,-0.411428
23:26:51:869294,0.000244346,-0.581823,1.1875,0.00010472,1.35184,-0.00481711,0,0,0,0,0,0,0.03,0.034,-0.053,0,0,0,-1.68,14.343,-13.419,2.191,-0.036634,-0.274755
23:26:51:874461,0.000244346,-0.581823,1.1875,0.00010472,1.35184,-0.00481711,0,0,0,0,0,0,0.03,0.035,-0.07,0,0,0,-1.876,14.259,-13.664,2.807,-0.061996,-0.271937
23:26:51:879431,0.000244346,-0.581823,1.1875,0.00010472,1.35184,-0.00481711,0,0,0,0,0,0,0.037,0.037,-0.056,0,0,0,-1.456,13.895,-13.258,2.415,-0.004227,-0.393111
23:26:51:884438,0.000244346,-0.581823,1.1875,0.00010472,1.35184,-0.00483456,0,0,0,0,0,0,0.043,0.037,-0.022,0,0,0,-1.477,14.14,-13.622,2.219,-0.101448,-0.428336
23:26:51:889557,0.000244346,-0.581823,1.1875,0.00010472,1.35184,-0.00483456,0,0,0,0,0,0,0.039,0.031,0.063,0,0,0,-1.449,14.329,-13.699,2.38,-0.025362,-0.329706
23:26:51:894682,0.000244346,-0.581823,1.1875,0.00010472,1.35184,-0.00483456,0,0,0,0,0,0,0.026,0.022,0.123,0,0,0,-1.785,14.441,-13.993,2.499,0.016908,-0.371976
23:26:51:899682,0.000244346,-0.581823,1.1875,0.00010472,1.35184,-0.00483456,0,0,0,0,0,0,0.002,0.012,0.163,0,0,0,-2.212,14.07,-13.769,2.492,-0.129628,-0.449471
23:26:51:904633,0.000244346,-0.581823,1.1875,0.00010472,1.35184,-0.00483456,0,0,0,0,0,0,-0.003,0.011,0.148,0,0,0,-2.212,14.476,-13.622,2.499,-0.022544,-0.405792
23:26:51:909803,0.000244346,-0.581823,1.1875,0.00010472,1.35184,-0.00483456,0,0,0,0,0,0,0.003,0.012,0.113,0,0,0,-1.757,14.749,-13.622,2.674,-0.021135,-0.395929
23:26:51:914817,0.000244346,-0.581823,1.1875,0.00010472,1.35184,-0.00483456,0,0,0,0,0,0,0.012,0.007,0.101,0,0,0,-1.869,14.63,-13.755,2.387,-0.008454,-0.442426
23:26:51:919948,0.000244346,-0.581823,1.1875,0.00010472,1.35184,-0.00483456,0,0,0,0,0,0,0.02,-0.003,0.075,0,0,0,-1.722,13.951,-13.419,2.688,0.012681,-0.548101
23:26:51:924915,0.000244346,-0.581823,1.1875,0.00010472,1.35184,-0.00485202,0,0,0,0,0,0,0.022,0,0.042,0,0,0,-1.82,14.378,-14.343,2.639,-0.021135,-0.405792
23:26:51:930054,0.000244346,-0.581823,1.1875,0.00010472,1.35184,-0.00485202,0,0,0,0,0,0,0.017,0.022,0.019,0,0,0,-1.561,13.503,-14.175,2.191,0.066223,-0.511467
23:26:51:935053,0.000244346,-0.581823,1.1875,0.00010472,1.35184,-0.00485202,0,0,0,0,0,0,0.009,0.035,0.053,0,0,0,-1.414,13.629,-12.999,2.534,-0.053542,-0.522739
23:26:51:940041,0.000244346,-0.581823,1.1875,0.00010472,1.35184,-0.00485202,0,0,0,0,0,0,0,0.032,0.142,0,0,0,-1.701,13.895,-14.196,2.352,-0.066223,-0.559373
23:26:51:945167,0.000244346,-0.581823,1.1875,0.00010472,1.35184,-0.00485202,0,0,0,0,0,0,0.015,0.007,0.151,0,0,0,-1.624,14.651,-13.643,2.674,0.133855,-0.548101
23:26:51:950176,0.000244346,-0.581823,1.1875,0.00010472,1.35184,-0.00485202,0,0,0,0,0,0,0.037,-0.008,0.086,0,0,0,-1.589,14.091,-13.202,2.1,-0.083131,-0.511467
23:26:51:955302,0.000244346,-0.581823,1.1875,0.00010472,1.35184,-0.00486947,0,0,0,0,0,0,0.06,-0.02,-0.036,0.001,0,0.001,-1.554,14.21,-14.637,2.359,-0.061996,-0.393111
23:26:51:960291,0.000244346,-0.581823,1.1875,0.00010472,1.35184,-0.00486947,0,0,0,0,0,0,0.066,-0.008,-0.092,0.001,0.001,0.001,-1.785,14.392,-13.811,2.639,-0.045088,-0.405792
23:26:51:965417,0.000244346,-0.581823,1.1875,0.00010472,1.35184,-0.00486947,0,0,0,0,0,0,0.077,0.078,-0.13,-0.007,0.005,0.002,-2.1,14.651,-13.902,2.268,0.012681,-0.381839
23:26:51:970427,0.000244346,-0.581823,1.1875,0.00010472,1.35184,-0.00486947,0,0,0,0,0,0,0.1,0.196,-0.116,-0.019,0.01,0.003,-2.212,14.294,-14.028,3.374,-0.04227,-0.426927
23:26:51:975413,0.000244346,-0.581823,1.1875,0.00010472,1.35184,-0.00486947,0,0,0,0,0,0,0.169,0.446,0.034,-0.044,0.017,0.003,-1.764,14.749,-13.734,-3.101,0.04227,-0.476242
23:26:51:980538,0.000244346,-0.581823,1.1875,0.00010472,1.35184,-0.00486947,0,0,0,0,0,0,0.239,0.636,0.221,-0.062,0.021,0.003,-1.736,13.902,-13.202,6.251,0.029589,-0.53542
23:26:51:985499,0.000244346,-0.581823,1.1875,0.00010472,1.35184,-0.00486947,0,0,0,0,0,0,0.377,0.926,0.438,-0.086,0.028,0.004,-1.813,14.483,-13.531,1.792,0.088767,-0.417064
23:26:51:990680,0.000244346,-0.581823,1.1875,0.00010472,1.35184,-0.00486947,0,0,0,0,0,0,0.478,1.119,0.418,-0.098,0.033,0.006,-1.561,13.734,-13.419,1.246,0.004227,-0.54951
23:26:51:995606,0.000244346,-0.581823,1.1875,0.00010472,1.35184,-0.00486947,0,0,0,0,0,0,0.609,1.378,0.208,-0.109,0.041,0.01,-1.645,14.679,-13.223,3.633,-0.038043,-0.356477
23:26:52:786,0.000244346,-0.581823,1.1875,0.00010472,1.35184,-0.00486947,0,0,0,0,0,0,0.659,1.488,0.13,-0.112,0.045,0.011,-1.106,15.162,-12.628,0.924,-0.190215,-0.273346
23:26:52:5802,0.000244346,-0.581823,1.1875,0.00010472,1.35184,-0.00486947,0,0,0,0,0,0,0.67,1.5,0.3,-0.11,0.049,0.01,-1.106,14.238,-12.334,2.814,-0.022544,-0.463561
23:26:52:10926,0.000244346,-0.581823,1.1875,0.00010472,1.35184,-0.00486947,0,0,0,0,0,0,0.649,1.416,0.523,-0.105,0.048,0.008,-0.567,15.288,-12.467,2.016,-0.032407,-0.415655
23:26:52:15913,0.000244346,-0.581823,1.1875,0.00010472,1.35184,-0.00486947,0,0,0,0,0,0,0.618,1.242,0.758,-0.094,0.046,0.006,-1.155,15.771,-12.726,2.387,-0.052133,-0.343796
23:26:52:20873,0.000244346,-0.581823,1.18752,0.00010472,1.35184,-0.00486947,0,0,0,0,0,0,0.616,1.143,0.794,-0.087,0.045,0.005,-0.007,15.624,-12.481,2.247,-0.240939,-0.393111
23:26:52:26078,0.000261799,-0.581805,1.18752,0.00010472,1.35184,-0.00485202,0,0,0,0,0,0,0.641,1.035,0.777,-0.078,0.043,0.005,-0.105,14.889,-11.753,2.275,-0.09863,-0.405792
23:26:52:31055,0.000261799,-0.581805,1.18752,0.00010472,1.35184,-0.00485202,0,0,0,0,0,0,0.682,0.945,0.766,-0.073,0.043,0.005,-0.042,16.058,-11.564,2.555,-0.11272,-0.286027
23:26:52:36159,0.000261799,-0.581805,1.18752,0.00010472,1.35184,-0.00485202,0,0,0,0,0,0,0.707,0.896,0.71,-0.071,0.043,0.006,0.714,15.554,-10.934,1.82,-0.152172,-0.283209
23:26:52:41125,0.000279253,-0.581805,1.18752,0.00010472,1.35183,-0.00485202,0,0,0,0,0,0,0.715,0.875,0.494,-0.071,0.041,0.008,1.106,15.498,-10.584,2.331,-0.133855,-0.369158
23:26:52:46298,0.000279253,-0.581805,1.18752,0.00010472,1.35183,-0.00485202,0,0,0,0,0,0,0.681,0.905,0.358,-0.073,0.037,0.009,1.463,16.394,-10.423,1.736,-0.157808,-0.226849
23:26:52:51303,0.000296706,-0.581805,1.18752,0.00010472,1.35183,-0.00485202,0.00214676,0,0,0,0,0,0.545,0.981,0.421,-0.081,0.026,0.007,1.589,16.842,-9.919,2.331,-0.297299,-0.187397
23:26:52:56422,0.000296706,-0.581805,1.18754,0.00010472,1.35183,-0.00485202,0.00172788,0,0,0,0,0,0.399,1.027,0.654,-0.088,0.017,0.005,1.386,17.052,-9.289,2.583,-0.171898,-0.30998
23:26:52:61388,0.000314159,-0.581805,1.18754,0.00010472,1.35181,-0.00485202,0,0,0,0,0,0,0.148,1.091,0.988,-0.1,0.002,0.001,1.736,16.415,-9.093,2.443,-0.166262,-0.308571
23:26:52:66548,0.000314159,-0.581805,1.18756,0.00010472,1.35181,-0.00483456,0.00190241,0,0.00221657,0,0,0,0.002,1.142,1.014,-0.105,-0.006,0,2.191,16.583,-9.142,2.667,-0.188806,-0.233894
23:26:52:71551,0.000331613,-0.581805,1.18757,0.00010472,1.35179,-0.00483456,0.00225147,0,0.00244346,0,-0.00237365,0,-0.122,1.214,0.771,-0.108,-0.015,0.001,2.961,17.409,-8.617,2.758,-0.209941,-0.101448
23:26:52:76675,0.000349066,-0.581805,1.18759,0.00010472,1.35179,-0.00483456,0.00230383,0,0.00314159,0,0,0,-0.131,1.227,0.594,-0.105,-0.017,0.003,3.367,17.899,-8.729,2.527,-0.29589,-0.35225
23:26:52:81659,0.000366519,-0.581805,1.18761,0.00010472,1.35179,-0.00483456,0.00246091,0,0.0042237,0,0,0,-0.069,1.162,0.506,-0.095,-0.014,0.003,3.5,17.878,-8.603,2.926,-0.255029,-0.336751
23:26:52:86782,0.000383972,-0.581805,1.18763,0.00010472,1.35177,-0.00483456,0.00357793,0,0.00307178,0,0,0,-0.006,1.075,0.523,-0.087,-0.01,0.003,3.976,18.179,-8.015,2.499,-0.290254,-0.202896
23:26:52:91797,0.000401426,-0.581805,1.18764,0.00010472,1.35176,-0.00483456,0.00415388,0,0.00246091,0,0,0,0.09,0.926,0.513,-0.075,-0.001,0.003,4.256,18.508,-7.532,2.667,-0.314207,-0.311389
23:26:52:96746,0.000418879,-0.581805,1.18764,0.00010472,1.35176,-0.00481711,0.00493928,0,0.00181514,0,0,0,0.164,0.839,0.473,-0.068,0.005,0.003,4.669,17.801,-7.49,2.611,-0.457925,-0.233894
23:26:52:101912,0.000453786,-0.581805,1.18764,0.00010472,1.35174,-0.00481711,0.00502655,0,0.00188496,0,0,0,0.311,0.752,0.45,-0.061,0.016,0.004,5.117,18.746,-7.35,2.184,-0.414246,-0.277573
23:26:52:106904,0.000488692,-0.581805,1.18764,0.00010472,1.35174,-0.00481711,0.00563741,0,0,0,0,0,0.431,0.722,0.477,-0.058,0.023,0.004,4.816,18.627,-7.287,2.359,-0.346614,-0.188806
23:26:52:112062,0.000523599,-0.581805,1.18766,0.00010472,1.35171,-0.00479966,0.00678933,0,0.00193732,0,-0.00308923,0,0.61,0.701,0.539,-0.056,0.034,0.005,4.914,18.956,-6.867,1.82,-0.342387,-0.315616
23:26:52:116978,0.000575959,-0.581805,1.18768,0.00010472,1.35171,-0.00479966,0.00818559,0,0.00162316,0,-0.00294961,0,0.704,0.693,0.573,-0.056,0.041,0.005,5.53,19.026,-6.3,2.555,-0.405792,-0.171898
23:26:52:122174,0.000610865,-0.581805,1.18768,0.00010472,1.35169,-0.00479966,0.0084823,0,0.00251327,0,-0.00305433,0,0.808,0.703,0.596,-0.058,0.05,0.006,5.341,19.404,-6.076,3.241,-0.457925,-0.240939
23:26:52:127123,0.000645772,-0.581805,1.1877,0.00010472,1.35169,-0.00479966,0.00797615,0,0.00280998,0,0,0,0.903,0.768,0.541,-0.062,0.057,0.007,6.111,19.383,-6.146,1.876,-0.417064,-0.284618
23:26:52:132296,0.000698132,-0.581805,1.18771,0.00010472,1.35167,-0.00479966,0.00853466,0,0.00253073,0,-0.00308923,0,0.968,0.835,0.469,-0.064,0.06,0.008,5.663,19.922,-6.125,2.331,-0.445244,-0.263483
23:26:52:137278,0.000750492,-0.581805,1.18773,0.00010472,1.35165,-0.0047822,0.00879646,0,0.00308923,0,-0.00301942,0,1.044,0.923,0.429,-0.067,0.064,0.009,5.824,19.635,-4.949,2.128,-0.504422,-0.263483
23:26:52:142285,0.000802851,-0.581788,1.18775,0.00010472,1.35165,-0.0047822,0.0103498,0,0.0045204,0,-0.00256563,0,1.07,0.951,0.49,-0.068,0.065,0.009,5.901,20.447,-5.117,1.96,-0.35225,-0.297299
23:26:52:147420,0.000855211,-0.581788,1.18778,0.00010472,1.35162,-0.0047822,0.0103847,0,0.00424115,0,-0.0031765,0,1.1,0.954,0.592,-0.068,0.067,0.008,7.224,21.224,-4.326,1.932,-0.50724,-0.174716
23:26:52:152367,0.000907571,-0.581788,1.1878,0.00010472,1.3516,-0.0047822,0.0110654,0,0.00575959,0,-0.00345575,0,1.136,0.949,0.545,-0.067,0.069,0.009,6.482,21.679,-4.459,1.729,-0.333933,-0.236712
23:26:52:157552,0.000977384,-0.581788,1.18784,0.00010472,1.35157,-0.00476475,0.0123046,0,0.00637045,0,-0.00483456,0,1.204,0.95,0.299,-0.064,0.072,0.011,6.825,21.924,-3.822,2.156,-0.52133,-0.188806
23:26:52:162496,0.0010472,-0.581771,1.18787,0.00010472,1.35155,-0.00476475,0.012898,0.00200713,0.00666716,0,-0.00532325,0,1.238,0.948,0.151,-0.061,0.075,0.012,6.797,22.673,-3.269,2.331,-0.463561,-0.174716
23:26:52:167601,0.00111701,-0.581753,1.18791,0.00010472,1.3515,-0.00476475,0.0136136,0.00176278,0.00757473,0,-0.00729548,0,1.274,0.913,0.145,-0.057,0.079,0.011,6.79,22.358,-2.772,2.044,-0.474833,-0.164853
23:26:52:172603,0.00118682,-0.581753,1.18796,0.00010472,1.35146,-0.00476475,0.0149575,0,0.00788889,0,-0.00701622,0,1.309,0.866,0.25,-0.055,0.082,0.01,6.349,22.708,-2.261,1.988,-0.59178,-0.331115
23:26:52:177776,0.00129154,-0.581736,1.18801,0.00010472,1.35144,-0.00476475,0.0170868,0.00197222,0.00895354,0,-0.00616101,0,1.393,0.797,0.383,-0.053,0.086,0.008,6.237,23.45,-2.163,2.268,-0.629823,-0.150763
23:26:52:182776,0.00139626,-0.581718,1.18806,0.00010472,1.35141,-0.00476475,0.0200364,0.00305433,0.0103673,0,-0.00596903,0,1.452,0.783,0.405,-0.052,0.089,0.008,5.327,23.576,-1.813,2.044,-0.476242,-0.040861
23:26:52:187901,0.00150098,-0.581701,1.18813,0.00010472,1.35136,-0.0047473,0.0206822,0.00376991,0.0128456,0,-0.00760964,0,1.52,0.827,0.404,-0.053,0.093,0.009,5.369,24.171,-1.673,1.932,-0.610097,-0.208532
23:26:52:192846,0.00162316,-0.581683,1.18822,0.00010472,1.35132,-0.0047473,0.0213105,0.00303687,0.0145386,0,-0.00778417,0,1.556,0.877,0.428,-0.054,0.096,0.01,5.166,24.976,-0.322,2.072,-0.614324,-0.108493
23:26:52:198043,0.00172788,-0.581666,1.18831,0.00010472,1.35127,-0.00472984,0.0208043,0.00429351,0.0166504,0,-0.00881391,0,1.614,0.941,0.473,-0.058,0.099,0.01,5.558,24.003,-0.616,2.331,-0.488923,-0.181761
23:26:52:203020,0.00181514,-0.581631,1.18839,0.00010472,1.35122,-0.00472984,0.0184307,0.0047473,0.0184481,0,-0.0106814,0,1.65,0.976,0.457,-0.06,0.102,0.01,6.118,25.676,-0.371,2.016,-0.536829,-0.208532
23:26:52:208178,0.00188496,-0.581614,1.1885,0.00010472,1.35115,-0.00472984,0.0161967,0.00488692,0.0186401,0,-0.0116239,0,1.697,1.033,0.336,-0.062,0.107,0.011,5.74,25.536,-0.245,2.527,-0.645322,-0.125401
23:26:52:213152,0.00195477,-0.581579,1.1886,0.00010472,1.35108,-0.00472984,0.0150098,0.00567232,0.0201411,0,-0.0134739,0,1.752,1.081,0.223,-0.063,0.111,0.013,6.846,26.271,1.239,1.309,-0.525557,-0.146536
23:26:52:218164,0.00204204,-0.581544,1.18873,0.00010472,1.35099,-0.00472984,0.0161617,0.00715585,0.0215374,0,-0.0158301,0,1.793,1.086,0.235,-0.064,0.113,0.012,6.867,26.754,1.358,1.729,-0.600234,-0.252211
23:26:52:223281,0.00214676,-0.581491,1.18885,0.00010472,1.35088,-0.00472984,0.0183783,0.00750492,0.0253945,0,-0.0174882,0,1.824,1.068,0.349,-0.066,0.117,0.011,6.79,27.58,0.952,1.33,-0.370567,-0.178943
23:26:52:228225,0.00225147,-0.581456,1.18901,0.00010472,1.3508,-0.00472984,0.0198618,0.00855211,0.0291819,0,-0.0198444,0,1.816,1.075,0.386,-0.068,0.12,0.01,6.272,27.972,0.399,2.184,-0.387475,-0.149354
23:26:52:233228,0.00237365,-0.581404,1.18922,0.00010472,1.35066,-0.00472984,0.0219213,0.00968658,0.0351509,0,-0.0234049,0,1.816,1.149,0.311,-0.071,0.126,0.01,5.32,29.001,0.525,2.156,-0.349432,-0.293072
23:26:52:238345,0.00249582,-0.581334,1.18946,0.00010472,1.35054,-0.00472984,0.0217119,0.010821,0.0433191,0,-0.0249058,0,1.869,1.215,0.26,-0.073,0.131,0.01,5.502,28.714,-1.099,2.072,-0.187397,-0.302935
23:26:52:243539,0.00258309,-0.581264,1.18974,0.00010472,1.35041,-0.00471239,0.0209265,0.0138754,0.0502655,0,-0.0235619,0,2.024,1.262,0.363,-0.075,0.138,0.01,6.188,28.602,-2.408,2.555,-0.214168,-0.08454
23:26:52:248527,0.00268781,-0.581177,1.19002,0.00010472,1.35031,-0.00471239,0.019792,0.0160745,0.0551,0,-0.0230907,0,2.129,1.247,0.529,-0.077,0.142,0.009,5.537,28.791,-3.087,1.701,-0.260665,-0.063405
23:26:52:253472,0.00279253,-0.581072,1.19028,0.00010472,1.35022,-0.00471239,0.0195477,0.0179594,0.051365,0,-0.0197222,0,2.218,1.206,0.701,-0.079,0.145,0.009,5.635,28.784,-2.506,2.184,-0.138082,-0.178943
23:26:52:258673,0.00289725,-0.580968,1.19052,0.00010472,1.35013,-0.00471239,0.0210487,0.019443,0.0492008,0,-0.0166853,0,2.237,1.199,0.665,-0.079,0.147,0.009,6.041,28.595,-2.723,1.848,-0.319843,-0.07045
23:26:52:263598,0.00301942,-0.580846,1.19077,0.00010472,1.35006,-0.00471239,0.0234398,0.0218864,0.0501957,0,-0.0169646,0,2.265,1.209,0.422,-0.076,0.148,0.011,6.335,28.903,-1.414,2.499,-0.264892,-0.194442
23:26:52:268774,0.00315905,-0.580723,1.19105,0.00010472,1.34994,-0.00471239,0.0249931,0.0248535,0.0530929,0,-0.019635,0,2.304,1.207,0.238,-0.074,0.15,0.012,5.117,29.127,-1.827,1.701,-0.284618,-0.123992
23:26:52:273733,0.00331613,-0.580566,1.19136,0.00010472,1.34984,-0.00471239,0.0286583,0.0281347,0.0587129,0,-0.0213279,0,2.382,1.18,0.106,-0.071,0.154,0.013,4.606,28.714,-2.352,1.932,-0.370567,0.01409
23:26:52:278922,0.00349066,-0.580392,1.19171,0.00010472,1.34973,-0.00471239,0.0316079,0.032306,0.065031,0,-0.021485,0,2.433,1.167,0.144,-0.07,0.157,0.013,4.347,28.595,-3.143,1.617,-0.390293,-0.302935
23:26:52:283861,0.00364774,-0.5802,1.19204,0.00010472,1.34961,-0.00471239,0.0322886,0.036233,0.0656244,0,-0.0229685,0,2.504,1.167,0.266,-0.07,0.163,0.012,4.025,27.587,-2.947,2.24,-0.355068,-0.039452
23:26:52:289023,0.00380482,-0.579973,1.19232,0.00010472,1.34951,-0.00471239,0.0308749,0.0396888,0.0585907,0,-0.0216246,0,2.552,1.171,0.276,-0.069,0.166,0.011,3.675,27.51,-1.855,2.443,-0.36634,-0.170489
23:26:52:294037,0.00394444,-0.579763,1.19255,0.00010472,1.3494,-0.00471239,0.0291994,0.0414167,0.0498641,0,-0.0214501,0,2.608,1.164,0.107,-0.067,0.168,0.011,4.025,26.411,-0.014,2.044,-0.33816,-0.054951
23:26:52:298995,0.00404916,-0.579554,1.19278,0.00010472,1.3493,-0.00471239,0.0254644,0.0397935,0.0475951,0,-0.0208567,0,2.621,1.159,-0.056,-0.066,0.169,0.012,4.326,27.622,1.05,1.792,-0.362113,-0.077495
23:26:52:304162,0.00415388,-0.579379,1.19305,0.00010472,1.34917,-0.00469494,0.0202109,0.0374722,0.0513301,0,-0.022218,0,2.614,1.164,-0.185,-0.066,0.169,0.011,5.285,28.567,1.414,2.387,-0.467788,-0.077495
23:26:52:309145,0.0042237,-0.579188,1.19337,0.00010472,1.34905,-0.00469494,0.0183434,0.0376642,0.0592016,0,-0.0245568,0,2.646,1.175,-0.096,-0.066,0.17,0.009,6.188,29.47,1.26,1.785,-0.524148,-0.256438
23:26:52:314271,0.00431096,-0.578996,1.19375,0.00010472,1.34891,-0.00469494,0.0169297,0.0380831,0.069691,0,-0.0250629,0,2.726,1.172,0.015,-0.066,0.174,0.008,6.629,29.015,0.112,1.533,-0.407201,-0.08454
23:26:52:319288,0.00439823,-0.578786,1.19417,0.00010472,1.34877,-0.00469494,0.0170868,0.0394095,0.0770214,0,-0.0265116,0,2.912,1.157,0.095,-0.065,0.185,0.008,6.489,29.722,-0.882,1.757,-0.517103,-0.185988
23:26:52:324418,0.00450295,-0.578559,1.19459,0.00010472,1.34863,-0.00467748,0.019251,0.0423591,0.0789412,0,-0.0270701,0,3.016,1.149,0.039,-0.065,0.193,0.008,6.559,28.693,-1.148,2.044,-0.600234,-0.08454
23:26:52:329396,0.00460767,-0.578315,1.19499,0.00010472,1.34853,-0.00467748,0.0202807,0.0456055,0.0810531,0,-0.0248709,0,3.016,1.154,-0.156,-0.067,0.199,0.008,6.461,28.623,-1.148,1.701,-0.59178,-0.180352
23:26:52:334522,0.00471239,-0.57807,1.19546,0.00010472,1.34839,-0.00467748,0.019984,0.0489041,0.0888547,0,-0.0259181,0,2.899,1.171,-0.277,-0.069,0.197,0.008,6.839,29.33,-1.638,1.218,-0.755224,-0.092994
23:26:52:339524,0.00481711,-0.577809,1.19595,0.00010472,1.34825,-0.00467748,0.0213279,0.0507716,0.0946143,0,-0.0287456,0,2.685,1.218,-0.321,-0.073,0.187,0.007,6.545,28.294,-3.08,1.876,-0.701682,-0.178943
23:26:52:344520,0.00492183,-0.577547,1.19642,0.00010472,1.34806,-0.00467748,0.0210312,0.0504575,0.0912458,0,-0.0333532,0,2.639,1.257,-0.237,-0.075,0.183,0.006,5.852,29.638,-2.492,1.848,-0.600234,-0.216986
23:26:52:349592,0.00502655,-0.577303,1.19681,0.00010472,1.34787,-0.00466003,0.0208916,0.0497942,0.0828857,0,-0.0394619,0,2.834,1.294,-0.002,-0.079,0.188,0.005,7.049,30.366,-1.008,1.785,-0.562191,-0.123992
23:26:52:354785,0.00513127,-0.577058,1.19719,0.00010472,1.34759,-0.00466003,0.0206996,0.0479616,0.0798837,0,-0.046164,0,3.083,1.287,0.143,-0.081,0.2,0.005,7.021,30.128,0.574,2.296,-0.339569,-0.015499
23:26:52:359732,0.00525344,-0.576831,1.19763,0.00010472,1.34729,-0.00466003,0.0206123,0.0473508,0.084282,0,-0.054943,0,3.362,1.261,0.203,-0.083,0.217,0.005,6.923,30.884,0.238,1.365,-0.284618,-0.235303
23:26:52:364787,0.00535816,-0.576569,1.19812,0.00010472,1.34699,-0.00466003,0.0232129,0.0488867,0.0906524,0,-0.0567407,0,3.33,1.274,0.099,-0.085,0.221,0.006,6.853,30.723,0.168,1.757,-0.059178,-0.256438
23:26:52:369911,0.00549779,-0.57629,1.19862,0.00010472,1.34678,-0.00466003,0.0249408,0.0541052,0.0966389,0,-0.0482758,0,2.918,1.379,-0.224,-0.091,0.209,0.007,6.699,29.953,-0.343,1.82,-0.053542,-0.076086
23:26:52:374896,0.00565487,-0.575959,1.19915,0.00010472,1.34663,-0.00464258,0.0279602,0.0599172,0.100566,0,-0.0378213,0,2.555,1.477,-0.472,-0.096,0.193,0.008,6.083,28.539,0.273,2.016,-0.204305,-0.174716
23:26:52:380061,0.00581195,-0.575627,1.1997,0.00010472,1.34649,-0.00464258,0.0299149,0.0645772,0.107757,0,-0.032341,0,2.237,1.592,-0.701,-0.102,0.172,0.008,5.537,27.909,-0.315,2.044,-0.377612,-0.135264
23:26:52:385026,0.00596903,-0.575295,1.20025,0.00010472,1.34631,-0.00464258,0.0299324,0.0645946,0.108542,0,-0.0319046,0,2.271,1.638,-0.676,-0.105,0.168,0.007,5.831,29.33,-0.112,1.813,-0.439608,-0.128219
23:26:52:390147,0.00610865,-0.574981,1.20077,0.00010472,1.34614,-0.00464258,0.0290772,0.0617323,0.103952,0,-0.0355524,0,2.541,1.727,-0.426,-0.11,0.175,0.005,5.796,30.233,0.091,1.421,-0.510058,-0.135264
23:26:52:395147,0.00624828,-0.574702,1.20129,0.00010472,1.34595,-0.00462512,0.0279078,0.059219,0.104004,0,-0.0368614,0,2.739,1.913,-0.198,-0.123,0.186,0.004,6.286,31.486,-0.322,1.813,-0.484696,-0.181761
23:26:52:400285,0.00638791,-0.574405,1.20185,0.00010472,1.34574,-0.00462512,0.0286409,0.0591841,0.108141,0,-0.0385194,0,2.752,2.063,-0.137,-0.134,0.19,0.004,5.579,31.171,-0.469,1.022,-0.494559,-0.032407
23:26:52:405268,0.00654498,-0.574091,1.20243,0.00010472,1.34554,-0.00462512,0.0304909,0.0612611,0.111055,0,-0.0378038,0,2.703,2.206,-0.07,-0.149,0.19,0.005,5.474,31.738,-0.224,1.505,-0.503013,-0.045088
23:26:52:410279,0.00671952,-0.573742,1.20302,0.00010472,1.34532,-0.00462512,0.0323235,0.066881,0.115139,0,-0.0415563,0,2.705,2.212,0,-0.153,0.191,0.005,5.418,30.863,-0.728,2.044,-0.677729,0.022544
23:26:52:415412,0.00689405,-0.573393,1.20367,0.00010472,1.34509,-0.00462512,0.0337896,0.0671777,0.121876,0,-0.0458498,0,2.763,2.152,0.011,-0.151,0.194,0.004,4.718,31.052,-0.693,1.358,-0.603052,-0.025362
23:26:52:420420,0.00706858,-0.573061,1.20428,0.00010472,1.34483,-0.00462512,0.0354302,0.0672999,0.121684,0,-0.047473,0,2.772,2.131,-0.12,-0.148,0.195,0.003,4.97,31.507,-0.938,1.729,-0.553737,-0.02818
23:26:52:425518,0.00726057,-0.572712,1.20487,0.00010472,1.34457,-0.00462512,0.0369486,0.0663574,0.117094,0,-0.0520632,0,2.654,2.165,-0.414,-0.148,0.19,0.004,4.501,31.612,-0.245,2.471,-0.556555,-0.091585
23:26:52:430531,0.00747001,-0.572363,1.20548,0.00010472,1.34424,-0.00462512,0.0391477,0.0699179,0.119747,0,-0.0596903,0,2.507,2.199,-0.532,-0.15,0.183,0.005,3.724,31.178,-0.707,1.876,-0.314207,-0.069041
23:26:52:435655,0.00767945,-0.571962,1.20609,0.00010472,1.34385,-0.00462512,0.0395841,0.0760091,0.123726,0,-0.0685042,0,2.3,2.206,-0.508,-0.153,0.171,0.004,3.437,30.66,-1.057,1.813,-0.15499,0.009863
23:26:52:440658,0.00787144,-0.571508,1.20676,0.00010472,1.34352,-0.00462512,0.0390605,0.0836711,0.125768,0,-0.0681027,0,2.239,2.174,-0.437,-0.153,0.164,0.003,3.885,29.533,-0.637,2.303,-0.240939,-0.221213
23:26:52:445766,0.00806342,-0.571072,1.20742,0.00010472,1.34329,-0.00462512,0.0381354,0.0845263,0.132348,0,-0.0523773,0,2.296,2.092,-0.376,-0.149,0.16,0.002,4.186,29.519,-1.015,2.359,-0.08454,-0.297299
23:26:52:450766,0.00823795,-0.57067,1.20808,0.00010472,1.34314,-0.00462512,0.0368614,0.0823446,0.131511,0,-0.0391652,0,2.395,2.03,-0.357,-0.144,0.16,0.002,3.892,29.47,-1.001,1.218,-0.356477,-0.121174
23:26:52:455710,0.00839503,-0.570269,1.20871,0.00010472,1.34298,-0.00462512,0.0342434,0.0812974,0.124721,0,-0.0348891,0,2.507,1.957,-0.255,-0.14,0.164,0.002,5.208,29.834,-0.399,1.792,-0.428336,-0.150763
23:26:52:460888,0.00855211,-0.569833,1.20934,0.00010472,1.34279,-0.00462512,0.0317126,0.0835838,0.125297,0,-0.0372279,0,2.492,1.939,-0.123,-0.14,0.167,0.001,5.341,30.345,-0.49,1.477,-0.460743,-0.208532
23:26:52:466030,0.00870919,-0.569414,1.21,0.00010472,1.34256,-0.00462512,0.0315556,0.0832173,0.129329,0,-0.0404218,0,2.343,1.946,0.037,-0.145,0.167,0,5.705,29.449,-0.448,1.505,-0.649549,-0.125401
23:26:52:471032,0.00888373,-0.56903,1.21068,0.00010472,1.34233,-0.00462512,0.0338245,0.0790285,0.131964,0,-0.043738,0,2.235,1.938,0.017,-0.145,0.163,-0.001,5.383,30.212,-0.182,1.19,-0.739725,-0.040861
23:26:52:476016,0.00907571,-0.568663,1.21138,0.00010472,1.34207,-0.00462512,0.036076,0.0750841,0.138056,0,-0.0488169,0,2.22,1.852,-0.185,-0.139,0.159,-0.001,5.565,31.101,-0.735,1.533,-0.725635,-0.180352
23:26:52:481089,0.00928515,-0.568262,1.2121,0.00010472,1.34177,-0.00462512,0.037385,0.0768643,0.138038,0,-0.0549779,0,2.443,1.719,-0.339,-0.129,0.165,-0.001,5.39,30.121,-0.693,1.729,-0.545283,-0.250802
23:26:52:486161,0.00945968,-0.567808,1.21276,0.00010472,1.34141,-0.00462512,0.0374897,0.0837933,0.133779,0,-0.0651008,0,2.662,1.667,-0.324,-0.125,0.175,-0.001,5.355,29.771,-0.14,1.302,-0.474833,-0.101448
23:26:52:491266,0.00965167,-0.567354,1.21344,0.00010472,1.34104,-0.00460767,0.0376642,0.0881217,0.134687,0,-0.0709476,0,2.914,1.692,-0.255,-0.127,0.193,-0.001,6.146,29.015,-1.099,1.729,-0.164853,-0.125401
23:26:52:496212,0.00986111,-0.566935,1.21416,0.00010472,1.34066,-0.00460767,0.0394095,0.0852244,0.138352,0,-0.0737053,0,2.946,1.741,-0.296,-0.13,0.201,-0.001,5.733,28.952,-1.701,1.106,-0.125401,-0.119765
23:26:52:501405,0.0100531,-0.566534,1.21487,0.00010472,1.34033,-0.00460767,0.0393572,0.0826064,0.143361,0,-0.0681551,0,2.795,1.759,-0.517,-0.13,0.201,0,5.264,29.694,-1.393,0.938,-0.091585,-0.181761
23:26:52:506337,0.0102625,-0.566115,1.21566,0.00010472,1.34008,-0.00460767,0.0397237,0.0825366,0.14872,0,-0.0555364,0,2.657,1.723,-0.684,-0.127,0.195,-0.001,5.495,29.743,-1.75,1.589,-0.123992,-0.078904
23:26:52:511530,0.010472,-0.565661,1.21635,0.00010472,1.33987,-0.00460767,0.040928,0.0852942,0.142977,0,-0.0467923,0,2.612,1.685,-0.808,-0.123,0.189,-0.002,4.935,29.106,-1.015,0.882,-0.287436,-0.188806
23:26:52:516529,0.0106989,-0.565207,1.21705,0.00010472,1.33968,-0.00460767,0.0438427,0.0883835,0.138719,0,-0.0413643,0,2.749,1.731,-0.793,-0.124,0.193,-0.003,5.033,30.1,-0.385,1.33,-0.466379,-0.02818
23:26:52:521638,0.0109258,-0.564771,1.21777,0.00010472,1.33951,-0.00460767,0.0461291,0.0877028,0.139591,0,-0.0386416,0,3.097,1.904,-0.731,-0.134,0.21,-0.004,3.948,29.295,-1.169,1.505,-0.590371,-0.188806
23:26:52:526609,0.0111876,-0.564335,1.21852,0.00010472,1.33931,-0.00460767,0.0485376,0.0874585,0.143484,0,-0.0385543,0,3.283,2.03,-0.743,-0.143,0.224,-0.004,4.452,29.89,-0.98,1.106,-0.779177,-0.136673
23:26:52:531642,0.0114494,-0.563846,1.21929,0.00010472,1.33905,-0.00460767,0.0513127,0.0914029,0.151355,0,-0.0446804,0,3.329,2.147,-0.869,-0.154,0.234,-0.004,3.248,30.548,-0.693,0.651,-0.765087,-0.21135
23:26:52:536590,0.0117112,-0.563375,1.22005,0.00010472,1.33874,-0.00460767,0.0501259,0.0943525,0.151442,0,-0.0573341,0,3.246,2.165,-0.953,-0.159,0.233,-0.004,4.305,29.316,-0.644,1.106,-0.680547,-0.097221
23:26:52:541725,0.0119381,-0.562886,1.22081,0.00010472,1.33835,-0.00460767,0.0464956,0.0948935,0.147864,0,-0.0695688,0,3.206,2.131,-0.945,-0.163,0.231,-0.005,4.557,29.414,-0.217,1.19,-0.453698,0.02818
23:26:52:546903,0.0121475,-0.562432,1.22156,0.00010472,1.33786,-0.00460767,0.0435809,0.0925025,0.150098,0,-0.085015,0,3.341,2.084,-0.863,-0.163,0.236,-0.006,4.879,29.778,-0.553,0.994,-0.200078,-0.147945
23:26:52:551902,0.012322,-0.561961,1.22234,0.00010472,1.33739,-0.00460767,0.0393921,0.0932355,0.151407,0,-0.0886802,0,3.661,2.003,-0.778,-0.157,0.252,-0.006,6.041,30.366,-0.399,1.274,-0.177534,-0.176125
23:26:52:557028,0.012514,-0.561472,1.22313,0.00010472,1.33704,-0.00459022,0.0383274,0.0935497,0.157289,0,-0.0753459,0,3.749,1.967,-0.82,-0.152,0.26,-0.006,6.363,30.037,-0.07,1.302,-0.060587,-0.142309
23:26:52:561960,0.012706,-0.561001,1.22395,0.00010472,1.33682,-0.00459022,0.0391826,0.0953997,0.159488,0,-0.0581369,0,3.498,1.971,-1.027,-0.149,0.254,-0.005,6.223,29.449,-0.028,0.847,-0.269119,0.119765
23:26:52:567136,0.0129329,-0.560478,1.22473,0.00010472,1.33661,-0.00459022,0.0411898,0.0988205,0.1579,0,-0.0471937,0,3.048,2.014,-1.258,-0.151,0.233,-0.005,6.517,29.568,0.294,1.19,-0.429745,-0.061996
23:26:52:572084,0.0131772,-0.559919,1.22557,0.00010472,1.33638,-0.00459022,0.0457276,0.105453,0.161286,0,-0.0465828,0,2.884,2.02,-1.302,-0.153,0.222,-0.005,5.642,29.036,0.42,1.078,-0.629823,-0.118356
23:26:52:577148,0.013439,-0.559378,1.22639,0.00010472,1.33612,-0.00459022,0.0503702,0.107844,0.163537,0,-0.0500909,0,2.952,1.967,-1.072,-0.153,0.218,-0.007,4.55,27.909,0.126,0.763,-0.731271,-0.204305
23:26:52:582223,0.0137008,-0.558837,1.2273,0.00010472,1.33586,-0.00457276,0.050248,0.106238,0.171444,0,-0.0508414,0,3.09,1.921,-0.784,-0.155,0.221,-0.008,4.704,28.049,0.105,1.533,-0.812993,-0.077495
23:26:52:587402,0.0139626,-0.558313,1.22814,0.00010472,1.33556,-0.00457276,0.0505447,0.104877,0.170658,0,-0.0577006,0,3.224,1.911,-0.489,-0.161,0.227,-0.009,5.152,28.42,-0.924,0.763,-0.872171,-0.160626
23:26:52:592406,0.014207,-0.55779,1.22903,0.00010472,1.33514,-0.00457276,0.0497768,0.104388,0.171269,0,-0.0734958,0,3.257,1.954,-0.529,-0.167,0.23,-0.007,5.418,28.357,-0.917,0.42,-0.639686,-0.108493
23:26:52:597481,0.0144688,-0.557284,1.22986,0.00010472,1.33458,-0.00457276,0.0521504,0.103062,0.171671,0,-0.0986984,0,3.311,2.038,-0.794,-0.176,0.235,-0.003,4.697,29.176,-0.343,0.791,-0.246575,-0.170489
23:26:52:602403,0.0147655,-0.556743,1.23077,0.00010472,1.33397,-0.00457276,0.0564963,0.103655,0.174568,0,-0.108158,0,3.348,2.074,-0.887,-0.179,0.239,-0.001,3.808,28.903,-0.217,1.421,0.08454,-0.054951
23:26:52:607509,0.0150971,-0.556184,1.23166,0.00010472,1.33362,-0.00457276,0.0612436,0.107792,0.175929,0,-0.0832347,0,3.303,2.104,-0.78,-0.182,0.239,-0.002,2.996,29.12,-0.203,0.707,-0.046497,-0.204305
23:26:52:612636,0.0154462,-0.555608,1.23253,0.00010472,1.33345,-0.00457276,0.065188,0.111439,0.173887,0,-0.0526042,0,3.186,2.146,-0.689,-0.185,0.233,-0.002,2.205,28.861,0,0.427,-0.326888,-0.022544
23:26:52:617631,0.0157778,-0.55505,1.23344,0.00010472,1.33326,-0.00457276,0.0657291,0.110008,0.175126,0,-0.045204,0,2.992,2.32,-0.761,-0.196,0.219,-0.003,2.086,28.665,-0.049,0.735,-0.407201,-0.131037
23:26:52:622651,0.016057,-0.554509,1.23431,0.00010472,1.33296,-0.00457276,0.0601091,0.109554,0.176505,0,-0.0540528,0,2.927,2.53,-0.892,-0.21,0.212,-0.004,2.317,29.19,0.217,0.847,-0.666457,-0.156399
23:26:52:627777,0.0163014,-0.553933,1.23524,0.00010472,1.33263,-0.00457276,0.0527962,0.110828,0.180799,0,-0.0594634,0,2.915,2.94,-0.929,-0.24,0.207,-0.006,3.976,29.092,0.322,0.651,-0.667866,-0.08454
23:26:52:632706,0.0165283,-0.553374,1.23616,0.00010472,1.3323,-0.00457276,0.0484154,0.109415,0.178984,0,-0.062762,0,2.891,3.215,-0.784,-0.263,0.204,-0.008,5.719,28.714,1.274,0.427,-0.596007,-0.022544
23:26:52:637886,0.0167726,-0.55285,1.23707,0.00010472,1.33188,-0.00457276,0.047089,0.107879,0.180275,0,-0.0743336,0,2.781,3.558,-0.501,-0.292,0.192,-0.011,5.698,29.127,1.022,0.539,-0.50724,-0.074677
23:26:52:642844,0.017017,-0.552275,1.238,0.00010472,1.33134,-0.00457276,0.0489041,0.111474,0.181532,0,-0.0975465,0,2.72,3.754,-0.419,-0.306,0.183,-0.012,6.153,30.345,0.441,0.994,-0.185988,-0.166262
23:26:52:647864,0.0172962,-0.551699,1.23894,0.00010472,1.33073,-0.00457276,0.0541052,0.115017,0.186925,0,-0.109502,0,2.747,4.063,-0.509,-0.325,0.177,-0.011,5.222,29.078,0.896,0.028,0.094403,0.019726
23:26:52:652957,0.0176104,-0.551123,1.23988,0.00010472,1.33038,-0.00457276,0.0583289,0.112958,0.18593,0,-0.0855037,0,2.768,4.277,-0.614,-0.337,0.177,-0.01,4.186,28.952,0.532,1.33,-0.074677,-0.064814
23:26:52:658147,0.017942,-0.550564,1.24081,0.00010472,1.3302,-0.00455531,0.060528,0.112068,0.185389,0,-0.0551175,0,2.555,4.503,-0.661,-0.352,0.17,-0.008,4.445,29.897,-0.098,0.994,-0.355068,-0.121174
23:26:52:663080,0.0182387,-0.549988,1.24175,0.00010472,1.32998,-0.00455531,0.0605804,0.112486,0.184342,0,-0.0477348,0,2.056,4.522,-0.56,-0.356,0.143,-0.007,5.411,29.715,0.224,0.735,-0.636868,-0.012681
23:26:52:668217,0.0185528,-0.549447,1.24269,0.00010472,1.32966,-0.00455531,0.0623955,0.109223,0.18572,0,-0.0558156,0,1.77,4.456,-0.487,-0.355,0.122,-0.007,4.795,29.897,1.197,0.763,-0.574872,-0.125401
23:26:52:673274,0.0189194,-0.548906,1.24363,0.00010472,1.32931,-0.00455531,0.0678235,0.106011,0.185651,0,-0.0651357,0,1.604,4.386,-0.479,-0.352,0.102,-0.008,4.284,30.471,1.015,0.483,-0.534011,0
23:26:52:678400,0.0193033,-0.548365,1.24456,0.00010472,1.32895,-0.00455531,0.0734784,0.107477,0.184028,0,-0.0691325,0,1.561,4.397,-0.545,-0.353,0.094,-0.008,3.528,29.449,0.217,-0.049,-0.495968,-0.152172
23:26:52:683405,0.0197222,-0.547789,1.24548,0.00010472,1.32853,-0.00455531,0.0785922,0.111649,0.184028,0,-0.0791856,0,1.382,4.442,-0.66,-0.351,0.079,-0.007,3.913,29.841,0.504,0.14,-0.529784,0.030998
23:26:52:688548,0.0200887,-0.547213,1.24644,0.00010472,1.32799,-0.00455531,0.0754331,0.112417,0.188548,0,-0.096604,0,1.261,4.45,-0.676,-0.349,0.069,-0.006,4.319,30.114,-0.014,0.028,-0.131037,-0.166262
23:26:52:693535,0.0204204,-0.546655,1.2474,0.00010472,1.32743,-0.00453786,0.0696037,0.111352,0.187867,0,-0.101369,0,1.345,4.45,-0.558,-0.347,0.067,-0.006,5.824,30.282,-0.203,0.42,0.15499,-0.22544
23:26:52:698509,0.020752,-0.546096,1.24833,0.00010472,1.32713,-0.00453786,0.0653626,0.111596,0.183504,0,-0.077161,0,1.531,4.474,-0.423,-0.351,0.076,-0.006,6.538,30.31,-0.392,0.679,-0.022544,-0.125401
23:26:52:703645,0.0210836,-0.545555,1.24924,0.00010472,1.32697,-0.00453786,0.0672999,0.108472,0.181689,0,-0.0472635,0,1.565,4.539,-0.278,-0.358,0.082,-0.007,6.944,29.771,-1.596,0.224,-0.446653,-0.235303
23:26:52:708633,0.0214675,-0.545031,1.25013,0.00010472,1.32678,-0.0045204,0.0720123,0.105802,0.17949,0,-0.0434936,0,1.282,4.574,-0.285,-0.36,0.069,-0.006,7.469,30.023,0,0.084,-0.494559,-0.029589
23:26:52:713770,0.021869,-0.54449,1.25103,0.00010472,1.32647,-0.0045204,0.0775799,0.106797,0.17935,0,-0.0533722,0,0.676,4.614,-0.431,-0.358,0.033,-0.006,6.58,29.323,-0.056,0.455,-0.560782,-0.047906
23:26:52:718770,0.0222879,-0.543914,1.25191,0.00010472,1.32612,-0.0045204,0.0812625,0.110636,0.175458,0,-0.0629017,0,0.405,4.659,-0.536,-0.357,0.012,-0.007,5.754,29.113,-0.336,0.679,-0.684774,0.01409
23:26:52:723911,0.0227416,-0.543356,1.2528,0.00010472,1.32575,-0.0045204,0.0852942,0.1113,0.175161,0,-0.0681027,0,0.273,4.755,-0.55,-0.361,-0.004,-0.009,5.705,29.225,-1.421,0.196,-0.57769,-0.061996
23:26:52:728891,0.0232303,-0.542797,1.25367,0.00010472,1.32537,-0.0045204,0.0926595,0.109415,0.173678,0,-0.0738274,0,0.24,4.798,-0.431,-0.364,-0.009,-0.01,4.557,28.238,-1.4,0.056,-0.421291,-0.111311
23:26:52:733847,0.0237365,-0.542274,1.25456,0.00010472,1.32495,-0.00450295,0.0979304,0.10753,0.175196,0,-0.0801804,0,0.205,4.766,-0.158,-0.364,-0.014,-0.011,4.263,28.364,-1.638,-0.028,-0.302935,-0.128219
23:26:52:739030,0.0242252,-0.541733,1.25542,0.00010472,1.32451,-0.0044855,0.0964643,0.105976,0.170588,0,-0.0832871,0.0029147,0.286,4.692,-0.026,-0.36,-0.011,-0.011,4.48,27.636,-1.673,0.42,-0.053542,-0.125401
23:26:52:744019,0.024679,-0.541209,1.25622,0.00010472,1.32418,-0.0044855,0.0911411,0.104964,0.16345,0,-0.0723614,0,0.575,4.575,-0.022,-0.351,0.003,-0.009,5.684,27.384,-1.708,0.196,-0.143718,-0.166262
23:26:52:749075,0.0250978,-0.540668,1.257,0.00010472,1.32397,-0.00446804,0.0871268,0.10547,0.158493,0,-0.0525693,0,0.708,4.489,-0.147,-0.341,0.011,-0.006,6.09,27.216,-0.924,-0.252,-0.302935,-0.160626
23:26:52:754077,0.0255516,-0.540127,1.25779,0.00010472,1.32381,-0.00446804,0.0878075,0.10664,0.15509,0,-0.0394968,0,0.582,4.438,-0.189,-0.334,0.003,-0.004,7.581,27.202,-1.19,0.168,-0.594598,-0.146536
23:26:52:759217,0.0260054,-0.539603,1.25857,0.00010472,1.32362,-0.00446804,0.0906524,0.103149,0.15584,0,-0.0388336,0,0.302,4.362,-0.153,-0.324,-0.016,-0.003,6.223,26.229,-1.841,-0.567,-0.638277,-0.125401
23:26:52:764203,0.0265116,-0.53915,1.25932,0.00010472,1.32338,-0.00446804,0.0957662,0.0971974,0.149627,0,-0.0450469,0,0.254,4.327,-0.132,-0.32,-0.023,-0.004,6.44,27.153,-1.176,-0.14,-0.679138,-0.142309
23:26:52:769395,0.0270352,-0.538678,1.26004,0.00010472,1.3231,-0.00445059,0.100758,0.0933926,0.144374,0,-0.0519759,0,0.441,4.319,-0.182,-0.319,-0.015,-0.004,6.51,27.601,-1.624,-0.392,-0.67632,-0.173307
23:26:52:774330,0.0275937,-0.538225,1.26076,0.00010472,1.32277,-0.00445059,0.104964,0.0901114,0.142506,0,-0.0571944,0,0.619,4.337,-0.249,-0.32,-0.005,-0.003,4.97,27.65,-1.841,-0.14,-0.618551,0.054951
23:26:52:779499,0.0281347,-0.537806,1.26145,0.00010472,1.32244,-0.00445059,0.105662,0.0871617,0.140796,0,-0.0646644,0,0.829,4.374,-0.361,-0.32,0.009,0,5.467,27.762,-0.7,-0.511,-0.381839,-0.207123
23:26:52:784504,0.0286234,-0.537387,1.26219,0.00010472,1.32209,-0.00445059,0.102259,0.0847183,0.142401,0,-0.0675093,0,0.95,4.383,-0.451,-0.318,0.018,0,6.44,27.265,-1.477,-0.623,-0.345205,-0.066223
23:26:52:789664,0.0291295,-0.536951,1.26289,0.00010472,1.32177,-0.00445059,0.0992918,0.0853815,0.139225,0,-0.0642281,0,1.139,4.32,-0.556,-0.311,0.035,0.001,7.042,27.545,-1.148,-0.308,-0.184579,-0.036634
23:26:52:794647,0.0296182,-0.536514,1.26351,0.00010472,1.32149,-0.00443314,0.0992569,0.0857131,0.132261,0,-0.0579275,0,1.231,4.22,-0.541,-0.304,0.044,0.001,7.385,26.929,-0.889,-0.595,-0.297299,0.036634
23:26:52:799782,0.0301418,-0.536095,1.26418,0.00010472,1.32125,-0.00443314,0.101002,0.0829555,0.130917,0,-0.0499339,0,1.259,4.078,-0.412,-0.295,0.05,0,6.832,27.125,-1.127,-0.91,-0.264892,0.035225
23:26:52:804767,0.0307003,-0.535711,1.26484,0.00010472,1.32104,-0.00443314,0.107111,0.0779813,0.13097,0,-0.0459196,0,1.243,4.072,-0.375,-0.294,0.05,0,6.482,27.804,-2.03,-0.966,-0.356477,-0.021135
23:26:52:809710,0.0312938,-0.535345,1.26552,0.00010472,1.32083,-0.00441568,0.113411,0.0757124,0.131319,0,-0.0449073,0,1.309,4.231,-0.522,-0.3,0.055,0,5.726,28.77,-1.582,-0.679,-0.481878,-0.116947
23:26:52:814902,0.0318697,-0.534961,1.26618,0.00010472,1.32062,-0.00441568,0.113778,0.0766025,0.134635,0,-0.0417134,0,1.457,4.374,-0.671,-0.307,0.064,0.001,4.627,27.468,-1.449,-1.134,-0.473424,0.019726
23:26:52:819889,0.0324282,-0.534542,1.26683,0.00010472,1.32045,-0.00441568,0.1113,0.0789936,0.127584,0,-0.037734,0,1.78,4.484,-0.734,-0.316,0.084,0.003,5.026,28.287,-0.91,-0.112,-0.576281,-0.019726
23:26:52:825020,0.0329693,-0.534158,1.26741,0.00010472,1.32027,-0.00439823,0.108193,0.0783827,0.12034,0,-0.0360236,0,2.01,4.458,-0.647,-0.317,0.099,0.003,6.223,27.083,-0.896,-0.707,-0.727044,-0.143718
23:26:52:830128,0.0334929,-0.533791,1.26803,0.00010472,1.32008,-0.00439823,0.105523,0.0742114,0.121824,0,-0.036233,0,2.346,4.35,-0.496,-0.313,0.124,0.003,7.315,27.762,-1.876,-0.791,-0.667866,0.100039
23:26:52:835139,0.0340339,-0.533442,1.26866,0.00010472,1.31985,-0.00439823,0.105418,0.0713142,0.122819,0,-0.0419403,0,2.657,4.294,-0.504,-0.307,0.15,0.004,6.776,28.518,-1.715,-0.875,-0.790449,-0.101448
23:26:52:840126,0.0345924,-0.533058,1.26927,0.00010472,1.31957,-0.00439823,0.110549,0.073426,0.124459,0,-0.0512778,0,2.833,4.316,-0.596,-0.306,0.166,0.005,6.797,28.14,-1.771,-0.742,-0.625596,-0.04227
23:26:52:845264,0.0352207,-0.53264,1.26995,0.00010472,1.31924,-0.00439823,0.11856,0.0796743,0.129434,0,-0.0614356,0,3.069,4.394,-0.765,-0.308,0.184,0.007,6.244,27.272,-1.715,-0.735,-0.503013,0
23:26:52:850197,0.0358142,-0.532221,1.2706,0.00010472,1.31888,-0.00438078,0.119782,0.0828333,0.128282,0,-0.0690103,0,3.259,4.429,-0.848,-0.311,0.195,0.009,5.635,26.705,-0.378,-1.386,-0.318434,0.019726
23:26:52:855388,0.0364076,-0.531819,1.27121,0.00010472,1.31856,-0.00438078,0.116187,0.0796568,0.123098,0,-0.0630937,0,3.625,4.415,-0.912,-0.311,0.214,0.01,6.846,27.265,-0.672,-0.658,-0.395929,-0.039452
23:26:52:860406,0.0369661,-0.531435,1.27184,0.00010472,1.31835,-0.00438078,0.113342,0.0760789,0.123098,0,-0.0475079,0,3.861,4.365,-0.947,-0.308,0.229,0.011,6.545,27.804,-0.882,-1.533,-0.277573,-0.164853
23:26:52:865317,0.037542,-0.531069,1.27247,0.00010472,1.31818,-0.00439823,0.113045,0.0757298,0.126833,0,-0.0404218,0,4.054,4.256,-1.046,-0.3,0.248,0.012,7.084,29.519,-0.952,-1.162,-0.531193,-0.019726
23:26:52:870499,0.0381005,-0.530667,1.27313,0.00010472,1.31795,-0.00439823,0.111736,0.0790809,0.128683,0,-0.0415912,0,4.067,4.171,-1.119,-0.295,0.255,0.012,7.672,28.917,-0.175,-1.365,-0.494559,-0.185988
23:26:52:875624,0.0387114,-0.530248,1.27383,0.00010472,1.31771,-0.00438078,0.11781,0.0800408,0.134792,0,-0.0467574,0,4.051,4.042,-1.103,-0.287,0.259,0.012,6.979,28.133,-0.924,-1.897,-0.466379,-0.187397
23:26:52:880636,0.0393572,-0.529847,1.27453,0.00010472,1.31746,-0.00438078,0.123901,0.0788016,0.136363,0,-0.0472635,0,4.105,3.969,-0.95,-0.284,0.262,0.011,5.929,28.609,-0.028,-1.141,-0.63405,-0.207123
23:26:52:885568,0.0399855,-0.529463,1.27519,0.00010472,1.31723,-0.00436332,0.123796,0.0783478,0.133046,0,-0.0462512,0,4.303,3.908,-0.585,-0.282,0.274,0.009,6.566,29.197,0.315,-1.673,-0.669275,-0.143718
23:26:52:890579,0.0405789,-0.529044,1.27587,0.00010472,1.31699,-0.00436332,0.121091,0.0826937,0.134879,0,-0.0457974,0,4.462,3.912,-0.395,-0.283,0.285,0.008,6.307,29.631,0.266,-1.505,-0.722817,0.122583
23:26:52:895764,0.0411898,-0.52859,1.27659,0.00010472,1.31675,-0.00436332,0.119991,0.0861844,0.13844,0,-0.0468097,0,4.649,3.963,-0.407,-0.286,0.302,0.009,6.629,28.805,0.308,-2.016,-0.800312,-0.102857
23:26:52:900708,0.0418006,-0.528119,1.27732,0.00010472,1.31647,-0.00436332,0.120026,0.0891514,0.144007,0,-0.0529882,0,4.721,3.98,-0.6,-0.286,0.31,0.011,6.034,28.63,0.287,-1.421,-0.717181,0.040861
23:26:52:905889,0.0424115,-0.527683,1.27812,0.00010472,1.3161,-0.00436332,0.120916,0.0886627,0.149784,0,-0.0657989,0,4.763,3.894,-0.894,-0.278,0.315,0.014,7.119,30.205,-0.014,-1.694,-0.625596,-0.081722
23:26:52:910823,0.0430573,-0.527229,1.27887,0.00010472,1.31565,-0.00436332,0.126693,0.0897099,0.15022,0,-0.0821003,0,4.76,3.778,-0.924,-0.27,0.314,0.014,6.083,30.254,1.68,-2.002,-0.164853,-0.102857
23:26:52:916013,0.0437205,-0.52674,1.27964,0.00010472,1.31521,-0.00436332,0.127671,0.0924501,0.151076,0,-0.0817163,0,4.741,3.668,-0.716,-0.263,0.311,0.013,5.803,30.884,0.231,-1.736,-0.114129,-0.081722
23:26:52:921013,0.0443314,-0.526252,1.28043,0.00010472,1.31495,-0.00434587,0.123988,0.095487,0.154095,0,-0.0624828,0,4.738,3.728,-0.573,-0.266,0.31,0.011,6.559,29.533,0.308,-1.589,-0.302935,-0.266301
23:26:52:926137,0.0449422,-0.525763,1.28125,0.00010472,1.31479,-0.00434587,0.120445,0.0966912,0.160378,0,-0.0446455,0,4.743,4.006,-0.628,-0.28,0.311,0.012,6.986,29.855,0.602,-1.988,-0.594598,-0.019726
23:26:52:931146,0.0455356,-0.525274,1.28214,0.00010472,1.31455,-0.00434587,0.119799,0.0975115,0.166661,0,-0.0464258,0,4.684,4.294,-0.964,-0.295,0.307,0.014,6.531,30.184,0.854,-1.596,-0.725635,0
23:26:52:936277,0.0461814,-0.524733,1.28297,0.00010472,1.31425,-0.00434587,0.1224,0.103201,0.16708,0,-0.0555538,0,4.582,4.391,-1.158,-0.299,0.298,0.016,6.636,29.162,0.28,-2.38,-0.680547,-0.040861
23:26:52:941246,0.0468272,-0.524175,1.28383,0.00010472,1.3139,-0.00434587,0.128125,0.107879,0.168983,0,-0.0636696,0,4.379,4.406,-1.16,-0.299,0.28,0.015,6.3,29.624,-0.756,-1.533,-0.569236,0.104266
23:26:52:946371,0.0475079,-0.523634,1.28474,0.00010472,1.31353,-0.00434587,0.131598,0.106884,0.173311,0,-0.0675617,0,4.267,4.399,-0.957,-0.299,0.27,0.014,5.859,29.988,-0.189,-2.555,-0.663639,-0.060587
23:26:52:951389,0.0481536,-0.523093,1.28564,0.00010472,1.31319,-0.00434587,0.130673,0.107582,0.179507,0,-0.071192,0,4.198,4.45,-0.536,-0.305,0.264,0.011,6.083,30.688,0.042,-2.499,-0.556555,-0.081722
23:26:52:956495,0.0487994,-0.522534,1.28659,8.72665e-05,1.31275,-0.00436332,0.127671,0.108734,0.18216,0,-0.0815243,-0.00221657,4.215,4.525,-0.329,-0.312,0.264,0.01,5.985,30.471,-0.126,-2.03,-0.400156,-0.060587
23:26:52:961494,0.0494277,-0.521958,1.28749,8.72665e-05,1.31223,-0.00434587,0.126885,0.111579,0.181113,0,-0.0927817,0,4.264,4.633,-0.263,-0.32,0.264,0.01,5.446,28.973,-0.728,-2.198,-0.077495,0
23:26:52:966496,0.0500909,-0.521382,1.28842,8.72665e-05,1.31181,-0.00431096,0.126798,0.115227,0.182317,0,-0.0869698,0.00251327,4.247,4.661,-0.327,-0.321,0.262,0.011,5.999,28.826,0.189,-2.436,-0.163444,-0.046497
23:26:52:971619,0.0507367,-0.520736,1.28936,8.72665e-05,1.31156,-0.00431096,0.129608,0.121964,0.184883,0,-0.0616625,0,4.073,4.614,-0.378,-0.316,0.25,0.013,6.377,28.707,-0.056,-2.688,-0.384657,-0.018317
23:26:52:976618,0.0513999,-0.520073,1.2903,8.72665e-05,1.31139,-0.00431096,0.129661,0.126222,0.187413,0,-0.0459894,0,3.885,4.55,-0.343,-0.31,0.237,0.013,6.72,27.167,-0.609,-2.478,-0.565009,-0.016908
23:26:52:981743,0.0520457,-0.519445,1.29125,8.72665e-05,1.31113,-0.00431096,0.126659,0.125454,0.185232,0,-0.0504924,0,3.625,4.506,-0.309,-0.306,0.218,0.013,6.559,27.251,-0.035,-2.009,-0.745361,0.040861
23:26:52:986764,0.052674,-0.518834,1.29221,8.72665e-05,1.31079,-0.00431096,0.125751,0.123238,0.187955,0,-0.0599172,0,3.521,4.552,-0.344,-0.309,0.208,0.013,7.434,27.573,-0.049,-3.108,-0.81722,-0.101448
23:26:52:991886,0.0532849,-0.518223,1.2932,8.72665e-05,1.31039,-0.00429351,0.124791,0.121126,0.191812,0,-0.072117,0,3.44,4.686,-0.36,-0.319,0.197,0.014,8.232,27.356,-0.497,-2.975,-0.66223,-0.077495
23:26:52:996833,0.0539307,-0.51763,1.29416,6.98132e-05,1.30992,-0.00431096,0.127269,0.120672,0.193557,0,-0.0834093,0,3.396,4.739,-0.273,-0.325,0.192,0.014,7.532,27.531,-0.126,-2.254,-0.538238,-0.080313
23:26:53:1867,0.0546288,-0.517001,1.29512,6.98132e-05,1.30942,-0.00431096,0.133343,0.122854,0.190764,0,-0.095103,0,3.351,4.673,-0.109,-0.322,0.186,0.013,7.679,28.266,-0.532,-2.59,-0.184579,-0.246575
23:26:53:7011,0.0553444,-0.516373,1.29612,6.98132e-05,1.30893,-0.00429351,0.136921,0.12315,0.191375,0,-0.0952426,0.0026529,3.371,4.563,-0.093,-0.314,0.186,0.014,6.594,26.852,-1.659,-3.171,-0.108493,0.018317
23:26:53:12012,0.0560251,-0.515762,1.29708,6.98132e-05,1.30856,-0.0042586,0.13631,0.120079,0.193784,0,-0.0806866,0.00357793,3.472,4.425,-0.199,-0.301,0.191,0.015,6.048,27.622,-0.462,-2.618,-0.185988,-0.004227
23:26:53:17119,0.0567057,-0.515151,1.29807,6.98132e-05,1.30833,-0.00424115,0.135542,0.120864,0.194203,0,-0.0592365,0.00486947,3.504,4.404,-0.269,-0.296,0.196,0.016,6.16,28.182,-0.714,-3.066,-0.439608,-0.009863
23:26:53:22144,0.0573864,-0.514558,1.29901,6.98132e-05,1.30812,-0.00424115,0.13446,0.12062,0.189979,0,-0.0476126,0,3.411,4.435,-0.272,-0.298,0.192,0.017,6.671,27.475,-0.707,-2.765,-0.700273,0.023953
23:26:53:27260,0.0580846,-0.513965,1.29996,6.98132e-05,1.30788,-0.00424115,0.136136,0.118211,0.187344,0,-0.049515,0,3.173,4.49,-0.309,-0.302,0.175,0.018,6.426,27.461,-0.847,-3.353,-0.824265,-0.046497
23:26:53:32247,0.0588001,-0.513354,1.30092,6.98132e-05,1.30757,-0.00424115,0.141424,0.119311,0.187448,0,-0.0566534,0,3.075,4.516,-0.362,-0.305,0.165,0.02,6.216,27.895,0.042,-2.695,-0.87358,0.100039
23:26:53:37368,0.0595157,-0.512725,1.30189,5.23599e-05,1.30716,-0.00424115,0.141407,0.121964,0.191096,0,-0.0697085,0,3.144,4.548,-0.409,-0.308,0.161,0.021,6.769,26.831,0.588,-2.702,-0.793267,-0.015499
23:26:53:42367,0.0602139,-0.512132,1.30284,5.23599e-05,1.30668,-0.00424115,0.137462,0.118927,0.190607,0,-0.0886278,0,3.278,4.57,-0.404,-0.308,0.167,0.022,7.469,27.489,-0.168,-3.437,-0.508649,-0.119765
23:26:53:47492,0.0608945,-0.511539,1.30381,5.23599e-05,1.3061,-0.00424115,0.135891,0.11678,0.191201,0,-0.103463,0,3.444,4.61,-0.416,-0.308,0.178,0.023,6.461,28.21,-0.161,-2.912,-0.142309,-0.059178
23:26:53:52508,0.0615752,-0.510963,1.30479,5.23599e-05,1.30563,-0.0042237,0.136223,0.116867,0.19244,0,-0.0958535,0,3.514,4.63,-0.473,-0.308,0.185,0.024,6.825,28.364,-1.008,-3.017,-0.073268,-0.040861
23:26:53:57629,0.0622908,-0.510387,1.30577,5.23599e-05,1.30535,-0.00420624,0.139417,0.114528,0.192562,0,-0.0719774,0.0021293,3.659,4.602,-0.616,-0.307,0.194,0.026,6.552,28.28,-1.225,-3.325,-0.321252,-0.021135
23:26:53:62564,0.0630238,-0.509846,1.30669,3.49066e-05,1.30514,-0.00420624,0.14399,0.110549,0.189089,0,-0.0511905,0,3.805,4.526,-0.718,-0.302,0.201,0.027,6.251,28.7,-0.49,-3.122,-0.514285,0
23:26:53:67622,0.0637569,-0.509252,1.30765,3.49066e-05,1.30491,-0.00420624,0.143326,0.113097,0.187885,0,-0.0472112,0,3.987,4.377,-0.851,-0.291,0.208,0.029,6.692,29.113,-0.833,-3.227,-0.687592,0.184579
23:26:53:72746,0.064455,-0.508659,1.3086,1.74533e-05,1.30465,-0.00420624,0.140691,0.116571,0.188391,0,-0.0522552,0,4.013,4.325,-0.936,-0.285,0.209,0.03,6.818,28.469,-0.105,-3.262,-0.741134,-0.061996
23:26:53:77700,0.0651531,-0.5081,1.30956,1.74533e-05,1.30435,-0.00420624,0.138806,0.115296,0.190852,0,-0.0549604,0,3.956,4.379,-1.078,-0.285,0.206,0.031,6.132,29.064,-0.245,-3.563,-0.939803,0.066223
23:26:53:82891,0.0658862,-0.507507,1.31052,1.74533e-05,1.30401,-0.00420624,0.140394,0.115803,0.186995,0,-0.0640536,0,3.953,4.45,-1.165,-0.289,0.204,0.032,6.958,29.407,0.315,-3.542,-0.927122,0.102857
23:26:53:87808,0.0666018,-0.506896,1.31146,1.74533e-05,1.30355,-0.00420624,0.144426,0.117164,0.189578,0,-0.0808262,0,4.134,4.465,-1.214,-0.29,0.208,0.033,6.776,29.61,-0.42,-3.15,-0.724226,0.091585
23:26:53:92865,0.0673348,-0.50632,1.31244,1.74533e-05,1.30296,-0.00420624,0.144199,0.116291,0.191742,0,-0.104737,0,4.383,4.394,-1.191,-0.286,0.219,0.034,6.517,29.19,0.511,-3.472,-0.250802,0.002818
23:26:53:97935,0.0680504,-0.505727,1.31343,0,1.30242,-0.00420624,0.142559,0.117688,0.194761,0,-0.104441,0,4.834,4.253,-1.203,-0.275,0.246,0.036,6.804,29.631,-0.028,-3.787,-0.195851,-0.115538
23:26:53:102990,0.068766,-0.505081,1.31439,0,1.3021,-0.00418879,0.14097,0.122138,0.191882,0,-0.0750841,0,5.081,4.179,-1.323,-0.268,0.266,0.038,6.265,28.469,1.799,-3.913,-0.29589,0.021135
23:26:53:108139,0.0694816,-0.504435,1.31535,0,1.30191,-0.00420624,0.141686,0.126048,0.189752,0,-0.0536689,0,5.214,4.096,-1.628,-0.258,0.283,0.042,6.818,27.104,-0.819,-3.745,-0.560782,0.109902
23:26:53:113076,0.070232,-0.503789,1.31631,0,1.30167,-0.00420624,0.145124,0.127077,0.190485,0,-0.0505447,0,5.084,4.018,-1.805,-0.251,0.28,0.044,6.846,28.273,0.665,-4.431,-0.700273,-0.002818
23:26:53:118244,0.0709825,-0.503161,1.31732,0,1.30135,-0.00420624,0.146084,0.126554,0.193697,0,-0.0585034,0,4.964,3.972,-1.735,-0.249,0.272,0.043,6.552,27.167,0.84,-3.892,-0.832719,0.043679
23:26:53:123215,0.0716981,-0.502533,1.31828,0,1.30102,-0.00420624,0.144635,0.124425,0.192911,0,-0.0627097,0,4.876,3.916,-1.422,-0.248,0.262,0.041,6.671,28.028,0.308,-3.794,-0.936985,0.100039
23:26:53:128364,0.0723963,-0.501887,1.31926,-1.74533e-05,1.30065,-0.00420624,0.140866,0.125594,0.195459,0,-0.0697085,0,4.874,3.895,-1.209,-0.249,0.26,0.04,7.021,27.23,0.56,-3.381,-0.846809,-0.029589
23:26:53:133359,0.0730944,-0.501206,1.32029,-1.74533e-05,1.30013,-0.00420624,0.13816,0.132069,0.198077,0,-0.0914902,0,4.896,3.933,-1.051,-0.251,0.261,0.04,6.706,26.873,0.91,-4.424,-0.511467,-0.061996
23:26:53:138377,0.07381,-0.500526,1.32132,-1.74533e-05,1.2995,-0.00424115,0.139993,0.134094,0.203278,0,-0.112661,-0.00296706,4.938,4.009,-1.042,-0.254,0.264,0.04,7.987,26.292,0.77,-3.276,-0.219804,-0.064814
23:26:53:143492,0.074543,-0.499862,1.32235,-3.49066e-05,1.29903,-0.00424115,0.144286,0.133273,0.204029,0,-0.0986635,-0.00260054,5.071,4.075,-1.055,-0.256,0.277,0.041,6.797,27.048,0.301,-4.095,-0.15499,-0.1409
23:26:53:148485,0.0752586,-0.499199,1.3234,-3.49066e-05,1.2988,-0.0042237,0.14303,0.130812,0.205827,0,-0.0646121,0,5.162,3.995,-1.07,-0.252,0.288,0.041,6.678,26.537,-0.819,-3.997,-0.460743,-0.030998
23:26:53:153610,0.0759742,-0.498536,1.32446,-3.49066e-05,1.29861,-0.00420624,0.1409,0.129381,0.207659,0,-0.0507716,0,5.179,3.729,-1.224,-0.235,0.296,0.042,7.182,26.859,-0.357,-4.291,-0.60587,0.01409
23:26:53:158735,0.0766549,-0.49789,1.32549,-5.23599e-05,1.2983,-0.00420624,0.139138,0.13097,0.20649,-0.0023911,-0.0575959,0,5.121,3.597,-1.444,-0.225,0.292,0.044,7.518,26.383,0.203,-3.626,-0.852445,-0.059178
23:26:53:163680,0.0773704,-0.497209,1.32654,-6.98132e-05,1.29791,-0.00420624,0.138265,0.132854,0.205478,-0.00191986,-0.0686787,0,5.074,3.637,-1.754,-0.225,0.282,0.045,7.469,27.167,0.252,-4.396,-0.804539,-0.107084
