srisadhan/powerball/bin/HRI_project/2021/admittance/Non-stiff env/admittance_lf.csv
TimeStamp , Q1, Q2, Q3, Q4, Q5, Q6, dQ1, dQ2, dQ3, dQ4, dQ5, dQ6, Fx, Fy, Fz, Mx, My, Mz, Joint1_torque, Joint2_torque, Joint3_torque, Joint4_torque, Joint5_torque, Joint6_torque 
23:21:57:150379,8.72665e-05,-0.582067,1.18656,0,1.3519,-6.98132e-05,0,0,0,0,0,0,0,0,0,0,0,0,-5.432,31.878,-12.957,-4.312,0.097221,0.029589
23:21:57:155360,8.72665e-05,-0.582067,1.18656,0,1.3519,-6.98132e-05,0,0,0,0,0,0,0,0,0,0,0,0,-5.334,32.697,-12.558,-4.109,0.11272,0.066223
23:21:57:160326,8.72665e-05,-0.582067,1.18654,0,1.3519,-6.98132e-05,0,0,0,0,0,0,0,0,0,0,0,0,-5.327,32.27,-12.544,-4.004,0.107084,-0.05636
23:21:57:165487,8.72665e-05,-0.582067,1.18654,0,1.3519,-6.98132e-05,0,0,0,0,0,0,0,0,0,0,0,0,-5.537,31.423,-12.712,-4.34,0.122583,0.023953
23:21:57:170484,8.72665e-05,-0.582067,1.18654,0,1.3519,-6.98132e-05,0,0,0,0,0,0,0,0,0,0,0,0,-5.124,31.948,-12.775,-4.088,0.174716,-0.033816
23:21:57:175627,8.72665e-05,-0.582067,1.18654,0,1.3519,-6.98132e-05,0,0,0,0,0,0,0,0,0,0,0,0,-5.327,31.941,-12.754,-3.479,0.176125,0.135264
23:21:57:180609,8.72665e-05,-0.58205,1.18654,0,1.3519,-6.98132e-05,0,0,0,0,0,0,0,0,0,0,0,0,-5.124,32.34,-12.243,-3.906,0.215577,0.052133
23:21:57:185608,8.72665e-05,-0.58205,1.18654,0,1.3519,-6.98132e-05,0,0,0,0,0,0,0,0,0,0,0,0,-5.635,31.682,-13.097,-4.207,0.166262,0.078904
23:21:57:190709,8.72665e-05,-0.58205,1.18654,0,1.3519,-6.98132e-05,0,0,0,0,0,0,0,0,0,0,0,0,-5.32,31.85,-12.663,-3.073,0.181761,-0.009863
23:21:57:195752,6.98132e-05,-0.58205,1.18653,0,1.3519,-6.98132e-05,0,0,0,0,0,0,0,0,0,0,0,0,-5.537,31.871,-13.02,-3.668,0.19726,0.064814
23:21:57:200858,6.98132e-05,-0.58205,1.18653,0,1.3519,-6.98132e-05,0,0,0,0,0,0,0,0,0,0,0,0,-5.74,31.85,-13.335,-3.605,0.092994,0.023953
23:21:57:205862,6.98132e-05,-0.58205,1.18653,0,1.3519,-6.98132e-05,0,0,0,0,0,0,0,0,0,0,0,0,-5.229,32.319,-12.712,-4.228,0.131037,-0.002818
23:21:57:211019,6.98132e-05,-0.58205,1.18653,0,1.3519,-6.98132e-05,0,0,0,0,0,0,0,0,0,0,0,0,-5.74,31.969,-12.838,-3.591,0.191624,-0.026771
23:21:57:216016,6.98132e-05,-0.58205,1.18653,0,1.3519,-6.98132e-05,0,0,0,0,0,0,0,0,0,0,0,0,-5.537,31.99,-12.754,-3.472,0.092994,0.030998
23:21:57:221124,6.98132e-05,-0.58205,1.18653,0,1.3519,-6.98132e-05,0,0,0,0,0,0,0,0,0,0,0,0,-5.124,32.228,-12.313,-4.207,0.143718,0.005636
23:21:57:226126,6.98132e-05,-0.58205,1.18653,0,1.3519,-6.98132e-05,0,0,0,0,0,0,0,0,0,0,0,0,-5.537,31.591,-13.139,-3.892,0.163444,0.081722
23:21:57:231235,6.98132e-05,-0.58205,1.18653,0,1.3519,-6.98132e-05,0,0,0,0,0,0,0,0,0,0,0,0,-5.432,31.892,-12.397,-3.689,0.128219,0.08454
23:21:57:236245,6.98132e-05,-0.58205,1.18653,0,1.3519,-6.98132e-05,0,0,0,0,0,0,0,0,0,0,0,0,-5.838,31.878,-13.209,-3.577,0.177534,0.043679
23:21:57:241176,6.98132e-05,-0.58205,1.18653,0,1.3519,-6.98132e-05,0,0,0,0,0,0,0,0,0,0,0,0,-5.537,32.291,-12.635,-3.374,0.122583,0.008454
23:21:57:246375,6.98132e-05,-0.58205,1.18653,0,1.3519,-6.98132e-05,0,0,0,0,0,0,0,0,0,0,0,0,-5.124,32.445,-12.628,-3.36,0.145127,-0.05636
23:21:57:251374,6.98132e-05,-0.58205,1.18653,0,1.3519,-6.98132e-05,0,0,0,0,0,0,0,0,0,0,0,0,-5.537,32.018,-12.474,-4.116,0.132446,0.107084
23:21:57:256488,6.98132e-05,-0.58205,1.18653,0,1.3519,-6.98132e-05,0,0,0,0,0,0,0,0,0,0,0,0,-5.635,30.548,-12.901,-3.5,0.146536,-0.009863
23:21:57:261479,6.98132e-05,-0.58205,1.18653,0,1.35191,-6.98132e-05,0,0,0,0,0,0,0,0,0,0,0,0,-5.019,31.612,-12.943,-3.892,0.198669,-0.015499
23:21:57:266624,6.98132e-05,-0.58205,1.18653,0,1.35191,-6.98132e-05,0,0,0,0,0,0,0,0,0,0,0,0,-5.74,32.06,-12.474,-4.207,0.138082,0.033816
23:21:57:271605,6.98132e-05,-0.58205,1.18653,0,1.35191,-6.98132e-05,0,0,0,0,0,0,0,0,0,0,0,0,-5.229,32.207,-12.824,-3.584,0.081722,0.094403
23:21:57:276730,6.98132e-05,-0.58205,1.18653,0,1.35191,-6.98132e-05,0,0,0,0,0,0,0,0,0,0,0,0,-5.327,32.725,-12.789,-3.787,0.16908,0.026771
23:21:57:281747,6.98132e-05,-0.58205,1.18653,0,1.35191,-6.98132e-05,0,0,0,0,0,0,0,0,0,0,0,0,-5.537,32.151,-12.474,-3.577,0.122583,0.023953
23:21:57:286873,6.98132e-05,-0.58205,1.18653,0,1.35191,-6.98132e-05,0,0,0,0,0,0,0,0,0,0,0,0,-5.838,31.892,-12.593,-4.018,0.160626,0.011272
23:21:57:291875,6.98132e-05,-0.58205,1.18653,0,1.35191,-6.98132e-05,0,0,0,0,0,0,0,0,0,0,0,0,-5.74,32.368,-12.628,-4.2,0.195851,-0.001409
23:21:57:296803,6.98132e-05,-0.58205,1.18653,0,1.35191,-6.98132e-05,0,0,0,0,0,0,0,0,0,0,0,0,-5.327,31.402,-12.285,-3.997,0.094403,0.030998
23:21:57:301926,6.98132e-05,-0.58205,1.18653,0,1.35191,-6.98132e-05,0,0,0,0,0,0,0,0,0,0,0,0,-5.74,31.689,-12.285,-4.018,0.143718,0
23:21:57:307106,6.98132e-05,-0.58205,1.18653,0,1.35191,-6.98132e-05,0,0,0,0,0,0,0,0,0,0,0,0,-5.635,31.633,-13.132,-3.787,0.195851,0.050724
23:21:57:312105,6.98132e-05,-0.58205,1.18653,0,1.35191,-6.98132e-05,0,0,0,0,0,0,0,0,0,0,0,0,-5.635,31.535,-13.293,-4.116,0.108493,0.150763
23:21:57:317248,6.98132e-05,-0.582032,1.18653,0,1.35191,-6.98132e-05,0,0,0,0,0,0,0,0,0,0,0,0,-5.432,31.703,-13.37,-3.78,0.111311,0.023953
23:21:57:322194,6.98132e-05,-0.582032,1.18653,0,1.35191,-6.98132e-05,0,0,0,0,0,0,0,0,0,0,0,0,-4.921,31.507,-12.474,-3.885,0.102857,-0.097221
23:21:57:327353,6.98132e-05,-0.582032,1.18653,0,1.35191,-6.98132e-05,0,0,0,0,0,0,0,0,0,0,0,0,-4.711,31.598,-12.943,-3.486,0.076086,0.125401
23:21:57:332320,6.98132e-05,-0.582032,1.18653,0,1.35191,-6.98132e-05,0,0,0,0,0,0,0,0,0,0,0,0,-5.537,31.927,-12.789,-3.598,0.149354,-0.040861
23:21:57:337496,6.98132e-05,-0.582032,1.18651,0,1.35191,-6.98132e-05,0,0,0,0,0,0,0,0,0,0,0,0,-5.635,31.598,-12.901,-3.563,0.160626,0.132446
23:21:57:342445,6.98132e-05,-0.582032,1.18651,0,1.35191,-6.98132e-05,0,0,0,0,0,0,0,0,0,0,0,0,-5.635,31.892,-12.824,-3.787,0.007045,0.009863
23:21:57:347604,6.98132e-05,-0.582032,1.18651,0,1.35191,-6.98132e-05,0,0,0,0,0,0,0,0,0,0,0,0,-4.921,31.885,-12.131,-3.703,0.111311,0.023953
23:21:57:352601,6.98132e-05,-0.582032,1.18651,0,1.35191,-6.98132e-05,0,0,0,0,0,0,0,0,0,0,0,0,-5.019,32.543,-12.67,-4.305,0.076086,-0.063405
23:21:57:357561,6.98132e-05,-0.582032,1.18651,0,1.35191,-6.98132e-05,0,0,0,0,0,0,0,0,0,0,0,0,-6.146,30.835,-13.055,-4.004,0.297299,-0.015499
23:21:57:362745,6.98132e-05,-0.582032,1.18651,0,1.35191,-6.98132e-05,0,0,0,0,0,0,0,0,0,0,0,0,-4.921,32.207,-12.866,-3.563,0.032407,0.078904
23:21:57:367688,6.98132e-05,-0.582032,1.18651,0,1.35191,-6.98132e-05,0,0,0,0,0,0,0,0,0,0,0,0,-5.327,31.927,-12.208,-4.536,0.090176,0.002818
23:21:57:372865,6.98132e-05,-0.582032,1.18651,0,1.35191,-6.98132e-05,0,0,0,0,0,0,0,0,0,0,0,0,-5.229,32.067,-12.789,-3.598,0.076086,0.023953
23:21:57:377867,6.98132e-05,-0.582032,1.18651,0,1.35191,-6.98132e-05,0,0,0,0,0,0,0,0,0,0,0,0,-5.432,32.452,-12.362,-4.123,0.177534,0
23:21:57:382993,6.98132e-05,-0.582032,1.18651,0,1.35191,-6.98132e-05,0,0,0,0,0,0,0,0,0,0,0,0,-5.635,31.619,-13.02,-3.717,0.021135,-0.036634
23:21:57:387992,6.98132e-05,-0.582032,1.18651,0,1.35191,-6.98132e-05,0,0,0,0,0,0,0,0,0,0,0,0,-5.432,32.354,-13.139,-4.13,0.195851,0.097221
23:21:57:393105,6.98132e-05,-0.582032,1.18651,0,1.35191,-6.98132e-05,0,0,0,0,0,0,0,0,0,0,0,0,-5.229,31.815,-12.747,-4.018,0.184579,0.033816
23:21:57:398064,6.98132e-05,-0.582032,1.18651,0,1.35191,-6.98132e-05,0,0,0,0,0,0,0.009,-0.006,0.085,0,0,-0.001,-5.327,31.213,-12.397,-4.417,0.16908,0.059178
23:21:57:403239,6.98132e-05,-0.582032,1.18651,0,1.35191,-6.98132e-05,0,0,0,0,0,0,-0.006,0.004,0.142,0,0,-0.001,-5.635,31.829,-13.601,-3.787,0.226849,0.040861
23:21:57:408191,6.98132e-05,-0.582032,1.18651,0,1.35191,-6.98132e-05,0,0,0,0,0,0,-0.015,0.016,0.07,0,0,0,-5.635,31.654,-12.173,-3.878,0.209941,0.100039
23:21:57:413243,6.98132e-05,-0.582032,1.18651,0,1.35191,-6.98132e-05,0,0,0,0,0,0,-0.014,0.05,-0.138,0,0,0,-5.537,31.15,-12.978,-3.612,0.166262,0.090176
23:21:57:418367,6.98132e-05,-0.582032,1.18651,-1.74533e-05,1.35191,-6.98132e-05,0,0,0,0,0,0,-0.001,0.07,-0.265,0,0,0.001,-5.327,31.913,-12.404,-3.696,0.015499,0.026771
23:21:57:423364,6.98132e-05,-0.582032,1.18651,-1.74533e-05,1.35191,-6.98132e-05,0,0,0,0,0,0,0.023,0.067,-0.306,0,0,0.001,-5.124,31.416,-12.943,-4.102,0.157808,0.023953
23:21:57:428437,6.98132e-05,-0.582032,1.18651,-1.74533e-05,1.35191,-6.98132e-05,0,0,0,0,0,0,0.032,0.041,-0.226,0,0,0.001,-4.711,31.451,-13.139,-3.577,0.050724,0.05636
23:21:57:433474,6.98132e-05,-0.582032,1.18651,-1.74533e-05,1.35191,-6.98132e-05,0,0,0,0,0,0,0.022,-0.003,-0.053,0,0,0,-5.432,32.046,-12.901,-4.522,0.064814,0.002818
23:21:57:438418,6.98132e-05,-0.582032,1.18651,-1.74533e-05,1.35191,-6.98132e-05,0,0,0,0,0,0,0.008,-0.017,0.019,0,0,0,-5.943,31.801,-12.32,-4.102,0.128219,0.018317
23:21:57:443565,6.98132e-05,-0.582032,1.18651,-1.74533e-05,1.35191,-6.98132e-05,0,0,0,0,0,0,-0.001,-0.005,0.012,0,0,0,-5.124,31.591,-13.02,-3.92,0.073268,0.008454
23:21:57:448740,6.98132e-05,-0.582032,1.18651,-1.74533e-05,1.35191,-6.98132e-05,0,0,0,0,0,0,0.008,0.011,-0.054,0,0,0,-5.229,32.151,-12.509,-3.402,0.181761,0.097221
23:21:57:453723,6.98132e-05,-0.582032,1.18651,-1.74533e-05,1.35191,-6.98132e-05,0,0,0,0,0,0,0.044,0.023,-0.175,0,0,0.001,-5.635,32.074,-13.02,-4.536,0.122583,-0.030998
23:21:57:458725,6.98132e-05,-0.582032,1.18651,-1.74533e-05,1.35191,-6.98132e-05,0,0,0,0,0,0,0.067,0.016,-0.221,0,0,0.001,-5.432,31.913,-12.705,-3.381,0.05636,0.009863
23:21:57:463845,6.98132e-05,-0.582032,1.18651,-1.74533e-05,1.35191,-6.98132e-05,0,0,0,0,0,0,0.078,-0.002,-0.199,0,0,0.001,-5.229,32.27,-13.132,-3.892,0.187397,-0.050724
23:21:57:468847,6.98132e-05,-0.582032,1.18651,-1.74533e-05,1.35191,-6.98132e-05,0,0,0,0,0,0,0.066,-0.008,-0.143,0,0,0.001,-5.635,32.088,-12.908,-3.983,0.07045,-0.005636
23:21:57:473975,6.98132e-05,-0.582032,1.18651,-1.74533e-05,1.35191,-6.98132e-05,0,0,0,0,0,0,0.031,-0.002,-0.06,0,0,0,-5.327,31.64,-12.257,-3.906,0.1409,0.040861
23:21:57:478972,6.98132e-05,-0.582032,1.18651,-1.74533e-05,1.35191,-6.98132e-05,0,0,0,0,0,0,0.003,0.01,0.003,0,0,0,-5.222,31.745,-12.817,-3.899,0.100039,0.026771
23:21:57:484050,6.98132e-05,-0.582032,1.18651,-1.74533e-05,1.35191,-6.98132e-05,0,0,0,0,0,0,-0.002,0.019,0.043,0,0,0,-5.229,31.717,-12.488,-3.374,0.125401,0.057769
23:21:57:489099,6.98132e-05,-0.582032,1.18651,-1.74533e-05,1.35191,-6.98132e-05,0,0,0,0,0,0,0.005,0.026,0.063,0,0,0,-5.439,31.759,-12.663,-3.682,0.135264,0.039452
23:21:57:494043,6.98132e-05,-0.582032,1.18651,-1.74533e-05,1.35191,-6.98132e-05,0,0,0,0,0,0,0.01,0.022,0.013,0,0,0,-6.16,31.689,-12.908,-4.095,0.091585,0
23:21:57:499246,6.98132e-05,-0.582032,1.18651,-1.74533e-05,1.35191,-6.98132e-05,0,0,0,0,0,0,-0.002,0.003,-0.14,0,0,0.001,-5.327,31.626,-12.712,-3.801,0.166262,0.033816
23:21:57:504362,6.98132e-05,-0.582032,1.18651,-1.74533e-05,1.35191,-6.98132e-05,0,0,0,0,0,0,-0.022,-0.01,-0.227,0,0,0.002,-5.334,31.605,-12.446,-3.801,0.143718,-0.030998
23:21:57:509345,6.98132e-05,-0.582032,1.18651,-1.74533e-05,1.35191,-6.98132e-05,0,0,0,0,0,0,-0.043,-0.011,-0.236,0,0,0.002,-5.845,32.179,-12.978,-4.417,0.102857,0.061996
23:21:57:514472,6.98132e-05,-0.582032,1.18651,-1.74533e-05,1.35191,-6.98132e-05,0,0,0,0,0,0,-0.038,0.006,-0.172,0,0,0.001,-5.439,31.598,-12.215,-3.808,0.064814,0.043679
23:21:57:519489,6.98132e-05,-0.582032,1.18651,-1.74533e-05,1.35191,-6.98132e-05,0,0,0,0,0,0,-0.01,0.039,-0.076,0,0,0,-4.809,32.13,-13.44,-4.522,-0.007045,0.040861
23:21:57:524473,6.98132e-05,-0.582032,1.18651,-1.74533e-05,1.35191,-6.98132e-05,0,0,0,0,0,0,0.008,0.05,-0.066,0,0,0,-5.124,32.137,-12.173,-3.794,0.059178,0.029589
23:21:57:529539,6.98132e-05,-0.582032,1.18651,-1.74533e-05,1.35191,-6.98132e-05,0,0,0,0,0,0,0.029,0.048,-0.123,0,0,0.001,-4.508,32.025,-12.782,-3.829,0.247984,-0.050724
23:21:57:534630,6.98132e-05,-0.582032,1.18651,-1.74533e-05,1.35191,-6.98132e-05,0,0,0,0,0,0,0.038,0.044,-0.14,0,0,0.001,-5.439,32.046,-12.901,-3.591,0.081722,0.073268
23:21:57:539735,6.98132e-05,-0.582032,1.18651,-1.74533e-05,1.35191,-6.98132e-05,0,0,0,0,0,0,0.041,0.037,-0.037,0,0,0,-5.026,31.983,-12.859,-4.242,0.131037,0.059178
23:21:57:544733,6.98132e-05,-0.582032,1.18651,-1.74533e-05,1.35191,-6.98132e-05,0,0,0,0,0,0,0.03,0.025,0.073,0,0,0,-5.222,31.15,-12.397,-3.899,0.23953,-0.007045
23:21:57:549680,6.98132e-05,-0.582015,1.18651,-1.74533e-05,1.35191,-6.98132e-05,0,0,0,0,0,0,0.008,0.004,0.1,0,0,-0.001,-5.432,31.71,-12.936,-3.892,0.177534,-0.032407
23:21:57:554848,6.98132e-05,-0.582015,1.18651,-1.74533e-05,1.35191,-6.98132e-05,0,0,0,0,0,0,0.005,0,-0.024,0,0,0,-5.537,31.976,-13.013,-4.004,0.128219,0.035225
23:21:57:559975,6.98132e-05,-0.582015,1.18651,-1.74533e-05,1.35191,-6.98132e-05,0,0,0,0,0,0,0.024,0.016,-0.237,0,0,0.001,-5.131,31.255,-12.558,-4.102,0.119765,0.035225
23:21:57:564990,6.98132e-05,-0.582015,1.18651,-1.74533e-05,1.35191,-6.98132e-05,0,0,0,0,0,0,0.041,0.026,-0.215,0,0,0.002,-5.222,31.899,-12.103,-4.522,0.105675,0.029589
23:21:57:569933,6.98132e-05,-0.582015,1.18651,-1.74533e-05,1.35191,-6.98132e-05,0,0,0,0,0,0,0.044,0.019,-0.083,0,0,0.001,-5.943,31.598,-12.684,-3.801,0.015499,0.1409
23:21:57:575109,6.98132e-05,-0.582015,1.18651,-1.74533e-05,1.35191,-6.98132e-05,0,0,0,0,0,0,0.041,-0.007,0.096,0,0,0,-5.53,32.942,-12.446,-3.486,0.018317,0.038043
23:21:57:580054,6.98132e-05,-0.582015,1.18651,-1.74533e-05,1.35191,-6.98132e-05,0,0,0,0,0,0,0.031,-0.026,0.142,0,0,0,-5.635,30.968,-12.866,-4.214,0.171898,0.021135
23:21:57:585218,6.98132e-05,-0.582015,1.18651,-1.74533e-05,1.35191,-6.98132e-05,0,0,0,0,0,0,-0.02,-0.044,0.126,0,0,-0.001,-5.852,31.948,-12.208,-4.102,0.125401,0.035225
23:21:57:590166,6.98132e-05,-0.582015,1.18651,-1.74533e-05,1.35191,-6.98132e-05,0,0,0,0,0,0,-0.076,-0.044,0.093,0,0,-0.002,-6.048,30.905,-12.635,-4.102,0.111311,-0.012681
23:21:57:595345,6.98132e-05,-0.582015,1.18651,-1.74533e-05,1.35191,-6.98132e-05,0,0,0,0,0,0,-0.142,-0.029,0.04,0,0,-0.002,-5.432,32.179,-12.404,-3.808,0.05636,-0.029589
23:21:57:600356,6.98132e-05,-0.582015,1.18651,-1.74533e-05,1.35191,-6.98132e-05,0,0,0,0,0,0,-0.141,-0.015,0.011,0,0,-0.001,-5.222,31.752,-12.978,-3.689,0.15499,0.067632
23:21:57:605464,6.98132e-05,-0.582015,1.18651,-1.74533e-05,1.35191,-6.98132e-05,0,0,0,0,0,0,-0.08,-0.009,-0.004,0,0,0,-5.95,31.542,-13.594,-3.913,0.100039,-0.05636
23:21:57:610413,6.98132e-05,-0.582015,1.18651,-1.74533e-05,1.35191,-6.98132e-05,0,0,0,0,0,0,-0.031,-0.02,0.028,0,0,0,-5.537,31.857,-12.32,-4.221,0.025362,0.08454
23:21:57:615432,6.98132e-05,-0.582015,1.18651,-1.74533e-05,1.35191,-6.98132e-05,0,0,0,0,0,0,0.011,-0.05,0.17,0,0,-0.001,-5.019,31.43,-11.683,-3.472,0.073268,0.061996
23:21:57:620592,6.98132e-05,-0.582015,1.18651,-1.74533e-05,1.35191,-6.98132e-05,0,0,0,0,0,0,0.016,-0.061,0.279,0,0,-0.002,-5.222,31.353,-12.677,-3.899,-0.074677,-0.015499
23:21:57:625537,6.98132e-05,-0.582015,1.18651,-1.74533e-05,1.35191,-6.98132e-05,0,0,0,0,0,0,0.006,-0.041,0.28,0,0,-0.002,-5.74,31.514,-12.243,-3.892,0.081722,0.026771
23:21:57:630730,6.98132e-05,-0.582015,1.18651,-1.74533e-05,1.35191,-6.98132e-05,0,0,0,0,0,0,-0.003,-0.006,0.124,0,0,-0.001,-5.327,32.046,-12.327,-3.255,0.081722,0.05636
23:21:57:635732,6.98132e-05,-0.582015,1.18651,-1.74533e-05,1.35191,-6.98132e-05,0,0,0,0,0,0,-0.011,0.041,-0.178,0,0,0.001,-5.74,32.095,-13.013,-3.892,0.125401,0.004227
23:21:57:640855,6.98132e-05,-0.582015,1.18651,-1.74533e-05,1.35191,-6.98132e-05,0,0,0,0,0,0,-0.006,0.047,-0.292,0,0,0.002,-5.334,31.864,-12.705,-4.214,0.170489,0
23:21:57:645840,6.98132e-05,-0.582015,1.18651,-1.74533e-05,1.35191,-6.98132e-05,0,0,0,0,0,0,0.004,0.035,-0.251,0,0,0.002,-5.019,31.549,-12.943,-4.102,0.187397,0.043679
23:21:57:650983,6.98132e-05,-0.582015,1.18651,-1.74533e-05,1.35191,-6.98132e-05,0,0,0,0,0,0,0.024,0.021,-0.181,0,0,0.001,-5.012,32.319,-12.327,-4.522,0.08454,0.064814
23:21:57:655966,6.98132e-05,-0.582015,1.18651,-1.74533e-05,1.35191,-6.98132e-05,0,0,0,0,0,0,0.03,0.016,-0.188,0,0,0,-5.327,32.438,-12.901,-4.004,0.133855,0.015499
23:21:57:661106,6.98132e-05,-0.582015,1.18651,-1.74533e-05,1.35191,-6.98132e-05,0,0,0,0,0,0,0.02,0.005,-0.246,0,0,0,-5.019,31.941,-13.055,-3.794,0.100039,-0.026771
23:21:57:666110,6.98132e-05,-0.582015,1.18651,-1.74533e-05,1.35191,-6.98132e-05,0,0,0,0,0,0,0.005,-0.006,-0.278,0,0,0,-5.943,32.277,-12.719,-4.193,0.136673,0.040861
23:21:57:671231,6.98132e-05,-0.582015,1.18651,-1.74533e-05,1.35191,-6.98132e-05,0,0,0,0,0,0,-0.019,-0.019,-0.272,0,0,0.001,-5.432,32.081,-12.166,-3.899,0.173307,0.018317
23:21:57:676215,6.98132e-05,-0.582015,1.18651,-1.74533e-05,1.35191,-6.98132e-05,0,0,0,0,0,0,-0.03,-0.024,-0.219,0,0,0.001,-5.425,31.899,-13.174,-3.388,-0.01409,-0.015499
23:21:57:681342,6.98132e-05,-0.582015,1.18651,-1.74533e-05,1.35191,-6.98132e-05,0,0,0,0,0,0,-0.03,-0.037,-0.084,0,0,0,-5.432,31.626,-12.824,-3.787,0.187397,-0.038043
23:21:57:686288,6.98132e-05,-0.582015,1.18651,-1.74533e-05,1.35191,-6.98132e-05,0,0,0,0,0,0,-0.017,-0.046,-0.003,0,0,0,-4.711,31.857,-12.397,-3.157,0.111311,0.07045
23:21:57:691465,6.98132e-05,-0.582015,1.18651,-1.74533e-05,1.35191,-6.98132e-05,0,0,0,0,0,0,0.012,-0.04,0.028,0,0,0,-5.845,31.745,-12.124,-3.36,0.054951,0.018317
23:21:57:696463,6.98132e-05,-0.582015,1.18651,-1.74533e-05,1.35191,-6.98132e-05,0,0,0,0,0,0,0.03,-0.014,-0.009,0,0,0,-5.74,31.738,-12.551,-3.703,0.136673,-0.018317
23:21:57:701477,6.98132e-05,-0.582015,1.18651,-1.74533e-05,1.35191,-6.98132e-05,0,0,0,0,0,0,0.042,0.035,-0.085,0,0,0,-5.537,32.046,-13.062,-3.689,0.136673,0.040861
23:21:57:706608,6.98132e-05,-0.582015,1.18651,-1.74533e-05,1.35191,-6.98132e-05,0,0,0,0,0,0,0.043,0.056,-0.108,0,0,0,-5.334,31.661,-12.712,-3.374,0.139491,-0.053542
23:21:57:711587,6.98132e-05,-0.582015,1.18651,-1.74533e-05,1.35191,-6.98132e-05,0,0,0,0,0,0,0.038,0.05,-0.084,0,0,0,-5.845,31.045,-12.446,-3.164,0.170489,-0.073268
23:21:57:716715,6.98132e-05,-0.582015,1.18651,-1.74533e-05,1.35191,-6.98132e-05,0,0,0,0,0,0,0.03,0.029,-0.044,0,0,0,-5.747,32.207,-12.859,-3.99,0.176125,0.081722
23:21:57:721713,6.98132e-05,-0.582015,1.18651,-1.74533e-05,1.35191,-6.98132e-05,0,0,0,0,0,0,0.017,0.001,-0.01,0,0,0,-5.74,31.241,-12.712,-4.074,0.045088,0.078904
23:21:57:726668,6.98132e-05,-0.582015,1.18651,-1.74533e-05,1.35191,-6.98132e-05,0,0,0,0,0,0,0.017,-0.001,-0.037,0,0,0,-5.334,31.465,-12.859,-3.794,0.064814,-0.053542
23:21:57:731834,6.98132e-05,-0.582015,1.18651,-1.74533e-05,1.35191,-6.98132e-05,0,0,0,0,0,0,0.035,0.024,-0.128,0,0,0,-5.628,31.276,-12.943,-3.92,0.277573,0.047906
23:21:57:736965,6.98132e-05,-0.582015,1.18651,-1.74533e-05,1.35191,-6.98132e-05,0,0,0,0,0,0,0.042,0.056,-0.163,0,0,0,-5.432,31.43,-12.817,-4.41,0.04227,0.038043
23:21:57:741966,6.98132e-05,-0.582015,1.18651,-1.74533e-05,1.35191,-6.98132e-05,0,0,0,0,0,0,0.026,0.059,-0.116,0,0,0,-5.635,30.149,-12.628,-3.598,0.054951,0.026771
23:21:57:747092,6.98132e-05,-0.582015,1.18651,-1.74533e-05,1.35191,-6.98132e-05,0,0,0,0,0,0,-0.008,0.036,-0.017,0,0,0,-5.327,32.011,-12.733,-3.983,0.057769,-0.018317
23:21:57:752088,6.98132e-05,-0.582015,1.18651,-1.74533e-05,1.35191,-6.98132e-05,0,0,0,0,0,0,-0.02,0.024,-0.002,0,0,0,-5.019,31.738,-12.943,-4.109,0.032407,-0.032407
23:21:57:757089,6.98132e-05,-0.582015,1.18651,-1.74533e-05,1.35191,-6.98132e-05,0,0,0,0,0,0,-0.005,0.029,-0.085,0,0,0,-5.53,31.115,-13.349,-4.004,0.076086,-0.032407
23:21:57:762212,6.98132e-05,-0.582015,1.18651,-1.74533e-05,1.35191,-6.98132e-05,0,0,0,0,0,0,0.016,0.038,-0.164,0,0,0,-5.432,31.157,-12.88,-3.57,0.180352,0.16908
23:21:57:767212,6.98132e-05,-0.582015,1.18651,-1.74533e-05,1.35191,-6.98132e-05,0,0,0,0,0,0,0.043,0.039,-0.237,0,0,0.001,-6.055,31.08,-13.104,-4.102,0.122583,-0.102857
23:21:57:772341,6.98132e-05,-0.582015,1.18651,-1.74533e-05,1.35191,-6.98132e-05,0,0,0,0,0,0,0.049,0.031,-0.25,0,0,0.001,-5.117,31.465,-12.789,-3.899,0.088767,-0.038043
23:21:57:777476,6.98132e-05,-0.582015,1.18651,-1.74533e-05,1.35191,-6.98132e-05,0,0,0,0,0,0,0.041,0.022,-0.22,0,0,0,-5.222,32.354,-12.166,-3.682,0.146536,0.138082
23:21:57:782461,6.98132e-05,-0.582015,1.18651,-1.74533e-05,1.35191,-6.98132e-05,0,0,0,0,0,0,0.025,0.017,-0.148,0,0,0,-5.74,32.088,-11.788,-3.787,0.111311,0.059178
23:21:57:787476,6.98132e-05,-0.582015,1.18651,-1.74533e-05,1.35191,-6.98132e-05,0,0,0,0,0,0,-0.01,0.006,0.005,0,0,0,-5.229,31.619,-12.18,-3.878,0.21135,0.038043
23:21:57:792599,6.98132e-05,-0.582015,1.18651,-1.74533e-05,1.35191,-6.98132e-05,0,0,0,0,0,0,-0.028,0,0.054,0,0,0,-5.432,31.857,-12.859,-3.878,0.18317,0.078904
23:21:57:797586,6.98132e-05,-0.582015,1.18651,-1.74533e-05,1.35191,-6.98132e-05,0,0,0,0,0,0,-0.027,-0.001,-0.066,0,0,0,-5.642,32.319,-12.572,-3.696,0.059178,-0.059178
23:21:57:802658,6.98132e-05,-0.582015,1.18651,-1.74533e-05,1.35191,-6.98132e-05,0,0,0,0,0,0,-0.007,0.004,-0.228,0,0,0.001,-5.334,31.815,-13.055,-3.997,0.052133,0
23:21:57:807709,6.98132e-05,-0.582015,1.18651,-1.74533e-05,1.35191,-6.98132e-05,0,0,0,0,0,0,0.019,0.016,-0.387,0,0,0.002,-5.747,31.388,-13.209,-3.465,0.085949,0.15499
23:21:57:812862,6.98132e-05,-0.582015,1.18651,-1.74533e-05,1.35191,-6.98132e-05,0,0,0,0,0,0,0.015,0.021,-0.323,0,0,0.002,-5.327,32.277,-12.481,-4.109,0.122583,0.05636
23:21:57:817800,6.98132e-05,-0.581998,1.18651,-1.74533e-05,1.35191,-6.98132e-05,0,0,0,0,0,0,0,0.018,-0.201,0,0,0.002,-4.921,31.976,-12.74,-4.333,0.049315,0.097221
23:21:57:822847,6.98132e-05,-0.581998,1.18651,-1.74533e-05,1.35191,-6.98132e-05,0,0,0,0,0,0,-0.008,0.011,-0.083,0,0,0,-5.432,31.269,-12.859,-3.472,0.136673,-0.038043
23:21:57:827956,6.98132e-05,-0.581998,1.18651,-1.74533e-05,1.35191,-6.98132e-05,0,0,0,0,0,0,0.007,0.002,0.008,0,0,0,-5.733,30.961,-13.055,-3.78,0.038043,-0.021135
23:21:57:832974,6.98132e-05,-0.581998,1.18651,-1.74533e-05,1.35191,-6.98132e-05,0,0,0,0,0,0,0.037,0.008,-0.002,0,0,0,-5.327,31.584,-12.642,-3.801,0.193033,0.026771
23:21:57:838100,6.98132e-05,-0.581998,1.18651,-1.74533e-05,1.35191,-6.98132e-05,0,0,0,0,0,0,0.041,0.018,-0.024,0,0,0,-5.537,31.668,-12.614,-3.066,0.054951,0.076086
23:21:57:843054,6.98132e-05,-0.581998,1.18651,-1.74533e-05,1.35191,-6.98132e-05,0,0,0,0,0,0,0.01,0.024,-0.028,0,0,0,-5.327,32.088,-12.418,-3.269,0.052133,0.038043
23:21:57:848098,6.98132e-05,-0.581998,1.18651,-1.74533e-05,1.35191,-6.98132e-05,0,0,0,0,0,0,-0.017,0.018,-0.014,0,0,0,-5.537,31.234,-13.174,-4.305,0.057769,0.021135
23:21:57:853169,6.98132e-05,-0.581998,1.18651,-1.74533e-05,1.35191,-6.98132e-05,0,0,0,0,0,0,-0.033,-0.003,0.015,0,0,0,-5.124,31.857,-12.747,-3.892,0.11272,0.015499
23:21:57:858348,6.98132e-05,-0.581998,1.18651,-1.74533e-05,1.35191,-6.98132e-05,0,0,0,0,0,0,-0.023,-0.016,0.048,0,0,0,-5.537,31.787,-12.488,-3.15,0.149354,-0.015499
23:21:57:863297,6.98132e-05,-0.581998,1.18651,-1.74533e-05,1.35191,-6.98132e-05,0,0,0,0,0,0,-0.002,-0.026,0.111,0,0,0,-5.334,30.842,-12.586,-3.899,0.204305,0
23:21:57:868292,6.98132e-05,-0.581998,1.18651,-1.74533e-05,1.35191,-6.98132e-05,0,0,0,0,0,0,0.005,-0.026,0.122,0,0,0,-4.809,31.388,-12.376,-3.682,0.170489,0.001409
23:21:57:873404,6.98132e-05,-0.581998,1.18651,-1.74533e-05,1.35191,-6.98132e-05,0,0,0,0,0,0,0.004,-0.015,0.033,0,0,0,-4.809,32.046,-12.551,-4.004,0.19726,0.043679
23:21:57:878460,6.98132e-05,-0.581998,1.18651,-1.74533e-05,1.35191,-6.98132e-05,0,0,0,0,0,0,-0.001,0,-0.056,0,0,0.001,-5.019,32.319,-12.495,-3.99,0.08454,-0.018317
23:21:57:883581,6.98132e-05,-0.581998,1.18651,-1.74533e-05,1.35191,-6.98132e-05,0,0,0,0,0,0,-0.01,0.032,-0.105,0,0,0.001,-5.537,31.85,-12.712,-3.171,0.190215,0.018317
23:21:57:888598,6.98132e-05,-0.581998,1.18651,-1.74533e-05,1.35191,-6.98132e-05,0,0,0,0,0,0,-0.009,0.047,-0.055,0,0,0,-5.334,32.438,-12.894,-3.57,0.021135,0.026771
23:21:57:893729,6.98132e-05,-0.581998,1.18651,-1.74533e-05,1.35191,-6.98132e-05,0,0,0,0,0,0,0.005,0.041,0.049,0,0,0,-5.635,31.038,-12.166,-4.004,0.173307,-0.035225
23:21:57:898720,6.98132e-05,-0.581998,1.18651,-1.74533e-05,1.35191,-6.98132e-05,0,0,0,0,0,0,0.017,0.02,0.074,0,0,0,-5.222,30.688,-12.481,-4.102,0.100039,0.029589
23:21:57:903846,6.98132e-05,-0.581998,1.18651,-1.74533e-05,1.35191,-6.98132e-05,0,0,0,0,0,0,0.02,0,0.022,0,0,0,-4.809,31.892,-12.705,-3.381,0.125401,0.009863
23:21:57:908793,6.98132e-05,-0.581998,1.18651,-1.74533e-05,1.35191,-6.98132e-05,0,0,0,0,0,0,0.01,0.012,-0.057,0,0,0,-5.432,31.857,-11.459,-3.689,0.111311,0.053542
23:21:57:913832,6.98132e-05,-0.581998,1.18651,-1.74533e-05,1.35191,-6.98132e-05,0,0,0,0,0,0,0,0.055,-0.201,0,0,0,-5.334,32.011,-12.516,-3.689,0.015499,0.05636
23:21:57:918973,6.98132e-05,-0.581998,1.18651,-1.74533e-05,1.35191,-6.98132e-05,0,0,0,0,0,0,0.019,0.077,-0.28,0.001,0,0.001,-5.845,31.507,-12.985,-3.801,0.216986,-0.021135
23:21:57:923971,6.98132e-05,-0.581998,1.18651,-1.74533e-05,1.35191,-6.98132e-05,0,0,0,0,0,0,0.041,0.064,-0.255,0.001,0,0.001,-5.439,31.234,-12.397,-3.892,0.176125,0.05636
23:21:57:929096,6.98132e-05,-0.581998,1.18651,-1.74533e-05,1.35191,-6.98132e-05,0,0,0,0,0,0,0.052,0.024,-0.15,0.001,0,0,-5.432,32.179,-12.481,-3.381,0.073268,0.097221
23:21:57:934071,6.98132e-05,-0.581998,1.18651,-1.74533e-05,1.35191,-6.98132e-05,0,0,0,0,0,0,0.038,0.001,-0.1,0,0,0,-5.747,32.207,-11.795,-3.78,0.11272,0.021135
23:21:57:939220,6.98132e-05,-0.581998,1.18651,-1.74533e-05,1.35191,-6.98132e-05,0,0,0,0,0,0,0.01,-0.015,-0.076,0,0,0,-4.907,31.948,-12.712,-3.262,0.01409,0.090176
23:21:57:944220,6.98132e-05,-0.581998,1.18651,-1.74533e-05,1.35191,-6.98132e-05,0,0,0,0,0,0,0.009,-0.012,-0.057,0,0,0,-5.418,31.507,-12.803,-3.689,0.069041,0.029589
23:21:57:949328,6.98132e-05,-0.581998,1.18651,-1.74533e-05,1.35191,-6.98132e-05,0,0,0,0,0,0,0.044,0.012,-0.02,0,0,0,-5.117,31.507,-12.593,-3.262,0.057769,0.059178
23:21:57:954274,6.98132e-05,-0.581998,1.18651,-1.74533e-05,1.35191,-6.98132e-05,0,0,0,0,0,0,0.066,0.036,-0.035,0,0,0,-4.914,31.311,-12.236,-3.668,0.08454,0.116947
23:21:57:959455,6.98132e-05,-0.581998,1.18651,-1.74533e-05,1.35191,-6.98132e-05,0,0,0,0,0,0,0.055,0.062,-0.145,0.001,0,0.001,-5.327,32.06,-12.215,-3.374,0.163444,0.043679
23:21:57:964477,6.98132e-05,-0.581998,1.18651,-1.74533e-05,1.35191,-6.98132e-05,0,0,0,0,0,0,0.021,0.06,-0.232,0,0,0.002,-5.74,30.541,-13.44,-2.723,0.132446,0.040861
23:21:57:969412,6.98132e-05,-0.581998,1.18651,-1.74533e-05,1.35191,-6.98132e-05,0,0,0,0,0,0,-0.016,0.034,-0.3,0,0,0.002,-5.544,30.849,-12.908,-4.011,0.143718,0.07045
23:21:57:974524,6.98132e-05,-0.581998,1.18651,-1.74533e-05,1.35191,-6.98132e-05,0,0,0,0,0,0,-0.008,0.019,-0.287,0,0,0.002,-4.914,31.395,-13.09,-3.57,0.180352,0.053542
23:21:57:979723,6.98132e-05,-0.581998,1.18651,-1.74533e-05,1.35191,-6.98132e-05,0,0,0,0,0,0,0.033,0.019,-0.178,0,0,0.001,-5.544,31.934,-12.481,-4.004,0.077495,0.105675
23:21:57:984665,6.98132e-05,-0.581998,1.18651,-1.74533e-05,1.35191,-6.98132e-05,0,0,0,0,0,0,0.049,0.025,-0.062,0,0,0,-5.019,30.646,-12.838,-3.899,0.057769,0.059178
23:21:57:989697,6.98132e-05,-0.581998,1.18651,-1.74533e-05,1.35191,-6.98132e-05,0,0,0,0,0,0,0.033,0.011,0.092,0,0,-0.001,-5.649,31.549,-12.467,-3.787,0.135264,-0.009863
23:21:57:994848,6.98132e-05,-0.581998,1.18651,-1.74533e-05,1.35191,-6.98132e-05,0,0,0,0,0,0,0.01,-0.017,0.124,0,0,-0.001,-5.754,32.207,-12.754,-3.997,0.08454,-0.050724
23:21:57:999792,6.98132e-05,-0.581998,1.18651,-1.74533e-05,1.35191,-6.98132e-05,0,0,0,0,0,0,-0.003,-0.049,0.046,0,0,0,-5.019,31.507,-12.264,-4.109,0.116947,0.076086
23:21:58:4953,6.98132e-05,-0.581998,1.18651,-1.74533e-05,1.35193,-6.98132e-05,0,0,0,0,0,0,0.011,-0.026,-0.096,0,0,0,-5.95,32.137,-12.453,-3.997,0.125401,0.094403
23:21:58:9950,6.98132e-05,-0.581998,1.18651,-1.74533e-05,1.35193,-6.98132e-05,0,0,0,0,0,0,0.022,0.005,-0.158,0,0,0,-5.642,31.591,-12.803,-3.99,0.150763,-0.035225
23:21:58:15091,6.98132e-05,-0.581998,1.18651,-1.74533e-05,1.35193,-6.98132e-05,0,0,0,0,0,0,0.019,0.028,-0.126,0,0,0,-5.138,31.22,-13.055,-3.794,0.122583,0.143718
23:21:58:20089,6.98132e-05,-0.581998,1.18651,-1.74533e-05,1.35193,-6.98132e-05,0,0,0,0,0,0,0,0.017,-0.044,0,0,0,-5.642,31.829,-12.544,-3.787,0.143718,0.078904
23:21:58:25205,6.98132e-05,-0.581998,1.18651,-1.74533e-05,1.35193,-6.98132e-05,0,0,0,0,0,0,-0.03,-0.002,0.003,0,0,0,-5.334,31.738,-12.915,-3.808,0.274755,0.059178
23:21:58:30152,6.98132e-05,-0.581998,1.18651,-1.74533e-05,1.35193,-6.98132e-05,0,0,0,0,0,0,-0.035,0.002,-0.079,0,0,0,-5.537,31.199,-12.026,-3.563,0.059178,0.035225
23:21:58:35330,6.98132e-05,-0.581998,1.18651,-1.74533e-05,1.35193,-6.98132e-05,0,0,0,0,0,0,-0.013,0.026,-0.23,0.001,0,0.001,-5.432,32.641,-12.558,-3.899,0.163444,-0.007045
23:21:58:40335,6.98132e-05,-0.581998,1.18651,-1.74533e-05,1.35193,-6.98132e-05,0,0,0,0,0,0,0.003,0.03,-0.187,0,0,0,-5.425,31.395,-12.747,-3.374,0.133855,0.038043
23:21:58:45453,6.98132e-05,-0.581998,1.18651,-1.74533e-05,1.35193,-6.98132e-05,0,0,0,0,0,0,0.014,0.005,0.098,0,0,-0.001,-5.439,31.318,-12.285,-3.584,0.174716,0.012681
23:21:58:50455,6.98132e-05,-0.581998,1.18651,-1.74533e-05,1.35193,-6.98132e-05,0,0,0,0,0,0,0.014,-0.013,0.245,0,0,-0.002,-5.649,31.472,-12.999,-3.591,0.135264,0.059178
23:21:58:55579,6.98132e-05,-0.581998,1.18651,-1.74533e-05,1.35193,-6.98132e-05,0,0,0,0,0,0,0.022,-0.007,0.127,0,0,-0.001,-5.012,31.591,-12.285,-3.906,0.133855,0.059178
23:21:58:60579,6.98132e-05,-0.581998,1.18651,-1.74533e-05,1.35193,-6.98132e-05,0,0,0,0,0,0,0.029,0.021,-0.121,0,0,0,-5.131,31.633,-12.859,-4.2,0.177534,0.050724
23:21:58:65696,6.98132e-05,-0.581998,1.18651,-1.74533e-05,1.35193,-6.98132e-05,0,0,0,0,0,0,0.031,0.062,-0.438,0.001,0,0.003,-5.222,31.745,-12.026,-3.073,0.12681,0.212759
23:21:58:70716,6.98132e-05,-0.581998,1.18651,-1.74533e-05,1.35193,-6.98132e-05,0,0,0,0,0,0,0.026,0.064,-0.492,0,0,0.003,-5.117,31.906,-12.978,-4.004,0.063405,-0.094403
23:21:58:75703,6.98132e-05,-0.581998,1.18651,-1.74533e-05,1.35193,-6.98132e-05,0,0,0,0,0,0,0.016,0.02,-0.356,0,0,0.002,-5.334,31.948,-12.908,-4.214,0.118356,-0.078904
23:21:58:80829,6.98132e-05,-0.581998,1.18651,-1.74533e-05,1.35193,-6.98132e-05,0,0,0,0,0,0,0.009,-0.018,-0.196,0,0,0.001,-5.124,31.122,-12.978,-3.381,0.174716,0.090176
23:21:58:85879,6.98132e-05,-0.581998,1.18651,-1.74533e-05,1.35193,-6.98132e-05,0,0,0,0,0,0,0.003,-0.052,0.001,0,0,0,-5.117,31.122,-12.985,-3.269,0.129628,0.061996
23:21:58:90973,6.98132e-05,-0.581998,1.18651,-1.74533e-05,1.35193,-6.98132e-05,0,0,0,0,0,0,0,-0.038,0.024,0,0,0,-6.244,31.199,-12.397,-3.269,0.077495,0.050724
23:21:58:96110,6.98132e-05,-0.581998,1.18651,-1.74533e-05,1.35193,-6.98132e-05,0,0,0,0,0,0,-0.006,-0.006,-0.059,0,0,0,-4.921,31.703,-12.81,-4.004,0.22544,0.100039
23:21:58:101075,6.98132e-05,-0.581998,1.18651,-1.74533e-05,1.35193,-6.98132e-05,0,0,0,0,0,0,-0.014,0.049,-0.217,0,0,0.002,-5.334,31.514,-12.222,-4.004,0.057769,0.045088
23:21:58:106021,6.98132e-05,-0.581998,1.18651,-1.74533e-05,1.35193,-6.98132e-05,0,0,0,0,0,0,-0.012,0.078,-0.285,0,0,0.002,-5.544,31.395,-12.908,-3.36,0.078904,0.040861
23:21:58:111200,6.98132e-05,-0.581998,1.18651,-1.74533e-05,1.35193,-6.98132e-05,0,0,0,0,0,0,0.007,0.089,-0.33,0,0,0.002,-5.432,32.256,-12.719,-3.479,0.057769,0.091585
23:21:58:116321,6.98132e-05,-0.581998,1.18651,-1.74533e-05,1.35193,-6.98132e-05,0,0,0,0,0,0,0.021,0.076,-0.33,0,0,0.002,-5.425,32.018,-13.153,-3.591,0.102857,0.128219
23:21:58:121270,6.98132e-05,-0.581998,1.18651,-1.74533e-05,1.35193,-6.98132e-05,0,0,0,0,0,0,0.022,0.041,-0.225,0,0,0.001,-5.754,30.842,-12.558,-3.57,0.092994,-0.026771
23:21:58:126323,6.98132e-05,-0.581998,1.18651,-1.74533e-05,1.35193,-6.98132e-05,0,0,0,0,0,0,0.009,0.014,-0.073,0,0,0,-5.544,31.031,-12.257,-3.892,0.09863,0.018317
23:21:58:131418,6.98132e-05,-0.58198,1.18651,-1.74533e-05,1.35193,-6.98132e-05,0,0,0,0,0,0,-0.009,-0.012,0.143,0,0,-0.001,-5.411,31.92,-12.754,-3.696,0.012681,-0.053542
23:21:58:136454,6.98132e-05,-0.58198,1.18651,-1.74533e-05,1.35193,-6.98132e-05,0,0,0,0,0,0,-0.009,-0.013,0.175,0,0,-0.002,-5.222,31.703,-12.943,-3.78,0.132446,-0.018317
23:21:58:141570,6.98132e-05,-0.58198,1.18651,-1.74533e-05,1.35193,-6.98132e-05,0,0,0,0,0,0,0.005,0.01,0.059,0,0,-0.001,-5.957,30.926,-12.908,-3.787,0.162035,0.078904
23:21:58:146515,6.98132e-05,-0.58198,1.18651,-1.74533e-05,1.35193,-6.98132e-05,0,0,0,0,0,0,0.014,0.031,-0.026,0,0,0,-5.124,31.878,-12.558,-4.004,0.166262,0.012681
23:21:58:151715,6.98132e-05,-0.58198,1.18651,-1.74533e-05,1.35193,-6.98132e-05,0,0,0,0,0,0,0.015,0.042,-0.065,0,0,0,-5.53,31.437,-12.803,-4.109,0.142309,0.076086
23:21:58:156643,6.98132e-05,-0.58198,1.18651,-1.74533e-05,1.35193,-6.98132e-05,0,0,0,0,0,0,0.007,0.033,-0.059,0,0,0,-5.733,30.779,-12.523,-4.2,0.15499,0.040861
23:21:58:161839,6.98132e-05,-0.58198,1.18651,-1.74533e-05,1.35193,-6.98132e-05,0,0,0,0,0,0,-0.015,0.008,-0.048,0,0,0.001,-5.019,31.388,-13.055,-3.892,0.146536,0.001409
23:21:58:166788,6.98132e-05,-0.58198,1.18651,-1.74533e-05,1.35193,-6.98132e-05,0,0,0,0,0,0,-0.033,-0.008,-0.023,0,0,0,-4.816,31.703,-12.481,-3.479,0.071859,0.023953
23:21:58:171942,6.98132e-05,-0.58198,1.18651,-1.74533e-05,1.35193,-6.98132e-05,0,0,0,0,0,0,-0.051,-0.021,0.029,0,0,0,-5.432,30.982,-12.719,-3.997,0.107084,0.059178
23:21:58:176948,6.98132e-05,-0.58198,1.18651,-1.74533e-05,1.35193,-6.98132e-05,0,0,0,0,0,0,-0.043,-0.008,-0.017,0,0,0,-5.229,31.794,-12.747,-3.682,0.146536,-0.078904
23:21:58:181963,6.98132e-05,-0.58198,1.18651,-1.74533e-05,1.35193,-6.98132e-05,0,0,0,0,0,0,-0.028,0.011,-0.118,0,0,0,-5.341,32.368,-13.055,-3.584,0.12681,-0.004227
23:21:58:187070,6.98132e-05,-0.58198,1.18651,-1.74533e-05,1.35193,-6.98132e-05,0,0,0,0,0,0,-0.018,0.032,-0.217,0,0,0.001,-5.117,32.228,-13.251,-3.899,0.12681,0.053542
23:21:58:192068,6.98132e-05,-0.58198,1.18651,-1.74533e-05,1.35193,-6.98132e-05,0,0,0,0,0,0,-0.027,0.025,-0.154,0,0,0.001,-5.747,31.57,-12.719,-3.997,0.178943,0.040861
23:21:58:197193,6.98132e-05,-0.58198,1.18651,-1.74533e-05,1.35193,-6.98132e-05,0,0,0,0,0,0,-0.047,-0.015,0.068,0,0,0,-5.334,31.605,-12.985,-3.479,0.143718,0
23:21:58:202194,6.98132e-05,-0.58198,1.18651,-1.74533e-05,1.35193,-6.98132e-05,0,0,0,0,0,0,-0.048,-0.04,0.158,0,0,-0.001,-5.74,31.402,-12.25,-3.892,0.187397,0.023953
23:21:58:207338,6.98132e-05,-0.58198,1.18651,-1.74533e-05,1.35193,-6.98132e-05,0,0,0,0,0,0,-0.019,-0.038,0.056,0,0,0,-5.53,31.367,-12.096,-3.997,0.160626,0.061996
23:21:58:212317,6.98132e-05,-0.58198,1.18651,-1.74533e-05,1.35193,-6.98132e-05,0,0,0,0,0,0,0.009,-0.005,-0.09,0,0,0.001,-4.914,31.241,-12.061,-3.584,0.163444,0.047906
23:21:58:217281,6.98132e-05,-0.58198,1.18651,-1.74533e-05,1.35193,-6.98132e-05,0,0,0,0,0,0,0.034,0.052,-0.156,0,0,0.001,-5.019,31.633,-13.139,-3.073,0.143718,0.021135
23:21:58:222442,6.98132e-05,-0.58198,1.18651,-1.74533e-05,1.35193,-6.98132e-05,0,0,0,0,0,0,0.03,0.069,-0.047,0,0,0,-4.907,32.095,-13.013,-3.787,0.085949,0.064814
23:21:58:227442,6.98132e-05,-0.58198,1.18651,-1.74533e-05,1.35193,-6.98132e-05,0,0,0,0,0,0,0.011,0.056,0.144,0,0,-0.001,-5.649,31.549,-12.775,-3.479,0.053542,0.215577
23:21:58:232593,6.98132e-05,-0.58198,1.18651,-1.74533e-05,1.35193,-6.98132e-05,0,0,0,0,0,0,0.002,0.034,0.166,0,0,-0.001,-5.327,32.025,-12.719,-3.99,0.15499,0.157808
23:21:58:237538,6.98132e-05,-0.58198,1.18651,-1.74533e-05,1.35193,-6.98132e-05,0,0,0,0,0,0,0,-0.004,0.073,0,0,0,-4.823,31.892,-12.096,-3.178,0.059178,0.026771
23:21:58:242705,6.98132e-05,-0.58198,1.18651,-1.74533e-05,1.35193,-6.98132e-05,0,0,0,0,0,0,-0.004,-0.03,0.027,0,0,0,-5.019,31.402,-13.013,-3.486,0.149354,0.125401
23:21:58:247710,6.98132e-05,-0.58198,1.18651,-1.74533e-05,1.35193,-6.98132e-05,0,0,0,0,0,0,-0.019,-0.05,0.004,0,0,-0.001,-4.816,32.032,-12.824,-3.486,0.049315,0.035225
23:21:58:252705,6.98132e-05,-0.58198,1.18651,-1.74533e-05,1.35193,-6.98132e-05,0,0,0,0,0,0,-0.022,-0.036,-0.055,0,0,0,-5.838,31.836,-12.026,-3.99,0.101448,-0.059178
23:21:58:257819,6.98132e-05,-0.58198,1.18651,-1.74533e-05,1.35193,-6.98132e-05,0,0,0,0,0,0,-0.005,0.023,-0.233,0,0,0.001,-5.852,31.724,-12.292,-4.102,0.030998,0.004227
23:21:58:262836,6.98132e-05,-0.58198,1.18651,-1.74533e-05,1.35193,-6.98132e-05,0,0,0,0,0,0,0.008,0.066,-0.32,0,0,0.002,-5.943,32.158,-11.984,-3.066,0.081722,0.015499
23:21:58:267942,6.98132e-05,-0.58198,1.18651,-1.74533e-05,1.35193,-6.98132e-05,0,0,0,0,0,0,0,0.092,-0.287,0,0,0.002,-5.425,32.382,-12.586,-4.305,0.131037,0.021135
23:21:58:272956,6.98132e-05,-0.58198,1.18651,-1.74533e-05,1.35193,-6.98132e-05,0,0,0,0,0,0,-0.045,0.065,-0.127,0,0,0,-5.544,31.528,-12.712,-3.584,0.107084,0.001409
23:21:58:277916,6.98132e-05,-0.58198,1.18651,-1.74533e-05,1.35193,-6.98132e-05,0,0,0,0,0,0,-0.069,0.035,-0.023,0,0,-0.001,-5.628,31.213,-12.663,-3.682,0.057769,0.078904
23:21:58:283084,6.98132e-05,-0.58198,1.18651,-1.74533e-05,1.35193,-6.98132e-05,0,0,0,0,0,0,-0.066,0.002,0.072,0,0,-0.001,-5.229,31.633,-13.286,-3.577,0.18317,0.047906
23:21:58:288193,6.98132e-05,-0.58198,1.18651,-1.74533e-05,1.35193,-6.98132e-05,0,0,0,0,0,0,-0.042,-0.005,0.083,0,0,-0.001,-5.124,32.305,-12.411,-3.073,0.125401,0.105675
23:21:58:293140,6.98132e-05,-0.58198,1.18651,-1.74533e-05,1.35193,-6.98132e-05,0,0,0,0,0,0,0,-0.003,0.01,0,0,0,-5.432,31.955,-13.09,-3.696,0.105675,0.078904
23:21:58:298331,6.98132e-05,-0.58198,1.18651,-1.74533e-05,1.35193,-6.98132e-05,0,0,0,0,0,0,0.016,0,-0.074,0,0,0,-5.229,31.136,-12.803,-3.689,0.19726,0.116947
23:21:58:303276,6.98132e-05,-0.58198,1.18651,-1.74533e-05,1.35193,-6.98132e-05,0,0,0,0,0,0,0.012,0.003,-0.182,0,0,0,-5.649,31.801,-12.432,-3.381,0.116947,0.021135
23:21:58:308345,6.98132e-05,-0.58198,1.18651,-1.74533e-05,1.35193,-6.98132e-05,0,0,0,0,0,0,0.001,0.002,-0.227,0,0,0.001,-5.74,31.241,-12.614,-4.102,0.131037,-0.023953
23:21:58:313457,6.98132e-05,-0.58198,1.18651,-1.74533e-05,1.35193,-6.98132e-05,0,0,0,0,0,0,0,-0.004,-0.266,0,0,0.002,-5.229,31.689,-11.83,-3.899,0.040861,0.001409
23:21:58:318458,6.98132e-05,-0.58198,1.18651,-1.74533e-05,1.35193,-6.98132e-05,0,0,0,0,0,0,0.017,-0.011,-0.265,0,0,0.002,-5.439,30.982,-13.02,-3.486,0.094403,0.043679
23:21:58:323568,6.98132e-05,-0.58198,1.18649,-1.74533e-05,1.35193,-6.98132e-05,0,0,0,0,0,0,0.048,-0.007,-0.202,0,0,0.001,-5.019,31.64,-12.523,-3.892,0.125401,0.012681
23:21:58:328512,6.98132e-05,-0.58198,1.18649,-1.74533e-05,1.35193,-6.98132e-05,0,0,0,0,0,0,0.057,0.011,-0.145,0,0,0,-4.914,31.367,-12.593,-3.997,0.102857,0.059178
23:21:58:333705,6.98132e-05,-0.58198,1.18649,-1.74533e-05,1.35193,-6.98132e-05,0,0,0,0,0,0,0.054,0.042,-0.11,0,0,0,-5.334,31.22,-12.306,-3.591,0.194442,0.125401
23:21:58:338701,6.98132e-05,-0.58198,1.18649,-1.74533e-05,1.35193,-6.98132e-05,0,0,0,0,0,0,0.05,0.045,-0.113,0,0,0,-4.907,30.856,-12.95,-4.102,0.033816,0.021135
23:21:58:343818,6.98132e-05,-0.58198,1.18649,-1.74533e-05,1.35193,-6.98132e-05,0,0,0,0,0,0,0.05,0.019,-0.075,0,0,0,-5.229,31.668,-12.481,-3.689,0.138082,-0.05636
23:21:58:348832,6.98132e-05,-0.58198,1.18649,-1.74533e-05,1.35193,-6.98132e-05,0,0,0,0,0,0,0.047,0.001,-0.01,0,0,0,-5.432,31.143,-12.824,-3.899,0.088767,0.091585
23:21:58:353766,6.98132e-05,-0.58198,1.18649,-1.74533e-05,1.35193,-6.98132e-05,0,0,0,0,0,0,0.034,0.004,0.069,0,0,0,-5.222,31.108,-12.74,-3.99,0.163444,-0.021135
23:21:58:358937,6.98132e-05,-0.58198,1.18649,-1.74533e-05,1.35193,-6.98132e-05,0,0,0,0,0,0,0.024,0.027,0.068,0,0,0,-5.432,31.78,-12.803,-3.479,0.105675,-0.021135
23:21:58:363940,6.98132e-05,-0.58198,1.18649,-1.74533e-05,1.35193,-6.98132e-05,0,0,0,0,0,0,0.024,0.034,0.038,0,0,0,-5.327,31.367,-12.194,-3.787,0.050724,0.023953
23:21:58:369064,6.98132e-05,-0.58198,1.18649,-1.74533e-05,1.35193,-6.98132e-05,0,0,0,0,0,0,0.031,0.025,-0.02,0,0,0,-4.921,31.479,-12.369,-3.787,0.057769,0.038043
23:21:58:374067,6.98132e-05,-0.58198,1.18649,-1.74533e-05,1.35193,-6.98132e-05,0,0,0,0,0,0,0.035,0.014,-0.064,0,0,0,-5.852,31.409,-12.593,-3.794,0.081722,0.040861
23:21:58:379192,6.98132e-05,-0.58198,1.18649,-1.74533e-05,1.35193,-6.98132e-05,0,0,0,0,0,0,0.035,0,-0.111,0.001,0,0,-5.411,31.619,-12.677,-3.374,0.078904,0.059178
23:21:58:384148,6.98132e-05,-0.58198,1.18649,-1.74533e-05,1.35193,-6.98132e-05,0,0,0,0,0,0,0.033,-0.008,-0.114,0.001,0,0,-5.432,32.151,-12.915,-3.689,0.166262,0.047906
23:21:58:389312,6.98132e-05,-0.58198,1.18649,-1.74533e-05,1.35193,-6.98132e-05,0,0,0,0,0,0,0.026,-0.015,-0.101,0,0,0,-6.272,32.263,-12.684,-3.381,0.278982,0.001409
23:21:58:394270,6.98132e-05,-0.58198,1.18649,-1.74533e-05,1.35193,-6.98132e-05,0,0,0,0,0,0,0.015,-0.018,-0.102,0,0,0.001,-5.747,31.409,-12.397,-3.689,0.149354,-0.012681
23:21:58:399442,6.98132e-05,-0.58198,1.18649,-1.74533e-05,1.35193,-6.98132e-05,0,0,0,0,0,0,-0.011,-0.029,-0.101,0,0,0.001,-5.733,30.947,-12.908,-3.997,0.139491,-0.050724
23:21:58:404380,6.98132e-05,-0.58198,1.18649,-1.74533e-05,1.35193,-6.98132e-05,0,0,0,0,0,0,-0.031,-0.041,-0.074,0,0,0.001,-5.432,31.458,-12.733,-4.207,0.083131,0
23:21:58:409561,6.98132e-05,-0.58198,1.18649,-1.74533e-05,1.35193,-6.98132e-05,0,0,0,0,0,0,-0.042,-0.04,-0.01,0,0,0,-5.334,31.619,-12.775,-4.2,0.149354,-0.007045
23:21:58:414571,6.98132e-05,-0.58198,1.18649,-1.74533e-05,1.35193,-6.98132e-05,0,0,0,0,0,0,-0.029,-0.02,0.015,0,0,0,-5.53,31.85,-12.292,-3.682,0.077495,0.029589
23:21:58:419685,6.98132e-05,-0.58198,1.18649,-1.74533e-05,1.35193,-6.98132e-05,0,0,0,0,0,0,0.006,0.019,0.005,0,0,0,-5.222,31.472,-11.984,-3.276,0.166262,0.050724
23:21:58:424701,6.98132e-05,-0.58198,1.18649,-1.74533e-05,1.35193,-6.98132e-05,0,0,0,0,0,0,0.02,0.033,-0.011,0,0,0,-5.124,31.605,-13.02,-3.99,0.139491,-0.029589
23:21:58:429705,6.98132e-05,-0.58198,1.18649,-1.74533e-05,1.35193,-6.98132e-05,0,0,0,0,0,0,0.008,0.026,-0.01,0,0,0,-5.537,31.143,-12.544,-3.374,0.138082,-0.05636
23:21:58:434815,6.98132e-05,-0.58198,1.18649,-1.74533e-05,1.35193,-6.98132e-05,0,0,0,0,0,0,-0.011,0.01,0.013,0,0,0,-5.327,31.479,-12.586,-3.794,0.200078,-0.032407
23:21:58:439810,6.98132e-05,-0.58198,1.18649,-1.74533e-05,1.35193,-6.98132e-05,0,0,0,0,0,0,-0.027,-0.009,0.043,0,0,0,-5.222,31.08,-12.551,-4.095,0.21135,0.047906
23:21:58:444934,6.98132e-05,-0.58198,1.18649,-1.74533e-05,1.35193,-6.98132e-05,0,0,0,0,0,0,-0.009,-0.022,0.008,0,0,0,-5.313,31.633,-12.502,-3.892,0.11272,0.023953
23:21:58:449900,6.98132e-05,-0.58198,1.18649,-1.74533e-05,1.35193,-6.98132e-05,0,0,0,0,0,0,0.007,-0.03,-0.034,0,0,0,-5.327,31.031,-12.467,-3.689,0.043679,0.125401
23:21:58:454922,6.98132e-05,-0.58198,1.18649,-1.74533e-05,1.35193,-6.98132e-05,0,0,0,0,0,0,0.008,-0.035,-0.036,0,0,0,-5.334,31.934,-12.999,-3.682,0.12681,0.026771
23:21:58:460077,6.98132e-05,-0.58198,1.18649,-1.74533e-05,1.35193,-6.98132e-05,0,0,0,0,0,0,-0.005,-0.029,0.007,0,0,0,-5.341,31.157,-12.488,-3.584,0.040861,-0.026771
23:21:58:465185,6.98132e-05,-0.58198,1.18649,-1.74533e-05,1.35193,-6.98132e-05,0,0,0,0,0,0,-0.012,0.002,0.015,0,0,0,-5.327,31.129,-12.292,-3.479,0.105675,0.138082
23:21:58:470216,6.98132e-05,-0.58198,1.18649,-1.74533e-05,1.35193,-6.98132e-05,0,0,0,0,0,0,0.01,0.028,-0.06,0,0,0,-5.439,33.131,-12.334,-3.997,0.053542,0.032407
23:21:58:475203,6.98132e-05,-0.58198,1.18649,-1.74533e-05,1.35193,-6.98132e-05,0,0,0,0,0,0,0.063,0.042,-0.183,0,0,0.001,-5.327,31.094,-12.376,-4.102,0.090176,-0.001409
23:21:58:480329,6.98132e-05,-0.58198,1.18649,-1.74533e-05,1.35193,-6.98132e-05,0,0,0,0,0,0,0.081,0.031,-0.185,0,0,0.001,-5.341,31.521,-12.684,-3.584,0.174716,0.108493
23:21:58:485312,6.98132e-05,-0.58198,1.18649,-1.74533e-05,1.35193,-6.98132e-05,0,0,0,0,0,0,0.063,0.01,-0.114,0,0,0.001,-5.852,31.192,-12.411,-3.892,0.125401,-0.090176
23:21:58:490436,6.98132e-05,-0.58198,1.18649,-1.74533e-05,1.35193,-6.98132e-05,0,0,0,0,0,0,0.035,0.011,-0.107,0,0,0.001,-5.229,31.241,-13.202,-3.689,0.109902,0.076086
23:21:58:495397,6.98132e-05,-0.58198,1.18649,-1.74533e-05,1.35193,-6.98132e-05,0,0,0,0,0,0,0,0.031,-0.146,0,0,0.001,-5.635,31.227,-12.46,-3.794,0.129628,-0.050724
23:21:58:500475,6.98132e-05,-0.58198,1.18649,-1.74533e-05,1.35193,-6.98132e-05,0,0,0,0,0,0,-0.011,0.039,-0.112,0,0,0.001,-5.74,31.045,-12.733,-3.794,0.166262,0.021135
23:21:58:505571,6.98132e-05,-0.58198,1.18649,-1.74533e-05,1.35193,-6.98132e-05,0,0,0,0,0,0,-0.014,0.025,0.055,0,0,0,-5.334,31.57,-13.055,-3.892,0.050724,0.007045
23:21:58:510696,6.98132e-05,-0.58198,1.18649,-1.74533e-05,1.35193,-6.98132e-05,0,0,0,0,0,0,-0.006,0.005,0.132,0,0,0,-5.117,32.13,-12.355,-4.102,0.09863,0.032407
23:21:58:515717,6.98132e-05,-0.58198,1.18649,-1.74533e-05,1.35193,-6.98132e-05,0,0,0,0,0,0,0.009,-0.011,0.035,0,0,0,-5.439,31.738,-12.516,-3.892,0.04227,0.076086
23:21:58:520646,6.98132e-05,-0.58198,1.18649,-1.74533e-05,1.35193,-6.98132e-05,0,0,0,0,0,0,0.017,0,-0.127,0,0,0.001,-5.026,31.437,-12.621,-3.276,0.012681,-0.009863
23:21:58:525823,6.98132e-05,-0.58198,1.18649,-1.74533e-05,1.35193,-6.98132e-05,0,0,0,0,0,0,0.02,0.039,-0.302,0,0,0.002,-4.809,31.948,-11.935,-3.899,0.077495,0.035225
23:21:58:530821,6.98132e-05,-0.58198,1.18649,-1.74533e-05,1.35193,-6.98132e-05,0,0,0,0,0,0,0.015,0.061,-0.304,0,0,0.003,-5.222,30.912,-12.733,-3.794,0.238121,-0.023953
23:21:58:535965,6.98132e-05,-0.58198,1.18649,-1.74533e-05,1.35193,-6.98132e-05,0,0,0,0,0,0,0.002,0.053,-0.191,0,0,0.002,-5.341,31.913,-12.642,-3.276,0.185988,0.018317
23:21:58:540947,6.98132e-05,-0.58198,1.18649,-1.74533e-05,1.35193,-6.98132e-05,0,0,0,0,0,0,0,0.01,-0.079,0,0,0.001,-5.222,31.409,-12.446,-3.689,0.012681,-0.009863
23:21:58:546074,6.98132e-05,-0.58198,1.18649,-1.74533e-05,1.35193,-6.98132e-05,0,0,0,0,0,0,0.007,-0.011,-0.049,0,0,0,-5.537,31.031,-12.719,-3.073,0.029589,-0.035225
23:21:58:551054,6.98132e-05,-0.58198,1.18649,-1.74533e-05,1.35193,-6.98132e-05,0,0,0,0,0,0,0.022,-0.006,-0.063,0,0,0,-5.32,31.535,-12.39,-4.2,0.094403,0.094403
23:21:58:556056,6.98132e-05,-0.58198,1.18649,-1.74533e-05,1.35193,-6.98132e-05,0,0,0,0,0,0,0.028,0.009,-0.09,0,0,0,-5.033,31.157,-12.845,-3.787,0.125401,0.061996
23:21:58:561180,6.98132e-05,-0.58198,1.18649,-1.74533e-05,1.35193,-6.98132e-05,0,0,0,0,0,0,0.038,0.017,-0.114,0,0,0,-5.537,31.08,-12.852,-4.102,0.114129,0.040861
23:21:58:566323,6.98132e-05,-0.58198,1.18649,-1.74533e-05,1.35193,-6.98132e-05,0,0,0,0,0,0,0.047,0.007,-0.107,0,0,0,-6.055,30.667,-12.46,-4.102,0.15499,0.090176
23:21:58:571251,6.98132e-05,-0.58198,1.18649,-1.74533e-05,1.35193,-6.98132e-05,0,0,0,0,0,0,0.046,-0.004,-0.1,0,0,0,-5.635,31.766,-12.684,-3.689,0.074677,0.035225
23:21:58:576485,6.98132e-05,-0.58198,1.18649,-1.74533e-05,1.35193,-6.98132e-05,0,0,0,0,0,0,0.03,0.004,-0.13,0,0,0,-5.327,30.835,-12.229,-3.689,0.122583,0.078904
23:21:58:581433,6.98132e-05,-0.58198,1.18649,-1.74533e-05,1.35193,-6.98132e-05,0,0,0,0,0,0,0.003,0.03,-0.202,0,0,0.001,-5.537,31.703,-12.754,-3.99,0.045088,-0.018317
23:21:58:586375,6.98132e-05,-0.58198,1.18649,-1.74533e-05,1.35193,-6.98132e-05,0,0,0,0,0,0,0,0.039,-0.202,0,0,0.001,-5.544,31.437,-12.341,-3.696,0.09863,0
23:21:58:591586,6.98132e-05,-0.58198,1.18649,-1.74533e-05,1.35193,-6.98132e-05,0,0,0,0,0,0,0.008,0.03,-0.064,0,0,0,-5.236,32.095,-12.754,-3.794,0.094403,0.012681
23:21:58:596571,6.98132e-05,-0.58198,1.18649,-1.74533e-05,1.35193,-6.98132e-05,0,0,0,0,0,0,0.012,0.014,0.067,0,0,-0.001,-5.74,31.031,-11.998,-4.095,0.173307,0.009863
23:21:58:601697,6.98132e-05,-0.58198,1.18649,-1.74533e-05,1.35193,-6.98132e-05,0,0,0,0,0,0,0.017,-0.015,0.155,0,0,-0.002,-5.425,31.57,-12.803,-3.178,0.129628,0.043679
23:21:58:606696,6.98132e-05,-0.58198,1.18649,-1.74533e-05,1.35193,-6.98132e-05,0,0,0,0,0,0,0.026,-0.033,0.104,0,0,-0.001,-5.229,31.031,-12.831,-3.899,0.23953,0.029589
23:21:58:611683,6.98132e-05,-0.58198,1.18649,-1.74533e-05,1.35193,-6.98132e-05,0,0,0,0,0,0,0.044,-0.042,-0.042,0,0,0,-5.747,32.011,-11.998,-3.892,0.209941,0.001409
23:21:58:616818,6.98132e-05,-0.58198,1.18649,-1.74533e-05,1.35193,-6.98132e-05,0,0,0,0,0,0,0.048,-0.029,-0.121,0,0,0,-5.229,31.08,-11.781,-3.997,0.131037,0.050724
23:21:58:621939,6.98132e-05,-0.58198,1.18649,-1.74533e-05,1.35193,-6.98132e-05,0,0,0,0,0,0,0.039,0.008,-0.207,0,0,0.001,-5.117,30.961,-12.488,-3.689,-0.016908,0.043679
23:21:58:626902,6.98132e-05,-0.58198,1.18649,-1.74533e-05,1.35193,-6.98132e-05,0,0,0,0,0,0,0.036,0.035,-0.305,0,0,0.002,-5.628,31.241,-12.943,-3.591,0.166262,-0.043679
23:21:58:631948,6.98132e-05,-0.58198,1.18649,-3.49066e-05,1.35193,-6.98132e-05,0,0,0,0,0,0,0.041,0.041,-0.353,0.001,0,0.003,-5.754,31.374,-13.125,-3.584,0.018317,0.053542
23:21:58:637000,6.98132e-05,-0.58198,1.18649,-3.49066e-05,1.35193,-6.98132e-05,0,0,0,0,0,0,0.046,0.045,-0.311,0.001,0,0.003,-6.153,31.619,-13.167,-3.787,0.095812,0.040861
23:21:58:642063,6.98132e-05,-0.58198,1.18649,-3.49066e-05,1.35193,-6.98132e-05,0,0,0,0,0,0,0.042,0.039,-0.201,0.001,0,0.002,-5.236,32.802,-12.18,-3.276,0.149354,0.053542
23:21:58:647197,6.98132e-05,-0.58198,1.18649,-3.49066e-05,1.35193,-6.98132e-05,0,0,0,0,0,0,0.036,0.001,-0.012,0,0,0,-5.551,32.193,-12.859,-3.584,0.081722,0.021135
23:21:58:652196,6.98132e-05,-0.58198,1.18649,-3.49066e-05,1.35193,-6.98132e-05,0,0,0,0,0,0,0.04,-0.032,0.056,0,0,0,-5.425,31.031,-12.768,-3.486,0.209941,0.05636
23:21:58:657297,6.98132e-05,-0.581963,1.18649,-3.49066e-05,1.35193,-6.98132e-05,0,0,0,0,0,0,0.041,-0.045,0.03,0,0,0,-5.439,32.137,-12.943,-3.584,0.105675,-0.029589
23:21:58:662300,6.98132e-05,-0.581963,1.18649,-3.49066e-05,1.35193,-6.98132e-05,0,0,0,0,0,0,0.022,-0.012,-0.04,0,0,0,-5.446,31.521,-12.775,-3.381,0.191624,0.067632
23:21:58:667452,6.98132e-05,-0.581963,1.18649,-3.49066e-05,1.35193,-6.98132e-05,0,0,0,0,0,0,-0.03,0.052,-0.132,0,0,0,-5.95,30.919,-12.754,-3.787,0.090176,0.009863
23:21:58:672442,6.98132e-05,-0.581963,1.18649,-3.49066e-05,1.35193,-6.98132e-05,0,0,0,0,0,0,-0.053,0.059,-0.143,0,0.001,0,-4.802,31.409,-12.488,-3.787,0.101448,0.053542
23:21:58:677552,6.98132e-05,-0.581963,1.18649,-3.49066e-05,1.35193,-6.98132e-05,0,0,0,0,0,0,-0.025,0,-0.096,0,0,0,-5.026,31.325,-12.432,-3.689,0.07045,-0.021135
23:21:58:682549,6.98132e-05,-0.581963,1.18649,-3.49066e-05,1.35193,-6.98132e-05,0,0,0,0,0,0,0.02,-0.045,-0.059,0,0,0,-5.019,31.248,-12.488,-3.689,-0.029589,0.08454
23:21:58:687551,6.98132e-05,-0.581963,1.18649,-3.49066e-05,1.35193,-6.98132e-05,0,0,0,0,0,0,0.06,-0.055,-0.017,0,0,0,-5.635,31.591,-12.089,-3.584,0.095812,0.026771
23:21:58:692674,6.98132e-05,-0.581963,1.18649,-3.49066e-05,1.35193,-6.98132e-05,0,0,0,0,0,0,0.045,-0.032,0.034,0,0,0,-5.026,31.15,-12.229,-3.381,0.191624,0.032407
23:21:58:697676,6.98132e-05,-0.581963,1.18649,-3.49066e-05,1.35193,-6.98132e-05,0,0,0,0,0,0,-0.008,-0.016,0.183,0,0,-0.001,-5.327,32.032,-12.803,-4.403,0.150763,0.116947
23:21:58:702840,6.98132e-05,-0.581963,1.18649,-3.49066e-05,1.35193,-6.98132e-05,0,0,0,0,0,0,-0.028,-0.027,0.271,0,0,-0.002,-5.852,31.031,-12.642,-3.787,0.073268,0.026771
23:21:58:707821,6.98132e-05,-0.581963,1.18649,-3.49066e-05,1.35193,-6.98132e-05,0,0,0,0,0,0,-0.01,-0.034,0.235,0,0,-0.002,-5.236,31.073,-12.663,-3.892,0.187397,0.094403
23:21:58:712922,6.98132e-05,-0.581963,1.18649,-3.49066e-05,1.35193,-6.98132e-05,0,0,0,0,0,0,0.025,-0.003,0.022,0,0,0,-5.635,30.653,-12.684,-3.892,0.138082,0.038043
23:21:58:717966,6.98132e-05,-0.581963,1.18649,-3.49066e-05,1.35193,-6.98132e-05,0,0,0,0,0,0,0.034,0.014,-0.079,0,0,0.001,-4.921,31.087,-13.069,-4.095,0.092994,0.045088
23:21:58:722906,6.98132e-05,-0.581963,1.18649,-3.49066e-05,1.35193,-6.98132e-05,0,0,0,0,0,0,0.027,0.002,-0.033,0,0,0,-5.74,31.591,-12.502,-3.584,0.07045,0.023953
23:21:58:728049,6.98132e-05,-0.581963,1.18649,-3.49066e-05,1.35193,-6.98132e-05,0,0,0,0,0,0,0.025,-0.019,0.074,0,0,0,-5.852,31.29,-12.908,-3.892,-0.004227,0
23:21:58:733173,6.98132e-05,-0.581963,1.18649,-3.49066e-05,1.35193,-6.98132e-05,0,0,0,0,0,0,0.033,-0.027,0.16,0,0,-0.001,-5.334,31.605,-12.488,-3.997,0.035225,-0.004227
23:21:58:738186,6.98132e-05,-0.581963,1.18649,-3.49066e-05,1.35193,-6.98132e-05,0,0,0,0,0,0,0.029,-0.007,0.121,0,0,-0.001,-5.026,32.081,-12.824,-3.486,0.059178,0
23:21:58:743186,6.98132e-05,-0.581963,1.18649,-3.49066e-05,1.35193,-6.98132e-05,0,0,0,0,0,0,-0.007,0.031,-0.005,0,0,0,-5.222,31.374,-12.145,-3.787,0.083131,0.064814
23:21:58:748312,6.98132e-05,-0.581963,1.18649,-3.49066e-05,1.35193,-6.98132e-05,0,0,0,0,0,0,-0.037,0.038,-0.056,0,0,0,-5.53,31.192,-12.677,-3.787,0.083131,0.102857
23:21:58:753295,6.98132e-05,-0.581963,1.18649,-3.49066e-05,1.35193,-6.98132e-05,0,0,0,0,0,0,-0.04,0.013,-0.003,0,0,0,-5.019,31.71,-12.425,-3.787,0.038043,0.087358
23:21:58:758430,6.98132e-05,-0.581963,1.18649,-3.49066e-05,1.35193,-6.98132e-05,0,0,0,0,0,0,-0.007,-0.009,0.09,0,0,-0.001,-5.327,31.864,-12.775,-3.997,0.181761,0.026771
23:21:58:763438,6.98132e-05,-0.581963,1.18649,-3.49066e-05,1.35193,-6.98132e-05,0,0,0,0,0,0,0.051,-0.011,0.148,0,0,-0.001,-5.544,31.787,-12.432,-3.689,0.07045,-0.035225
23:21:58:768562,6.98132e-05,-0.581963,1.18649,-3.49066e-05,1.35193,-6.98132e-05,0,0,0,0,0,0,0.065,0.013,0.043,0,0,0,-5.852,31.521,-12.544,-4.2,0.064814,-0.001409
23:21:58:773547,6.98132e-05,-0.581963,1.18649,-3.49066e-05,1.35193,-6.98132e-05,0,0,0,0,0,0,0.041,0.057,-0.274,0,0,0.002,-5.53,31.276,-12.558,-4.095,0.078904,0.038043
23:21:58:778698,6.98132e-05,-0.581963,1.18649,-3.49066e-05,1.35193,-6.98132e-05,0,0,0,0,0,0,0.02,0.066,-0.462,0,0,0.003,-5.649,32.081,-12.677,-3.689,0.114129,0.061996
23:21:58:783673,6.98132e-05,-0.581963,1.18649,-3.49066e-05,1.35193,-6.98132e-05,0,0,0,0,0,0,0.017,0.042,-0.527,0,0,0.004,-5.53,30.786,-12.516,-4.305,0.094403,0.138082
23:21:58:788795,6.98132e-05,-0.581963,1.18649,-3.49066e-05,1.35193,-6.98132e-05,0,0,0,0,0,0,0.031,0.018,-0.436,0,0,0.003,-5.544,31.024,-12.32,-3.787,-0.009863,0.040861
23:21:58:793793,6.98132e-05,-0.581963,1.18649,-3.49066e-05,1.35193,-6.98132e-05,0,0,0,0,0,0,0.045,0.002,-0.24,0.001,0,0.001,-4.606,30.786,-12.873,-4.095,0.109902,-0.018317
23:21:58:798938,6.98132e-05,-0.581963,1.18649,-3.49066e-05,1.35193,-6.98132e-05,0,0,0,0,0,0,0.043,0.012,-0.153,0.001,0,0,-5.117,32.053,-11.998,-3.486,0.081722,-0.021135
23:21:58:803920,6.98132e-05,-0.581963,1.18649,-3.49066e-05,1.35193,-6.98132e-05,0,0,0,0,0,0,0.04,0.04,-0.133,0,0,0,-5.859,31.304,-12.285,-3.787,0.185988,0.128219
23:21:58:808935,6.98132e-05,-0.581963,1.18649,-3.49066e-05,1.35193,-6.98132e-05,0,0,0,0,0,0,0.056,0.04,-0.166,0,0,0.001,-5.229,31.395,-12.18,-3.892,0.091585,0.040861
23:21:58:814078,6.98132e-05,-0.581963,1.18649,-3.49066e-05,1.35193,-6.98132e-05,0,0,0,0,0,0,0.066,0.017,-0.138,0,0,0.001,-4.802,31.031,-12.712,-3.178,0.187397,0.097221
23:21:58:819079,6.98132e-05,-0.581963,1.18649,-3.49066e-05,1.35193,-6.98132e-05,0,0,0,0,0,0,0.053,-0.024,0.011,0,0,0,-5.222,31.276,-12.754,-3.997,0.122583,0.023953
23:21:58:824005,6.98132e-05,-0.581963,1.18649,-3.49066e-05,1.35193,-6.98132e-05,0,0,0,0,0,0,0.033,-0.038,0.101,0,0,0,-5.628,31.619,-13.167,-3.276,0.107084,-0.012681
23:21:58:829169,6.98132e-05,-0.581963,1.18649,-3.49066e-05,1.35193,-6.98132e-05,0,0,0,0,0,0,0.028,-0.028,0.031,0,0,0,-5.53,31.458,-12.341,-3.787,0.054951,-0.007045
23:21:58:834184,6.98132e-05,-0.581963,1.18649,-3.49066e-05,1.35193,-6.98132e-05,0,0,0,0,0,0,0.051,-0.008,-0.17,0,0,0.001,-5.642,31.591,-12.229,-4.2,0.118356,-0.040861
23:21:58:839259,6.98132e-05,-0.581963,1.18649,-3.49066e-05,1.35193,-6.98132e-05,0,0,0,0,0,0,0.087,0.03,-0.505,0.001,0,0.004,-5.117,31.29,-13.09,-3.584,0.067632,0.021135
23:21:58:844245,6.98132e-05,-0.581963,1.18649,-3.49066e-05,1.35193,-6.98132e-05,0,0,0,0,0,0,0.088,0.052,-0.591,0.001,0,0.005,-5.012,31.605,-12.355,-3.178,0.138082,0.038043
23:21:58:849425,6.98132e-05,-0.581963,1.18649,-3.49066e-05,1.35193,-6.98132e-05,0,0,0,0,0,0,0.05,0.062,-0.416,0.001,0,0.003,-5.649,31.346,-12.376,-3.787,0.129628,0.018317
23:21:58:854367,6.98132e-05,-0.581963,1.18649,-3.49066e-05,1.35193,-6.98132e-05,0,0,0,0,0,0,0.015,0.049,-0.179,0,0,0.001,-5.432,31.346,-12.684,-4.095,0.109902,-0.078904
23:21:58:859549,6.98132e-05,-0.581963,1.18649,-3.49066e-05,1.35193,-6.98132e-05,0,0,0,0,0,0,-0.027,0.024,0.086,0,0,0,-5.537,31.43,-12.292,-3.584,0.150763,0.015499
23:21:58:864562,6.98132e-05,-0.581963,1.18649,-3.49066e-05,1.35193,-6.98132e-05,0,0,0,0,0,0,-0.041,0.023,0.078,0,0,0,-4.921,31.36,-13.202,-4.095,0.142309,0.108493
23:21:58:869668,6.98132e-05,-0.581963,1.18649,-3.49066e-05,1.35193,-6.98132e-05,0,0,0,0,0,0,-0.028,0.046,-0.192,0,0,0.001,-6.265,31.031,-13.104,-3.787,0.129628,0.128219
23:21:58:874672,6.98132e-05,-0.581963,1.18649,-3.49066e-05,1.35193,-6.98132e-05,0,0,0,0,0,0,0,0.056,-0.384,0,0,0.003,-5.747,30.793,-13.167,-3.276,0.085949,-0.047906
23:21:58:879793,6.98132e-05,-0.581963,1.18649,-3.49066e-05,1.35193,-6.98132e-05,0,0,0,0,0,0,0.039,0.036,-0.408,0,0,0.003,-5.012,31.752,-12.656,-3.381,0.207123,0.125401
23:21:58:884737,6.98132e-05,-0.581963,1.18649,-3.49066e-05,1.35193,-6.98132e-05,0,0,0,0,0,0,0.047,0.01,-0.247,0,0,0.001,-5.215,31.29,-12.943,-3.381,0.122583,0.004227
23:21:58:889942,5.23599e-05,-0.581963,1.18649,-3.49066e-05,1.35193,-6.98132e-05,0,0,0,0,0,0,0.031,-0.007,-0.017,0,0,0,-5.446,31.045,-12.95,-3.892,0.001409,0.043679
23:21:58:894947,5.23599e-05,-0.581963,1.18649,-3.49066e-05,1.35193,-6.98132e-05,0,0,0,0,0,0,-0.001,0.008,-0.025,0,0,0,-5.012,31.066,-12.593,-3.486,0.159217,-0.023953
23:21:58:900054,5.23599e-05,-0.581963,1.18649,-3.49066e-05,1.35193,-6.98132e-05,0,0,0,0,0,0,-0.027,0.019,-0.086,0,0,0,-5.313,30.835,-12.873,-3.584,0.201487,0.001409
23:21:58:905057,5.23599e-05,-0.581963,1.18649,-3.49066e-05,1.35193,-6.98132e-05,0,0,0,0,0,0,-0.052,0.009,-0.054,0,0,0,-5.222,32.018,-13.111,-3.486,0.166262,0.061996
23:21:58:910185,5.23599e-05,-0.581963,1.18649,-3.49066e-05,1.35193,-6.98132e-05,0,0,0,0,0,0,-0.05,-0.007,0.039,0,0,-0.001,-4.69,31.801,-12.229,-3.584,0.12681,0.043679
23:21:58:915129,5.23599e-05,-0.581963,1.18649,-3.49066e-05,1.35193,-6.98132e-05,0,0,0,0,0,0,-0.015,-0.017,0.093,0,0,-0.001,-5.019,31.654,-12.628,-3.584,0.114129,-0.023953
23:21:58:920292,5.23599e-05,-0.581963,1.18649,-3.49066e-05,1.35193,-6.98132e-05,0,0,0,0,0,0,0.015,-0.001,0.002,0,0,0,-5.131,31.213,-12.264,-4.095,0.142309,0
23:21:58:925256,5.23599e-05,-0.581963,1.18649,-3.49066e-05,1.35193,-6.98132e-05,0,0,0,0,0,0,0.051,0.036,-0.217,0,0,0.001,-4.802,31.689,-13.02,-3.584,0.149354,0.050724
23:21:58:930431,5.23599e-05,-0.581963,1.18649,-3.49066e-05,1.35193,-6.98132e-05,0,0,0,0,0,0,0.065,0.051,-0.304,0.001,0,0.002,-5.621,31.003,-12.46,-3.787,0.159217,-0.021135
23:21:58:935380,5.23599e-05,-0.581963,1.18649,-3.49066e-05,1.35193,-6.98132e-05,0,0,0,0,0,0,0.081,0.044,-0.261,0.001,0,0.002,-5.733,30.933,-12.481,-3.787,0.12681,0
23:21:58:940359,5.23599e-05,-0.581963,1.18649,-3.49066e-05,1.35193,-6.98132e-05,0,0,0,0,0,0,0.086,0.031,-0.157,0,0,0.001,-4.816,30.702,-12.908,-3.689,0.166262,-0.029589
23:21:58:945543,5.23599e-05,-0.581963,1.18649,-3.49066e-05,1.35193,-6.98132e-05,0,0,0,0,0,0,0.076,0.024,-0.003,0,0,0,-5.341,31.472,-12.803,-3.892,0.194442,0.061996
23:21:58:950501,5.23599e-05,-0.581963,1.18649,-3.49066e-05,1.35193,-6.98132e-05,0,0,0,0,0,0,0.053,0.028,0.066,0,0,-0.001,-5.754,30.982,-12.446,-3.997,0.119765,-0.021135
23:21:58:955486,5.23599e-05,-0.581963,1.18649,-3.49066e-05,1.35193,-6.98132e-05,0,0,0,0,0,0,0,0.028,0.103,0,0,-0.001,-5.838,31.458,-12.684,-3.276,0.078904,0.081722
23:21:58:960664,5.23599e-05,-0.581963,1.18649,-3.49066e-05,1.35193,-6.98132e-05,0,0,0,0,0,0,-0.03,0.02,0.07,0,0,-0.001,-5.747,31.815,-11.802,-3.997,0.173307,-0.026771
23:21:58:965789,5.23599e-05,-0.581963,1.18649,-3.49066e-05,1.35193,-6.98132e-05,0,0,0,0,0,0,-0.038,0.007,-0.052,0,0,0,-5.544,31.472,-12.775,-3.381,0.118356,0.026771
23:21:58:970733,5.23599e-05,-0.581963,1.18649,-3.49066e-05,1.35193,-6.98132e-05,0,0,0,0,0,0,-0.015,0.004,-0.131,0.001,0,0,-5.026,32.186,-12.488,-3.892,0.054951,0.073268
23:21:58:975927,5.23599e-05,-0.581963,1.18649,-3.49066e-05,1.35193,-6.98132e-05,0,0,0,0,0,0,0.025,0.001,-0.144,0.001,0,0.001,-5.243,31.591,-12.768,-3.787,0.167671,0.076086
23:21:58:980911,5.23599e-05,-0.581963,1.18649,-3.49066e-05,1.35193,-6.98132e-05,0,0,0,0,0,0,0.022,-0.006,-0.068,0,0,0,-5.145,31.388,-12.824,-3.381,0.061996,0.059178
23:21:58:985862,5.23599e-05,-0.581963,1.18649,-3.49066e-05,1.35193,-6.98132e-05,0,0,0,0,0,0,-0.004,-0.011,-0.05,0,0,0,-5.663,31.752,-12.929,-3.689,0.138082,-0.038043
23:21:58:991054,5.23599e-05,-0.581963,1.18649,-3.49066e-05,1.35193,-6.98132e-05,0,0,0,0,0,0,-0.033,-0.005,-0.1,0,0,0.001,-5.236,31.472,-12.712,-3.486,0.173307,0.009863
23:21:58:996009,5.23599e-05,-0.581963,1.18649,-3.49066e-05,1.35193,-6.98132e-05,0,0,0,0,0,0,-0.026,0.002,-0.11,0,0,0.001,-5.432,32.137,-12.852,-3.787,0.081722,0.08454
23:21:59:1177,5.23599e-05,-0.581963,1.18649,-3.49066e-05,1.35193,-6.98132e-05,0,0,0,0,0,0,0.01,0.006,0,0,0,0,-5.439,32.018,-12.642,-3.892,0.102857,0.053542
23:21:59:6127,5.23599e-05,-0.581963,1.18649,-3.49066e-05,1.35193,-6.98132e-05,0,0,0,0,0,0,0.031,0.002,0.101,0,0,0,-5.019,31.129,-12.39,-3.787,0.153581,-0.007045
23:21:59:11301,5.23599e-05,-0.581963,1.18649,-3.49066e-05,1.35193,-6.98132e-05,0,0,0,0,0,0,0.042,0,0.116,0,0,-0.001,-4.585,31.759,-12.537,-3.486,0.138082,-0.018317
23:21:59:16289,5.23599e-05,-0.581963,1.18649,-3.49066e-05,1.35193,-6.98132e-05,0,0,0,0,0,0,0.038,0.004,0.028,0,0,0,-5.537,31.654,-12.096,-3.787,0.131037,-0.035225
23:21:59:21252,5.23599e-05,-0.581963,1.18649,-3.49066e-05,1.35193,-6.98132e-05,0,0,0,0,0,0,0.029,0.003,-0.06,0,0,0,-5.124,31.178,-12.145,-3.997,0.038043,-0.007045
23:21:59:26424,5.23599e-05,-0.581963,1.18649,-3.49066e-05,1.35193,-6.98132e-05,0,0,0,0,0,0,0.027,-0.006,-0.012,0,0,0,-4.907,31.801,-12.481,-3.584,0.064814,0.047906
23:21:59:31536,5.23599e-05,-0.581963,1.18649,-3.49066e-05,1.35193,-6.98132e-05,0,0,0,0,0,0,0.035,-0.022,0.107,0,0,0,-6.16,31.969,-12.663,-3.584,0.207123,0.012681
23:21:59:36547,5.23599e-05,-0.581963,1.18649,-3.49066e-05,1.35193,-6.98132e-05,0,0,0,0,0,0,0.044,-0.018,0.094,0,0,-0.001,-5.943,31.451,-12.537,-3.486,0.050724,-0.007045
23:21:59:41677,5.23599e-05,-0.581963,1.18649,-3.49066e-05,1.35193,-6.98132e-05,0,0,0,0,0,0,0.055,0.008,-0.094,0,0,0,-5.635,31.57,-12.306,-3.486,0.064814,0.073268
23:21:59:46681,5.23599e-05,-0.581963,1.18649,-3.49066e-05,1.35193,-6.98132e-05,0,0,0,0,0,0,0.057,0.023,-0.236,0,0,0.001,-5.138,31.465,-11.893,-3.584,0.061996,0.001409
23:21:59:51662,5.23599e-05,-0.581963,1.18649,-3.49066e-05,1.35193,-6.98132e-05,0,0,0,0,0,0,0.054,0.02,-0.323,0,0,0.001,-5.222,31.472,-12.313,-3.997,0.194442,0.105675
23:21:59:56785,5.23599e-05,-0.581963,1.18649,-3.49066e-05,1.35193,-6.98132e-05,0,0,0,0,0,0,0.049,0.008,-0.297,0,0,0.001,-4.914,30.849,-12.201,-3.486,0.170489,0.081722
23:21:59:61782,5.23599e-05,-0.581963,1.18649,-3.49066e-05,1.35193,-6.98132e-05,0,0,0,0,0,0,0.038,0,-0.203,0,0,0.001,-5.537,31.311,-12.642,-3.584,0.150763,0
23:21:59:66917,5.23599e-05,-0.581963,1.18649,-3.49066e-05,1.35193,-6.98132e-05,0,0,0,0,0,0,0.021,0.015,-0.11,0.001,0,0,-5.348,31.647,-11.865,-3.892,0.04227,0.07045
23:21:59:71938,5.23599e-05,-0.581963,1.18649,-3.49066e-05,1.35193,-6.98132e-05,0,0,0,0,0,0,0.015,0.031,-0.081,0.001,0,0,-5.432,30.667,-12.488,-3.787,0.135264,-0.023953
23:21:59:76908,5.23599e-05,-0.581963,1.18649,-3.49066e-05,1.35193,-6.98132e-05,0,0,0,0,0,0,0.027,0.04,-0.11,0,0,0,-5.467,31.773,-12.572,-3.486,0.174716,0.015499
23:21:59:82047,5.23599e-05,-0.581963,1.18649,-3.49066e-05,1.35193,-6.98132e-05,0,0,0,0,0,0,0.045,0.031,-0.142,0,0,0.001,-5.642,30.996,-12.264,-3.486,0.276164,0.171898
23:21:59:86998,5.23599e-05,-0.581963,1.18649,-3.49066e-05,1.35193,-6.98132e-05,0,0,0,0,0,0,0.06,0.005,-0.121,0,0,0.001,-5.236,31.458,-12.271,-3.486,0.190215,-0.004227
23:21:59:92170,5.23599e-05,-0.581963,1.18649,-3.49066e-05,1.35193,-6.98132e-05,0,0,0,0,0,0,0.05,-0.009,-0.065,0,0,0,-4.718,31.43,-13.671,-3.689,0.125401,0.081722
23:21:59:97157,5.23599e-05,-0.581963,1.18649,-3.49066e-05,1.35193,-6.98132e-05,0,0,0,0,0,0,0.019,-0.014,-0.027,0,0,0,-5.985,31.381,-12.677,-3.381,0.085949,0.053542
23:21:59:102299,5.23599e-05,-0.581963,1.18649,-3.49066e-05,1.35193,-6.98132e-05,0,0,0,0,0,0,0.004,-0.008,-0.059,0,0,0,-5.642,31.682,-11.823,-3.486,0.018317,0.078904
23:21:59:107313,5.23599e-05,-0.581963,1.18649,-3.49066e-05,1.35193,-6.98132e-05,0,0,0,0,0,0,0.011,0.003,-0.107,0,0,0,-5.754,31.283,-12.607,-3.584,0.066223,-0.053542
23:21:59:112432,5.23599e-05,-0.581963,1.18649,-3.49066e-05,1.35193,-6.98132e-05,0,0,0,0,0,0,0.03,0.01,-0.09,0,0,0.001,-5.425,31.003,-12.376,-3.584,-0.005636,0.061996
23:21:59:117354,5.23599e-05,-0.581963,1.18649,-3.49066e-05,1.35193,-6.98132e-05,0,0,0,0,0,0,0.053,0.02,-0.024,0,0,0,-5.327,31.346,-12.908,-2.765,0.054951,0.114129
23:21:59:122536,5.23599e-05,-0.581963,1.18649,-3.49066e-05,1.35193,-6.98132e-05,0,0,0,0,0,0,0.051,0.022,0,0,0,0,-5.215,31.283,-12.642,-2.968,0.050724,0.078904
23:21:59:127480,5.23599e-05,-0.581963,1.18649,-3.49066e-05,1.35193,-6.98132e-05,0,0,0,0,0,0,0.029,0.012,0.014,0,0,0,-5.019,31.283,-12.446,-3.892,0.053542,-0.035225
23:21:59:132656,5.23599e-05,-0.581963,1.18649,-3.49066e-05,1.35193,-6.98132e-05,0,0,0,0,0,0,0.018,-0.007,0.034,0,0,0,-5.117,30.814,-12.138,-3.381,0.166262,0.076086
23:21:59:137656,5.23599e-05,-0.581963,1.18649,-3.49066e-05,1.35193,-6.98132e-05,0,0,0,0,0,0,0.031,-0.038,0.053,0,0,0.001,-5.67,31.654,-13.055,-2.87,0.214168,-0.007045
23:21:59:142657,5.23599e-05,-0.581963,1.18649,-3.49066e-05,1.35193,-6.98132e-05,0,0,0,0,0,0,0.06,-0.038,0.002,0,0,0.001,-5.642,31.647,-12.264,-0.511,0.139491,0.08454
23:21:59:147727,5.23599e-05,-0.581963,1.18649,-3.49066e-05,1.35193,-6.98132e-05,0,0,0,0,0,0,0.098,0.006,-0.171,0,0,0.002,-4.893,31.346,-12.719,-3.381,0.162035,0.07045
23:21:59:152732,5.23599e-05,-0.581963,1.18649,-3.49066e-05,1.35193,-6.98132e-05,0,0,0,0,0,0,0.097,0.043,-0.263,0.001,0,0.002,-4.921,31.262,-12.096,-3.388,0.047906,0.029589
23:21:59:157855,5.23599e-05,-0.581963,1.18649,-3.49066e-05,1.35193,-6.98132e-05,0,0,0,0,0,0,0.047,0.058,-0.226,0.001,0,0.001,-5.327,31.738,-12.397,-3.283,0.066223,-0.047906
23:21:59:162907,5.23599e-05,-0.581963,1.18649,-3.49066e-05,1.35193,-6.98132e-05,0,0,0,0,0,0,0.005,0.043,-0.121,0,0,0,-5.327,31.052,-13.3,-4.186,0.033816,-0.009863
23:21:59:168031,5.23599e-05,-0.581963,1.18649,-3.49066e-05,1.35193,-6.98132e-05,0,0,0,0,0,0,-0.026,0.026,-0.039,0,0,0,-5.439,30.947,-13.104,-3.388,0.081722,0.023953
23:21:59:173027,5.23599e-05,-0.581963,1.18649,-3.49066e-05,1.35193,-6.98132e-05,0,0,0,0,0,0,-0.018,0.04,-0.104,0,0,0,-4.914,30.52,-12.943,-2.87,0.078904,0.07045
23:21:59:178157,5.23599e-05,-0.581963,1.18649,-3.49066e-05,1.35193,-6.98132e-05,0,0,0,0,0,0,-0.009,0.049,-0.145,0,0,0.001,-5.124,31.024,-12.915,-3.584,0.142309,0.021135
23:21:59:183190,5.23599e-05,-0.581963,1.18649,-3.49066e-05,1.35193,-6.98132e-05,0,0,0,0,0,0,-0.008,0.037,-0.146,0,0,0.001,-5.628,31.423,-11.984,-3.99,0.170489,0.012681
23:21:59:188282,5.23599e-05,-0.581963,1.18649,-3.49066e-05,1.35193,-6.98132e-05,0,0,0,0,0,0,-0.009,0.018,-0.164,0,0,0,-5.439,31.794,-12.446,-3.486,0.001409,0.073268
23:21:59:193280,5.23599e-05,-0.581963,1.18649,-3.49066e-05,1.35193,-6.98132e-05,0,0,0,0,0,0,-0.004,-0.005,-0.264,0,0,0.001,-5.432,31.542,-13.237,-3.591,0.074677,0.053542
23:21:59:198243,5.23599e-05,-0.581963,1.18649,-3.49066e-05,1.35193,-6.98132e-05,0,0,0,0,0,0,0,-0.012,-0.304,0,0,0.002,-5.341,31.479,-12.544,-4.193,0.114129,0.001409
23:21:59:203405,5.23599e-05,-0.581963,1.18649,-3.49066e-05,1.35193,-6.98132e-05,0,0,0,0,0,0,-0.007,-0.007,-0.199,0,0,0.001,-5.131,31.514,-12.733,-3.794,0.119765,0.059178
23:21:59:208533,5.23599e-05,-0.581963,1.18649,-3.49066e-05,1.35193,-6.98132e-05,0,0,0,0,0,0,-0.017,0.001,-0.055,0,0,0,-5.544,31.451,-12.537,-3.381,0.170489,0.023953
23:21:59:213533,5.23599e-05,-0.581963,1.18649,-3.49066e-05,1.35193,-6.98132e-05,0,0,0,0,0,0,-0.017,0.016,0.078,0,0,0,-5.117,31.563,-12.341,-3.885,0.018317,-0.035225
23:21:59:218672,5.23599e-05,-0.581963,1.18649,-3.49066e-05,1.35193,-6.98132e-05,0,0,0,0,0,0,-0.001,0.025,0.052,0,0,0,-5.649,30.884,-12.719,-3.885,0.057769,0.076086
23:21:59:223603,5.23599e-05,-0.581963,1.18649,-3.49066e-05,1.35193,-6.98132e-05,0,0,0,0,0,0,0.035,0.035,-0.075,0,0,0.001,-5.432,31.822,-12.397,-3.892,0.109902,0.023953
23:21:59:228664,5.23599e-05,-0.581963,1.18649,-3.49066e-05,1.35193,-6.98132e-05,0,0,0,0,0,0,0.048,0.034,-0.128,0,0,0.001,-5.432,31.409,-11.823,-3.584,0.138082,-0.081722
23:21:59:233726,5.23599e-05,-0.581963,1.18649,-3.49066e-05,1.35193,-6.98132e-05,0,0,0,0,0,0,0.035,0.008,-0.084,0,0,0,-5.012,30.688,-12.411,-3.388,0.136673,-0.029589
23:21:59:238744,5.23599e-05,-0.581963,1.18649,-3.49066e-05,1.35193,-6.98132e-05,0,0,0,0,0,0,0.016,-0.018,0.006,0,0,0,-5.425,30.968,-12.292,-3.682,0.143718,0.08454
23:21:59:243919,5.23599e-05,-0.581963,1.18649,-3.49066e-05,1.35193,-6.98132e-05,0,0,0,0,0,0,0.002,-0.044,0.149,0,0,-0.001,-4.704,31.647,-12.502,-3.885,-0.015499,0
23:21:59:248918,5.23599e-05,-0.581963,1.18649,-3.49066e-05,1.35193,-6.98132e-05,0,0,0,0,0,0,0.017,-0.033,0.194,0,0,-0.001,-5.537,30.884,-12.754,-3.787,0.057769,0.035225
23:21:59:254028,5.23599e-05,-0.581963,1.18649,-3.49066e-05,1.35193,-6.98132e-05,0,0,0,0,0,0,0.029,-0.011,0.135,0,0,0,-5.439,31.024,-12.642,-3.689,0.166262,0.05636
23:21:59:259045,5.23599e-05,-0.581963,1.18649,-3.49066e-05,1.35193,-6.98132e-05,0,0,0,0,0,0,0.031,0.019,-0.024,0,0,0,-4.515,31.262,-12.46,-3.689,0.19726,0.043679
23:21:59:264173,5.23599e-05,-0.581963,1.18649,-3.49066e-05,1.35193,-6.98132e-05,0,0,0,0,0,0,0.02,0.026,-0.077,0.001,0,0.001,-5.334,31.031,-12.894,-4.305,0.105675,0.100039
23:21:59:269152,5.23599e-05,-0.581963,1.18649,-3.49066e-05,1.35193,-6.98132e-05,0,0,0,0,0,0,-0.012,0.015,0.028,0.001,0,0,-5.222,30.604,-12.46,-4.095,0.15499,0.061996
23:21:59:274293,5.23599e-05,-0.581963,1.18649,-3.49066e-05,1.35193,-6.98132e-05,0,0,0,0,0,0,-0.046,0.003,0.156,0,0,-0.001,-5.208,31.717,-12.11,-3.276,0.119765,0.045088
23:21:59:279291,5.23599e-05,-0.581963,1.18649,-3.49066e-05,1.35193,-6.98132e-05,0,0,0,0,0,0,-0.107,0.003,0.202,0,0,-0.003,-5.425,31.605,-12.523,-3.794,0.200078,-0.023953
23:21:59:284414,5.23599e-05,-0.581963,1.18649,-3.49066e-05,1.35193,-6.98132e-05,0,0,0,0,0,0,-0.14,0.02,0.099,0,0,-0.003,-5.845,31.43,-12.397,-4.193,0.129628,0.07045
23:21:59:289399,5.23599e-05,-0.581963,1.18649,-3.49066e-05,1.35193,-6.98132e-05,0,0,0,0,0,0,-0.149,0.049,-0.069,0,0.001,-0.002,-4.816,30.562,-12.971,-3.899,0.185988,-0.064814
23:21:59:294351,5.23599e-05,-0.581963,1.18649,-3.49066e-05,1.35193,-6.98132e-05,0,0,0,0,0,0,-0.125,0.055,-0.084,0,0.001,-0.001,-5.222,31.598,-13.125,-3.584,0.11272,0.032407
23:21:59:299542,5.23599e-05,-0.581963,1.18649,-3.49066e-05,1.35193,-6.98132e-05,0,0,0,0,0,0,-0.059,0.046,-0.019,0,0,0,-5.215,32.046,-13.069,-3.787,0.038043,-0.009863
23:21:59:304667,5.23599e-05,-0.581963,1.18649,-3.49066e-05,1.35193,-6.98132e-05,0,0,0,0,0,0,-0.015,0.043,-0.023,0,0,0,-5.747,30.751,-12.32,-3.591,0.088767,-0.059178
23:21:59:309649,5.23599e-05,-0.581963,1.18649,-3.49066e-05,1.35193,-6.98132e-05,0,0,0,0,0,0,0.028,0.045,-0.11,0,0,0.001,-5.446,31.598,-11.984,-3.08,0.129628,-0.07045
23:21:59:314666,5.23599e-05,-0.581963,1.18649,-3.49066e-05,1.35193,-6.98132e-05,0,0,0,0,0,0,0.042,0.039,-0.129,0,0,0.001,-5.656,31.99,-12.411,-3.892,0.085949,0.012681
23:21:59:319792,5.23599e-05,-0.581963,1.18649,-3.49066e-05,1.35193,-6.98132e-05,0,0,0,0,0,0,0.052,0.006,-0.032,0,0,0,-5.453,31.458,-13.034,-3.486,0.194442,0.018317
23:21:59:324772,5.23599e-05,-0.581963,1.18649,-3.49066e-05,1.35193,-6.98132e-05,0,0,0,0,0,0,0.057,-0.018,0.043,0,0,0,-5.327,31.563,-12.292,-3.591,0.133855,0.05636
23:21:59:329915,5.23599e-05,-0.581963,1.18649,-3.49066e-05,1.35193,-6.98132e-05,0,0,0,0,0,0,0.053,-0.038,0.047,0,0,0,-4.914,31.29,-13.02,-3.493,0.059178,-0.007045
23:21:59:334901,5.23599e-05,-0.581963,1.18649,-3.49066e-05,1.35193,-6.98132e-05,0,0,0,0,0,0,0.034,-0.031,-0.039,0,0,0,-5.537,30.1,-12.754,-3.892,0.218395,-0.015499
23:21:59:340037,5.23599e-05,-0.581963,1.18649,-3.49066e-05,1.35193,-6.98132e-05,0,0,0,0,0,0,0.016,-0.014,-0.085,0,0,0,-5.544,30.779,-11.893,-3.591,0.246575,0.059178
23:21:59:345042,5.23599e-05,-0.581963,1.18649,-3.49066e-05,1.35193,-6.98132e-05,0,0,0,0,0,0,-0.002,0.024,-0.125,0,0,0,-5.124,31.717,-12.355,-3.689,0.033816,-0.047906
23:21:59:350165,5.23599e-05,-0.581963,1.18649,-3.49066e-05,1.35193,-6.98132e-05,0,0,0,0,0,0,0,0.051,-0.153,0,0,0,-4.69,31.493,-12.908,-3.794,0.102857,0.009863
23:21:59:355154,5.23599e-05,-0.581963,1.18649,-3.49066e-05,1.35193,-6.98132e-05,0,0,0,0,0,0,0.032,0.069,-0.196,0,0,0.001,-5.334,31.171,-12.81,-3.689,0.102857,0.009863
23:21:59:360109,5.23599e-05,-0.581963,1.18649,-3.49066e-05,1.35193,-6.98132e-05,0,0,0,0,0,0,0.058,0.063,-0.221,0,0,0.001,-5.334,31.997,-12.215,-3.185,0.088767,0.043679
23:21:59:365288,5.23599e-05,-0.581963,1.18649,-3.49066e-05,1.35193,-6.98132e-05,0,0,0,0,0,0,0.075,0.049,-0.271,0,0,0.002,-5.964,30.835,-12.642,-3.997,0.105675,-0.035225
23:21:59:370278,5.23599e-05,-0.581963,1.18649,-3.49066e-05,1.35193,-6.98132e-05,0,0,0,0,0,0,0.069,0.049,-0.306,0.001,0,0.002,-5.026,31.458,-12.985,-3.892,0.143718,0.047906
23:21:59:375414,5.23599e-05,-0.581963,1.18649,-3.49066e-05,1.35193,-6.98132e-05,0,0,0,0,0,0,0.059,0.052,-0.296,0.001,0,0.003,-4.928,31.563,-12.971,-3.892,0.142309,0.029589
23:21:59:380418,5.23599e-05,-0.581963,1.18649,-3.49066e-05,1.35193,-6.98132e-05,0,0,0,0,0,0,0.059,0.045,-0.233,0,0,0.002,-4.802,31.857,-12.145,-3.479,0.125401,0.021135
23:21:59:385545,5.23599e-05,-0.581963,1.18649,-3.49066e-05,1.35193,-6.98132e-05,0,0,0,0,0,0,0.05,0.026,-0.145,0,0,0.002,-5.026,31.311,-12.789,-3.689,0.102857,-0.032407
23:21:59:390523,5.23599e-05,-0.581963,1.18649,-3.49066e-05,1.35193,-6.98132e-05,0,0,0,0,0,0,0.025,0.02,-0.139,0,0,0.001,-4.935,31.108,-12.712,-4.095,0.150763,0.007045
23:21:59:395664,5.23599e-05,-0.581963,1.18649,-3.49066e-05,1.35193,-6.98132e-05,0,0,0,0,0,0,-0.039,0.018,-0.162,0,0,0,-5.103,31.136,-12.327,-3.997,0.118356,0.015499
23:21:59:400663,5.23599e-05,-0.581963,1.18649,-3.49066e-05,1.35193,-6.98132e-05,0,0,0,0,0,0,-0.08,0.009,-0.139,0,0,0,-4.487,31.339,-12.621,-3.99,0.046497,0.029589
23:21:59:405771,5.23599e-05,-0.581963,1.18649,-3.49066e-05,1.35193,-6.98132e-05,0,0,0,0,0,0,-0.103,-0.012,-0.071,0,0,-0.001,-5.04,32.158,-12.845,-3.689,0.094403,0
23:21:59:410731,5.23599e-05,-0.581963,1.18649,-3.49066e-05,1.35193,-6.98132e-05,0,0,0,0,0,0,-0.085,-0.018,-0.072,0,0,-0.001,-5.656,31.682,-12.264,-3.591,0.215577,0.050724
23:21:59:415734,5.23599e-05,-0.581963,1.18649,-3.49066e-05,1.35193,-8.72665e-05,0,0,0,0,0,0,-0.034,-0.005,-0.157,0,0,0,-5.124,31.493,-12.306,-3.997,0.170489,-0.045088
23:21:59:420910,5.23599e-05,-0.581963,1.18649,-3.49066e-05,1.35193,-8.72665e-05,0,0,0,0,0,0,-0.002,0.003,-0.137,0,0,0,-5.761,31.766,-12.215,-3.584,0.105675,0.001409
23:21:59:425850,5.23599e-05,-0.581963,1.18649,-3.49066e-05,1.35193,-8.72665e-05,0,0,0,0,0,0,0.001,-0.002,0.005,0,0,0,-5.327,31.815,-13.629,-3.99,0.085949,0.04227
23:21:59:431038,5.23599e-05,-0.581963,1.18649,-3.49066e-05,1.35193,-8.72665e-05,0,0,0,0,0,0,0.003,-0.014,0.236,0,0,-0.002,-5.432,31.738,-12.642,-3.997,0.156399,-0.011272
23:21:59:436024,5.23599e-05,-0.581963,1.18649,-3.49066e-05,1.35193,-8.72665e-05,0,0,0,0,0,0,0.013,-0.011,0.241,0,0,-0.002,-4.501,31.395,-13.251,-3.892,0.035225,0.040861
23:21:59:441159,5.23599e-05,-0.581963,1.18649,-3.49066e-05,1.35193,-8.72665e-05,0,0,0,0,0,0,0.027,0.01,-0.004,0,0,0,-5.523,30.611,-12.292,-3.584,0.071859,0.111311
23:21:59:446092,5.23599e-05,-0.581963,1.18649,-3.49066e-05,1.35193,-8.72665e-05,0,0,0,0,0,0,0.026,0.028,-0.185,0.001,0,0,-5.32,30.94,-12.271,-3.794,0.119765,0.038043
23:21:59:451271,5.23599e-05,-0.581963,1.18649,-3.49066e-05,1.35193,-8.72665e-05,0,0,0,0,0,0,0.018,0.05,-0.252,0.001,0,0.001,-5.74,30.863,-12.04,-3.794,0.131037,0
23:21:59:456214,5.23599e-05,-0.581963,1.18649,-3.49066e-05,1.35193,-8.72665e-05,0,0,0,0,0,0,0.026,0.06,-0.181,0.001,0,0.001,-4.697,32.13,-12.572,-3.682,0.136673,0.067632
23:21:59:461395,5.23599e-05,-0.581963,1.18649,-3.49066e-05,1.35193,-8.72665e-05,0,0,0,0,0,0,0.06,0.065,-0.073,0.001,0,0.001,-4.823,31.542,-12.481,-3.486,0.111311,0.090176
23:21:59:466395,5.23599e-05,-0.581963,1.18649,-3.49066e-05,1.35193,-8.72665e-05,0,0,0,0,0,0,0.076,0.058,-0.046,0,0,0.001,-5.642,31.542,-12.019,-4.095,0.016908,0.061996
23:21:59:471521,5.23599e-05,-0.581963,1.18649,-3.49066e-05,1.35193,-8.72665e-05,0,0,0,0,0,0,0.064,0.034,-0.029,0,0,0,-5.964,31.535,-12.32,-4.095,0.156399,0.007045
23:21:59:476520,5.23599e-05,-0.581963,1.18649,-3.49066e-05,1.35193,-8.72665e-05,0,0,0,0,0,0,0.037,0.014,-0.01,0,0,0,-5.53,30.856,-12.229,-3.584,0.050724,-0.022544
23:21:59:481468,5.23599e-05,-0.581963,1.18649,-3.49066e-05,1.35193,-8.72665e-05,0,0,0,0,0,0,0.001,-0.008,0.009,0,0,0,-5.11,30.947,-12.11,-3.269,0.018317,0.12681
23:21:59:486616,5.23599e-05,-0.581963,1.18649,-3.49066e-05,1.35193,-8.72665e-05,0,0,0,0,0,0,-0.008,-0.013,0.003,0,0,0,-6.048,31.857,-12.733,-3.591,0.136673,0.008454
23:21:59:491784,5.23599e-05,-0.581963,1.18649,-3.49066e-05,1.35193,-8.72665e-05,0,0,0,0,0,0,-0.003,0.001,-0.012,0,0,0,-5.11,31.031,-12.18,-3.486,0.002818,0.040861
23:21:59:496712,5.23599e-05,-0.581963,1.18649,-3.49066e-05,1.35193,-8.72665e-05,0,0,0,0,0,0,0.009,0.019,-0.003,0,0,0,-5.026,31.43,-12.733,-4.2,0.083131,0.109902
23:21:59:501909,5.23599e-05,-0.581963,1.18649,-3.49066e-05,1.35193,-8.72665e-05,0,0,0,0,0,0,0.04,0.032,0.061,0,0,0,-5.453,31.262,-12.481,-3.584,-0.001409,0.04227
23:21:59:506860,5.23599e-05,-0.581963,1.18649,-3.49066e-05,1.35193,-8.72665e-05,0,0,0,0,0,0,0.062,0.022,0.111,0,0,0,-4.921,31.535,-12.908,-3.479,0.131037,-0.030998
23:21:59:511864,5.23599e-05,-0.581963,1.18649,-3.49066e-05,1.35193,-8.72665e-05,0,0,0,0,0,0,0.081,-0.007,0.086,0,0,0,-5.635,31.514,-12.327,-4.2,0.066223,-0.018317
23:21:59:517034,5.23599e-05,-0.581963,1.18649,-3.49066e-05,1.35193,-8.72665e-05,0,0,0,0,0,0,0.077,-0.018,-0.1,0,0,0,-5.649,30.898,-12.558,-3.885,0.153581,-0.011272
23:21:59:522032,5.23599e-05,-0.581963,1.18649,-3.49066e-05,1.35193,-8.72665e-05,0,0,0,0,0,0,0.062,-0.008,-0.236,0,0,0.001,-5.117,31.024,-12.488,-3.479,0.215577,0.061996
23:21:59:527179,5.23599e-05,-0.581963,1.18649,-3.49066e-05,1.35193,-8.72665e-05,0,0,0,0,0,0,0.027,0.017,-0.303,0,0,0.002,-5.537,31.339,-12.467,-3.479,0.15499,0.035225
23:21:59:532089,5.23599e-05,-0.581963,1.18649,-3.49066e-05,1.35193,-8.72665e-05,0,0,0,0,0,0,0.005,0.03,-0.264,0.001,0,0.002,-5.439,30.912,-12.25,-3.892,0.101448,-0.061996
23:21:59:537271,5.23599e-05,-0.581963,1.18649,-3.49066e-05,1.35193,-8.72665e-05,0,0,0,0,0,0,0.003,0.043,-0.224,0.001,0,0.001,-5.418,30.52,-12.593,-4.298,0.107084,-0.078904
23:21:59:542266,5.23599e-05,-0.581963,1.18649,-3.49066e-05,1.35193,-8.72665e-05,0,0,0,0,0,0,0.03,0.047,-0.249,0.001,0,0.001,-5.544,30.996,-12.642,-4.186,0.163444,0.04227
23:21:59:547407,5.23599e-05,-0.581963,1.18649,-3.49066e-05,1.35193,-8.72665e-05,0,0,0,0,0,0,0.081,0.042,-0.268,0.001,0,0.002,-5.53,31.08,-12.215,-3.381,0.138082,0.071859
23:21:59:552410,5.23599e-05,-0.581963,1.18649,-3.49066e-05,1.35193,-8.72665e-05,0,0,0,0,0,0,0.094,0.03,-0.213,0.001,0,0.001,-5.229,30.485,-12.593,-3.878,-0.049315,-0.008454
23:21:59:557354,5.23599e-05,-0.581963,1.18649,-3.49066e-05,1.35193,-8.72665e-05,0,0,0,0,0,0,0.066,0.014,-0.092,0.001,0,0,-5.635,31.199,-11.879,-3.689,0.061996,0.073268
23:21:59:562515,5.23599e-05,-0.581963,1.18649,-3.49066e-05,1.35193,-8.72665e-05,0,0,0,0,0,0,0.033,0.014,-0.066,0,0,0,-5.222,31.311,-12.789,-3.99,0.122583,-0.047906
23:21:59:567658,5.23599e-05,-0.581963,1.18649,-3.49066e-05,1.35193,-8.72665e-05,0,0,0,0,0,0,0.002,0.028,-0.132,0,0,0.001,-4.816,31.052,-12.355,-3.591,0.114129,0.007045
23:21:59:572620,5.23599e-05,-0.581963,1.18649,-3.49066e-05,1.35193,-8.72665e-05,0,0,0,0,0,0,-0.001,0.033,-0.16,0,0,0.001,-5.11,31.283,-12.621,-3.472,0.153581,-0.025362
23:21:59:577664,5.23599e-05,-0.581963,1.18649,-3.49066e-05,1.35193,-8.72665e-05,0,0,0,0,0,0,-0.003,0.009,-0.053,0,0,0,-5.341,31.423,-12.838,-3.787,0.081722,-0.046497
23:21:59:582795,5.23599e-05,-0.581963,1.18649,-3.49066e-05,1.35193,-8.72665e-05,0,0,0,0,0,0,-0.009,-0.017,0.059,0,0,-0.001,-5.11,30.716,-12.775,-3.906,0.047906,-0.001409
23:21:59:587728,5.23599e-05,-0.581963,1.18649,-3.49066e-05,1.35193,-8.72665e-05,0,0,0,0,0,0,-0.006,-0.03,0.046,0,0,-0.001,-5.04,31.535,-12.397,-3.374,0.143718,0.129628
23:21:59:592888,5.23599e-05,-0.581963,1.18649,-3.49066e-05,1.35193,-8.72665e-05,0,0,0,0,0,0,0.015,-0.008,-0.127,0.001,0,0,-5.026,31.283,-12.908,-3.486,0.150763,0.067632
23:21:59:597840,5.23599e-05,-0.581963,1.18649,-3.49066e-05,1.35193,-8.72665e-05,0,0,0,0,0,0,0.06,0.031,-0.385,0.001,0,0.002,-5.439,31.878,-12.04,-3.997,0.125401,0.115538
23:21:59:603018,5.23599e-05,-0.581963,1.18649,-3.49066e-05,1.35193,-8.72665e-05,0,0,0,0,0,0,0.068,0.017,-0.291,0.001,0,0.002,-5.544,30.576,-12.488,-3.892,0.218395,0.025362
23:21:59:607996,5.23599e-05,-0.581963,1.18649,-3.49066e-05,1.35193,-8.72665e-05,0,0,0,0,0,0,0.046,-0.012,-0.08,0,0,0.001,-5.761,30.968,-13.286,-3.486,0.074677,0.081722
23:21:59:613170,5.23599e-05,-0.581963,1.18649,-3.49066e-05,1.35193,-8.72665e-05,0,0,0,0,0,0,0.009,-0.026,0.077,0,0,0,-5.243,30.996,-11.844,-3.479,0.077495,0.090176
23:21:59:618100,5.23599e-05,-0.581963,1.18649,-3.49066e-05,1.35193,-8.72665e-05,0,0,0,0,0,0,0.002,0,-0.034,0,0,0,-5.439,31.136,-12.733,-3.689,0.061996,0.105675
23:21:59:623157,5.23599e-05,-0.581963,1.18649,-3.49066e-05,1.35193,-8.72665e-05,0,0,0,0,0,0,0.008,0.047,-0.302,0,0,0.002,-5.964,31.283,-12.74,-3.584,0.157808,0.064814
23:21:59:628277,5.23599e-05,-0.581963,1.18649,-3.49066e-05,1.35193,-8.72665e-05,0,0,0,0,0,0,0.008,0.055,-0.337,0,0,0.002,-5.537,31.311,-12.285,-3.892,0.061996,-0.004227
23:21:59:633263,5.23599e-05,-0.581963,1.18649,-3.49066e-05,1.35193,-8.72665e-05,0,0,0,0,0,0,-0.002,0.027,-0.114,0,0,0,-5.754,31.276,-12.712,-3.283,0.12681,0.129628
23:21:59:638406,5.23599e-05,-0.581963,1.18649,-3.49066e-05,1.35193,-8.72665e-05,0,0,0,0,0,0,-0.003,0.004,0.061,0,0,0,-5.432,31.276,-12.194,-3.801,0.129628,0.045088
23:21:59:643389,5.23599e-05,-0.581963,1.18649,-3.49066e-05,1.35193,-8.72665e-05,0,0,0,0,0,0,0.017,-0.01,0.124,0,0,-0.001,-5.551,30.828,-12.859,-3.787,0.114129,0.061996
23:21:59:648539,5.23599e-05,-0.581963,1.18649,-3.49066e-05,1.35193,-8.72665e-05,0,0,0,0,0,0,0.036,-0.01,0.043,0,0,0,-5.446,31.962,-12.663,-4.403,0.074677,0.067632
23:21:59:653530,5.23599e-05,-0.581963,1.18649,-3.49066e-05,1.35193,-8.72665e-05,0,0,0,0,0,0,0.051,-0.016,-0.078,0,0,0.001,-5.649,32.074,-12.838,-3.801,0.09863,-0.021135
23:21:59:658654,5.23599e-05,-0.581963,1.18649,-3.49066e-05,1.35193,-8.72665e-05,0,0,0,0,0,0,0.046,-0.027,-0.073,0,0,0.001,-4.473,31.024,-12.264,-3.5,0.009863,-0.02818
23:21:59:663652,5.23599e-05,-0.581963,1.18649,-3.49066e-05,1.35193,-8.72665e-05,0,0,0,0,0,0,0.024,-0.049,0.069,0,0,0,-4.907,31.962,-12.642,-3.486,0.125401,-0.018317
23:21:59:668795,5.23599e-05,-0.581963,1.18649,-3.49066e-05,1.35193,-8.72665e-05,0,0,0,0,0,0,0.007,-0.059,0.187,0,0,0,-5.768,31.276,-12.502,-2.884,0.074677,0.04227
23:21:59:673736,5.23599e-05,-0.581963,1.18649,-3.49066e-05,1.35193,-8.72665e-05,0,0,0,0,0,0,-0.007,-0.047,0.226,0,0,-0.001,-5.761,31.024,-12.46,-3.577,0.059178,-0.008454
23:21:59:678710,5.23599e-05,-0.581963,1.18649,-3.49066e-05,1.35193,-8.72665e-05,0,0,0,0,0,0,-0.005,-0.015,0.098,0,0,-0.001,-4.816,31.052,-12.11,-3.794,0.214168,-0.007045
23:21:59:683905,5.23599e-05,-0.581963,1.18649,-3.49066e-05,1.35193,-8.72665e-05,0,0,0,0,0,0,0.009,0.045,-0.221,0,0,0.001,-5.236,31.227,-13.216,-3.899,0.114129,-0.095812
23:21:59:688890,5.23599e-05,-0.581963,1.18649,-3.49066e-05,1.35193,-8.72665e-05,0,0,0,0,0,0,0.021,0.07,-0.36,0,0,0.002,-5.215,31.423,-12.908,-3.591,0.101448,0.04227
23:21:59:694007,5.23599e-05,-0.581963,1.18649,-3.49066e-05,1.35193,-8.72665e-05,0,0,0,0,0,0,0.027,0.049,-0.265,0,0,0.001,-5.446,31.052,-12.096,-3.577,0.057769,0.156399
23:21:59:699025,5.23599e-05,-0.581963,1.18649,-3.49066e-05,1.35193,-8.72665e-05,0,0,0,0,0,0,0.017,-0.015,0.065,0,0,0,-5.537,30.975,-12.789,-3.885,0.214168,-0.069041
23:21:59:703977,5.23599e-05,-0.581963,1.18649,-3.49066e-05,1.35193,-8.72665e-05,0,0,0,0,0,0,0.008,-0.044,0.231,0,0,-0.002,-5.558,31.514,-12.376,-4.004,0.146536,0.061996
23:21:59:709136,5.23599e-05,-0.581963,1.18649,-3.49066e-05,1.35193,-8.72665e-05,0,0,0,0,0,0,0.01,-0.033,0.225,0,0,-0.002,-5.439,32.053,-12.824,-3.479,0,0.059178
23:21:59:714258,5.23599e-05,-0.581963,1.18649,-3.49066e-05,1.35193,-8.72665e-05,0,0,0,0,0,0,0.027,-0.004,0.077,0,0,-0.001,-5.446,31.339,-12.768,-3.381,0.066223,0
23:21:59:719256,5.23599e-05,-0.581963,1.18649,-3.49066e-05,1.35193,-8.72665e-05,0,0,0,0,0,0,0.061,0.017,-0.188,0,0,0.001,-5.222,30.058,-12.537,-3.598,0.105675,0.052133
23:21:59:724262,5.23599e-05,-0.581963,1.18649,-3.49066e-05,1.35193,-8.72665e-05,0,0,0,0,0,0,0.077,0.006,-0.284,0,0,0.002,-5.74,31.227,-12.642,-4.284,0.030998,0.021135
23:21:59:729384,5.23599e-05,-0.581963,1.18649,-3.49066e-05,1.35193,-8.72665e-05,0,0,0,0,0,0,0.074,-0.027,-0.215,0,0,0.001,-5.033,31.451,-11.662,-3.584,0.131037,0.040861
23:21:59:734384,5.23599e-05,-0.581963,1.18649,-3.49066e-05,1.35193,-8.72665e-05,0,0,0,0,0,0,0.055,-0.037,-0.067,0,0,0,-5.733,30.688,-12.943,-3.591,0.12681,0.052133
23:21:59:739525,5.23599e-05,-0.581963,1.18649,-3.49066e-05,1.35193,-8.72665e-05,0,0,0,0,0,0,0.019,-0.016,0.11,0,0,0,-5.019,30.884,-12.285,-3.486,0.033816,0.066223
23:21:59:744508,5.23599e-05,-0.581963,1.18649,-3.49066e-05,1.35193,-8.72665e-05,0,0,0,0,0,0,0.008,0.008,0.093,0,0,0,-5.418,30.996,-12.887,-3.591,0.131037,-0.035225
23:21:59:749632,5.23599e-05,-0.581963,1.18649,-3.49066e-05,1.35193,-8.72665e-05,0,0,0,0,0,0,0.025,0.028,-0.138,0,0,0.001,-5.229,31.451,-12.628,-3.78,0.133855,-0.004227
23:21:59:754581,5.23599e-05,-0.581963,1.18649,-3.49066e-05,1.35193,-8.72665e-05,0,0,0,0,0,0,0.05,0.023,-0.337,0,0,0.002,-5.761,31.227,-12.145,-3.591,0.081722,-0.004227
23:21:59:759633,5.23599e-05,-0.581963,1.18649,-3.49066e-05,1.35193,-8.72665e-05,0,0,0,0,0,0,0.071,0.003,-0.527,0,0,0.004,-5.866,31.934,-12.285,-3.689,0.102857,-0.025362
23:21:59:764758,5.23599e-05,-0.581963,1.18649,-3.49066e-05,1.35193,-8.72665e-05,0,0,0,0,0,0,0.063,0.002,-0.529,0.001,0,0.004,-5.425,32.13,-13.272,-3.794,0.209941,0.057769
23:21:59:769757,5.23599e-05,-0.581963,1.18649,-3.49066e-05,1.35193,-8.72665e-05,0,0,0,0,0,0,0.032,0.02,-0.371,0.001,0,0.002,-5.453,31.703,-12.516,-3.675,0.085949,-0.025362
23:21:59:774878,5.23599e-05,-0.581963,1.18649,-3.49066e-05,1.35193,-8.72665e-05,0,0,0,0,0,0,0.014,0.031,-0.222,0.001,0,0,-5.453,31.591,-12.824,-3.689,0.074677,-0.005636
23:21:59:779883,5.23599e-05,-0.581963,1.18649,-3.49066e-05,1.35193,-8.72665e-05,0,0,0,0,0,0,-0.001,0.027,-0.068,0,0,0,-5.103,31.682,-12.824,-3.794,0.07045,0.025362
23:21:59:784884,5.23599e-05,-0.581963,1.18649,-3.49066e-05,1.35193,-8.72665e-05,0,0,0,0,0,0,-0.007,0.013,-0.05,0,0,0,-4.41,31.087,-12.201,-3.276,0.119765,0.040861
23:21:59:789971,5.23599e-05,-0.581963,1.18649,-3.49066e-05,1.35193,-8.72665e-05,0,0,0,0,0,0,-0.01,-0.003,-0.108,0,0,0,-4.718,32.165,-12.376,-3.983,0.146536,0.045088
23:21:59:795149,5.23599e-05,-0.581963,1.18649,-3.49066e-05,1.35193,-8.72665e-05,0,0,0,0,0,0,0,0,-0.178,0,0,0.001,-5.446,31.08,-12.208,-3.283,0.207123,0.057769
23:21:59:800127,5.23599e-05,-0.581963,1.18649,-3.49066e-05,1.35193,-8.72665e-05,0,0,0,0,0,0,0.01,0.01,-0.204,0,0,0.001,-4.935,32.109,-12.74,-3.388,0.083131,0.061996
23:21:59:805081,5.23599e-05,-0.581963,1.18649,-3.49066e-05,1.35193,-8.72665e-05,0,0,0,0,0,0,0.018,0.019,-0.197,0,0,0.001,-5.103,32.389,-12.929,-3.185,0.066223,-0.01409
23:21:59:810256,5.23599e-05,-0.581963,1.18649,-3.49066e-05,1.35193,-8.72665e-05,0,0,0,0,0,0,0.013,0.012,-0.162,0,0,0.001,-5.411,31.423,-11.417,-4.004,0.064814,0.007045
23:21:59:815206,5.23599e-05,-0.581963,1.18649,-3.49066e-05,1.35193,-8.72665e-05,0,0,0,0,0,0,0.006,-0.006,-0.099,0,0,0.001,-5.012,31.5,-12.754,-3.486,0.160626,-0.032407
23:21:59:820396,5.23599e-05,-0.581963,1.18649,-3.49066e-05,1.35193,-8.72665e-05,0,0,0,0,0,0,0.009,-0.012,-0.07,0,0,0.001,-5.208,30.968,-12.04,-3.696,0.170489,0.059178
23:21:59:825378,5.23599e-05,-0.581963,1.18649,-3.49066e-05,1.35193,-8.72665e-05,0,0,0,0,0,0,0.019,-0.006,-0.029,0,0,0,-4.914,30.632,-12.411,-3.591,-0.016908,-0.059178
23:21:59:830505,5.23599e-05,-0.581963,1.18649,-3.49066e-05,1.35193,-8.72665e-05,0,0,0,0,0,0,0.019,0.001,0.011,0,0,0,-5.425,30.737,-12.712,-3.689,0.12681,0.045088
23:21:59:835470,5.23599e-05,-0.581963,1.18649,-3.49066e-05,1.35193,-8.72665e-05,0,0,0,0,0,0,0.005,0.002,0.051,0,0,-0.001,-5.537,31.136,-12.075,-3.591,0.214168,-0.018317
23:21:59:840641,5.23599e-05,-0.581963,1.18649,-3.49066e-05,1.35193,-8.72665e-05,0,0,0,0,0,0,-0.003,-0.001,0.032,0,0,0,-5.649,31.934,-12.572,-3.486,0.142309,0.129628
23:21:59:845633,5.23599e-05,-0.581963,1.18649,-3.49066e-05,1.35193,-8.72665e-05,0,0,0,0,0,0,-0.005,-0.004,-0.012,0,0,0,-4.921,31.654,-12.642,-3.381,0.163444,0.032407
23:21:59:850753,5.23599e-05,-0.581963,1.18649,-3.49066e-05,1.35193,-8.72665e-05,0,0,0,0,0,0,-0.002,-0.002,0.011,0,0,0,-5.551,30.856,-12.411,-3.584,0.170489,0.064814
23:21:59:855762,5.23599e-05,-0.581963,1.18649,-3.49066e-05,1.35193,-8.72665e-05,0,0,0,0,0,0,0.005,0.007,0.123,0,0,0,-5.215,31.052,-12.229,-3.388,0.146536,-0.04227
23:21:59:860881,5.23599e-05,-0.581963,1.18649,-3.49066e-05,1.35193,-8.72665e-05,0,0,0,0,0,0,0.015,0.015,0.156,0,0,0,-5.964,31.507,-12.264,-3.08,0.078904,0.125401
23:21:59:865878,5.23599e-05,-0.581963,1.18649,-3.49066e-05,1.35193,-8.72665e-05,0,0,0,0,0,0,0.038,0.023,0.041,0,0,0,-5.964,30.912,-12.712,-3.682,0.119765,-0.018317
23:21:59:870898,5.23599e-05,-0.581963,1.18649,-3.49066e-05,1.35193,-8.72665e-05,0,0,0,0,0,0,0.049,0.021,-0.09,0,0,0,-5.425,31.906,-12.887,-3.388,0.133855,0.001409
23:21:59:876031,5.23599e-05,-0.581963,1.18649,-3.49066e-05,1.35193,-8.72665e-05,0,0,0,0,0,0,0.038,0.001,-0.178,0,0,0.001,-5.229,31.367,-13.125,-4.606,0.136673,0.023953
23:21:59:881005,5.23599e-05,-0.581963,1.18649,-3.49066e-05,1.35193,-8.72665e-05,0,0,0,0,0,0,0.005,-0.028,-0.078,0,0,0,-5.313,31.199,-12.425,-4.298,0.022544,-0.030998
23:21:59:886007,5.23599e-05,-0.581963,1.18649,-3.49066e-05,1.35193,-8.72665e-05,0,0,0,0,0,0,-0.012,-0.038,0.002,0,0,0,-5.523,31.619,-12.264,-3.675,0.105675,0.02818
23:21:59:891128,5.23599e-05,-0.581963,1.18649,-3.49066e-05,1.35193,-8.72665e-05,0,0,0,0,0,0,-0.013,-0.023,0.007,0,0,0,-5.138,31.703,-11.557,-3.185,0.005636,0.054951
23:21:59:896127,5.23599e-05,-0.581963,1.18649,-3.49066e-05,1.35193,-8.72665e-05,0,0,0,0,0,0,-0.001,-0.001,-0.062,0,0,0,-5.145,31.108,-12.46,-3.381,-0.012681,0.004227
23:21:59:901251,5.23599e-05,-0.581963,1.18649,-3.49066e-05,1.35193,-8.72665e-05,0,0,0,0,0,0,0.019,0.019,-0.151,0,0,0.001,-5.663,31.794,-12.306,-3.388,0.033816,0.095812
23:21:59:906256,5.23599e-05,-0.581963,1.18649,-3.49066e-05,1.35193,-8.72665e-05,0,0,0,0,0,0,0.03,0.015,-0.132,0,0,0.001,-5.019,31.339,-12.285,-3.787,0.187397,0.057769
23:21:59:911394,5.23599e-05,-0.581963,1.18649,-3.49066e-05,1.35193,-8.72665e-05,0,0,0,0,0,0,0.035,0,-0.017,0,0,0,-5.432,31.619,-12.376,-3.388,0.187397,0.078904
23:21:59:916393,5.23599e-05,-0.581963,1.18649,-3.49066e-05,1.35193,-8.72665e-05,0,0,0,0,0,0,0.031,0,0.019,0,0,0,-4.809,31.339,-13.09,-3.899,0.185988,0.073268
23:21:59:921502,5.23599e-05,-0.581963,1.18649,-3.49066e-05,1.35193,-8.72665e-05,0,0,0,0,0,0,0.019,0.018,-0.101,0,0,0,-5.362,31.136,-12.215,-3.5,0.087358,0.059178
23:21:59:926501,5.23599e-05,-0.581963,1.18649,-3.49066e-05,1.35193,-8.72665e-05,0,0,0,0,0,0,0.016,0.029,-0.238,0,0,0,-5.558,32.102,-12.096,-3.577,0.173307,0.049315
23:21:59:931446,5.23599e-05,-0.581963,1.18649,-3.49066e-05,1.35193,-8.72665e-05,0,0,0,0,0,0,0.025,0.025,-0.313,0,0,0.001,-5.74,31.423,-12.446,-3.682,0.143718,0.069041
23:21:59:936578,5.23599e-05,-0.581963,1.18649,-3.49066e-05,1.35193,-8.72665e-05,0,0,0,0,0,0,0.036,0.015,-0.241,0,0,0,-5.327,31.822,-12.824,-3.997,0.047906,0
23:21:59:941758,5.23599e-05,-0.581963,1.18649,-3.49066e-05,1.35193,-8.72665e-05,0,0,0,0,0,0,0.047,0.014,-0.129,0,0,0,-5.327,31.339,-12.159,-3.486,0.081722,-0.025362
23:21:59:946759,5.23599e-05,-0.581963,1.18649,-3.49066e-05,1.35193,-8.72665e-05,0,0,0,0,0,0,0.049,0.026,-0.147,0,0,0,-5.11,31.479,-13.09,-4.011,0.15499,0.09863
23:21:59:951892,5.23599e-05,-0.581963,1.18649,-3.49066e-05,1.35193,-8.72665e-05,0,0,0,0,0,0,0.05,0.043,-0.277,0,0,0.001,-5.824,31.906,-12.824,-3.983,0.187397,0.007045
23:21:59:956822,5.23599e-05,-0.581963,1.18649,-3.49066e-05,1.35193,-8.72665e-05,0,0,0,0,0,0,0.044,0.046,-0.359,0,0,0.003,-5.131,31.374,-12.642,-3.696,0.087358,0.007045
23:21:59:962015,5.23599e-05,-0.581963,1.18649,-3.49066e-05,1.35193,-8.72665e-05,0,0,0,0,0,0,0.01,0.044,-0.431,0,0,0.003,-5.026,31.983,-12.124,-3.885,0.256438,-0.011272
23:21:59:966946,5.23599e-05,-0.581963,1.18649,-3.49066e-05,1.35193,-8.72665e-05,0,0,0,0,0,0,-0.042,0.046,-0.445,0,0,0.002,-5.432,31.311,-12.432,-3.486,0.12681,0.088767
23:21:59:972127,5.23599e-05,-0.581963,1.18649,-3.49066e-05,1.35193,-8.72665e-05,0,0,0,0,0,0,-0.06,0.045,-0.408,0,0,0.001,-5.026,31.563,-12.537,-3.493,0.242348,0.018317
23:21:59:977075,5.23599e-05,-0.581963,1.18649,-3.49066e-05,1.35193,-8.72665e-05,0,0,0,0,0,0,-0.032,0.024,-0.307,0,0,0.001,-5.74,31.227,-12.502,-3.899,0.209941,0.01409
23:21:59:982129,5.23599e-05,-0.581963,1.18649,-3.49066e-05,1.35193,-8.72665e-05,0,0,0,0,0,0,0.007,0.003,-0.271,0.001,0,0.001,-5.131,30.541,-12.74,-3.892,0.085949,0.102857
23:21:59:987196,5.23599e-05,-0.581945,1.18649,-3.49066e-05,1.35193,-8.72665e-05,0,0,0,0,0,0,0.048,-0.015,-0.313,0.001,0,0.002,-5.628,31.647,-12.873,-3.794,0.057769,0.021135
23:21:59:992252,5.23599e-05,-0.581945,1.18649,-3.49066e-05,1.35193,-8.72665e-05,0,0,0,0,0,0,0.05,-0.013,-0.354,0.001,0,0.002,-6.076,31.423,-13.069,-3.479,0.064814,0.09863
23:21:59:997317,5.23599e-05,-0.581945,1.18649,-3.49066e-05,1.35193,-8.72665e-05,0,0,0,0,0,0,0.028,0.004,-0.316,0,0,0.001,-5.439,31.507,-12.628,-3.99,0.078904,0.100039
23:22:00:2375,5.23599e-05,-0.581945,1.18649,-3.49066e-05,1.35193,-8.72665e-05,0,0,0,0,0,0,0.009,0.02,-0.224,0,0,0,-5.026,31.591,-12.327,-3.71,-0.033816,0.122583
23:22:00:7500,5.23599e-05,-0.581945,1.18649,-3.49066e-05,1.35193,-8.72665e-05,0,0,0,0,0,0,-0.011,0.043,-0.085,0,0,0,-5.334,31.339,-12.684,-3.29,0.033816,0.078904
23:22:00:12496,5.23599e-05,-0.581945,1.18649,-3.49066e-05,1.35193,-8.72665e-05,0,0,0,0,0,0,-0.017,0.052,-0.043,0,0,0,-5.11,31.367,-12.719,-3.794,0.066223,0.122583
23:22:00:17461,5.23599e-05,-0.581945,1.18649,-3.49066e-05,1.35193,-8.72665e-05,0,0,0,0,0,0,-0.009,0.047,-0.035,0,0,0,-5.215,32.018,-12.376,-3.689,0.170489,-0.052133
23:22:00:22648,5.23599e-05,-0.581945,1.18649,-3.49066e-05,1.35193,-8.72665e-05,0,0,0,0,0,0,0,0.032,-0.01,0,0,0,-5.866,30.653,-12.712,-3.388,0.166262,0.091585
23:22:00:27760,5.23599e-05,-0.581945,1.18649,-3.49066e-05,1.35193,-8.72665e-05,0,0,0,0,0,0,-0.003,0.016,0.091,0,0,0,-4.914,30.94,-12.712,-3.591,0.153581,0.032407
23:22:00:32757,5.23599e-05,-0.581945,1.18649,-3.49066e-05,1.35193,-8.72665e-05,0,0,0,0,0,0,-0.015,0.017,0.153,0,0,-0.001,-4.809,31.675,-13.111,-3.479,0.143718,0.073268
23:22:00:37887,5.23599e-05,-0.581945,1.18649,-3.49066e-05,1.35193,-8.72665e-05,0,0,0,0,0,0,-0.021,0.021,0.131,0,0,-0.001,-5.327,31.255,-12.362,-3.29,0.149354,0.009863
23:22:00:42890,5.23599e-05,-0.581945,1.18649,-3.49066e-05,1.35193,-8.72665e-05,0,0,0,0,0,0,-0.008,0.016,0.048,0,0,0,-5.439,31.479,-12.18,-3.584,0.167671,0.102857
23:22:00:47877,5.23599e-05,-0.581945,1.18649,-3.49066e-05,1.35193,-8.72665e-05,0,0,0,0,0,0,0.005,0,-0.054,0,0,0,-5.215,31.647,-12.502,-3.689,0.088767,0.095812
23:22:00:52998,5.23599e-05,-0.581945,1.18649,-3.49066e-05,1.35193,-8.72665e-05,0,0,0,0,0,0,-0.016,-0.002,-0.065,0,0,0,-5.53,31.22,-11.949,-3.486,0.090176,-0.047906
23:22:00:58001,5.23599e-05,-0.581945,1.18649,-3.49066e-05,1.35193,-8.72665e-05,0,0,0,0,0,0,-0.037,0.007,-0.058,0,0,0,-5.754,31.367,-12.327,-3.479,0.159217,0.122583
23:22:00:63122,5.23599e-05,-0.581945,1.18649,-3.49066e-05,1.35193,-8.72665e-05,0,0,0,0,0,0,-0.039,0.018,-0.053,0,0,0,-5.537,30.681,-12.523,-4.088,0.149354,-0.025362
23:22:00:68134,5.23599e-05,-0.581945,1.18649,-3.49066e-05,1.35193,-8.72665e-05,0,0,0,0,0,0,-0.018,0.013,-0.033,0,0,-0.001,-5.236,31.192,-12.215,-3.689,0.052133,-0.052133
23:22:00:73244,5.23599e-05,-0.581945,1.18649,-3.49066e-05,1.35193,-8.72665e-05,0,0,0,0,0,0,0.016,-0.001,0.018,0,0,-0.001,-5.026,31.367,-13.132,-3.283,0.188806,0.04227
23:22:00:78259,5.23599e-05,-0.581945,1.18649,-3.49066e-05,1.35193,-8.72665e-05,0,0,0,0,0,0,0.028,0,0.027,0,0,-0.001,-5.327,31.367,-11.984,-3.78,0.122583,0.076086
23:22:00:83370,5.23599e-05,-0.581945,1.18649,-3.49066e-05,1.35193,-8.72665e-05,0,0,0,0,0,0,0.026,0.025,-0.014,0,0,0,-5.537,31.024,-12.446,-3.388,0.107084,0.085949
23:22:00:88331,5.23599e-05,-0.581945,1.18649,-3.49066e-05,1.35193,-8.72665e-05,0,0,0,0,0,0,0.019,0.042,-0.05,0,0,0,-5.103,30.856,-12.446,-3.787,0.167671,-0.035225
23:22:00:93372,5.23599e-05,-0.581945,1.18649,-3.49066e-05,1.35193,-8.72665e-05,0,0,0,0,0,0,0.01,0.048,-0.108,0,0,0,-5.635,30.793,-12.901,-3.794,0.108493,0.030998
23:22:00:98494,5.23599e-05,-0.581945,1.18649,-3.49066e-05,1.35193,-8.72665e-05,0,0,0,0,0,0,0.01,0.049,-0.166,0,0,0.001,-5.446,30.366,-12.593,-3.283,0.111311,0.142309
23:22:00:103622,5.23599e-05,-0.581945,1.18649,-3.49066e-05,1.35193,-8.72665e-05,0,0,0,0,0,0,0.023,0.061,-0.229,0,0,0.001,-5.754,31.22,-12.887,-3.584,0.085949,0.067632
23:22:00:108638,5.23599e-05,-0.581945,1.18649,-3.49066e-05,1.35193,-8.72665e-05,0,0,0,0,0,0,0.036,0.068,-0.187,0,0,0.001,-5.215,31.507,-12.572,-3.801,0.04227,0
23:22:00:113634,5.23599e-05,-0.581945,1.18649,-3.49066e-05,1.35193,-8.72665e-05,0,0,0,0,0,0,0.05,0.057,-0.021,0,0,0,-5.537,30.968,-12.264,-3.794,0.102857,-0.085949
23:22:00:118760,5.23599e-05,-0.581945,1.18649,-3.49066e-05,1.35193,-8.72665e-05,0,0,0,0,0,0,0.048,0.042,0.044,0,0,0,-5.11,31.619,-12.313,-4.2,0.085949,-0.008454
23:22:00:123749,5.23599e-05,-0.581945,1.18649,-3.49066e-05,1.35193,-8.72665e-05,0,0,0,0,0,0,0.027,0.036,-0.028,0,0,0,-5.628,31.99,-12.642,-3.388,0,-0.038043
23:22:00:128882,5.23599e-05,-0.581945,1.18649,-3.49066e-05,1.35193,-8.72665e-05,0,0,0,0,0,0,0.007,0.044,-0.109,0,0,0,-4.809,30.198,-12.95,-3.584,0.061996,0.001409
23:22:00:133887,5.23599e-05,-0.581945,1.18649,-3.49066e-05,1.35193,-8.72665e-05,0,0,0,0,0,0,-0.008,0.043,-0.104,0,0,0,-5.32,31.311,-12.971,-4.298,0.069041,0.032407
23:22:00:139026,5.23599e-05,-0.581945,1.18649,-3.49066e-05,1.35193,-8.72665e-05,0,0,0,0,0,0,0.015,0.021,-0.022,0,0,0,-5.516,31.962,-12.439,-3.983,0.108493,-0.004227
23:22:00:144008,5.23599e-05,-0.581945,1.18649,-3.49066e-05,1.35193,-8.72665e-05,0,0,0,0,0,0,0.046,0.012,-0.031,0,0,0,-5.446,31.451,-12.278,-4.102,0.123992,0.025362
23:22:00:149134,5.23599e-05,-0.581945,1.18649,-3.49066e-05,1.35193,-8.72665e-05,0,0,0,0,0,0,0.074,0.022,-0.109,0,0,0.001,-5.432,31.647,-12.656,-3.5,0.111311,0.01409
23:22:00:154116,5.23599e-05,-0.581945,1.18649,-3.49066e-05,1.35193,-8.72665e-05,0,0,0,0,0,0,0.059,0.03,-0.1,0,0,0.001,-5.236,31.22,-12.607,-3.682,0.095812,-0.030998
23:22:00:159256,5.23599e-05,-0.581945,1.18649,-3.49066e-05,1.35193,-8.72665e-05,0,0,0,0,0,0,0.009,0.012,0.022,0,0,0,-5.852,31.108,-12.292,-3.479,0.063405,0.076086
23:22:00:164191,5.23599e-05,-0.581945,1.18649,-3.49066e-05,1.35193,-8.72665e-05,0,0,0,0,0,0,-0.008,-0.01,0.055,0,0,0,-5.026,32.018,-12.936,-3.5,0.121174,0.109902
23:22:00:169192,5.23599e-05,-0.581945,1.18649,-3.49066e-05,1.35193,-8.72665e-05,0,0,0,0,0,0,0.008,-0.017,-0.12,0,0,0.001,-5.432,30.793,-12.922,-3.892,0.202896,0.032407
23:22:00:174383,5.23599e-05,-0.581945,1.18649,-3.49066e-05,1.35193,-8.72665e-05,0,0,0,0,0,0,0.03,0.007,-0.317,0,0,0.002,-5.628,30.828,-12.313,-3.479,0.122583,0.01409
23:22:00:179381,5.23599e-05,-0.581945,1.18649,-3.49066e-05,1.35193,-8.72665e-05,0,0,0,0,0,0,0.04,0.058,-0.486,0.001,0,0.003,-4.697,31.192,-12.264,-3.591,0.118356,0.073268
23:22:00:184515,5.23599e-05,-0.581945,1.18649,-3.49066e-05,1.35193,-8.72665e-05,0,0,0,0,0,0,0.037,0.074,-0.479,0.001,0,0.003,-5.334,31.136,-12.18,-3.584,-0.001409,0.069041
23:22:00:189499,5.23599e-05,-0.581945,1.18649,-3.49066e-05,1.35193,-8.72665e-05,0,0,0,0,0,0,0.054,0.069,-0.437,0.001,0,0.003,-5.432,31.08,-12.838,-3.29,0.060587,0.018317
23:22:00:194631,5.23599e-05,-0.581945,1.18649,-3.49066e-05,1.35193,-8.72665e-05,0,0,0,0,0,0,0.077,0.063,-0.448,0.001,0,0.003,-5.138,30.821,-13.412,-3.99,0.022544,-0.011272
23:22:00:199631,5.23599e-05,-0.581945,1.18649,-3.49066e-05,1.35193,-8.72665e-05,0,0,0,0,0,0,0.084,0.066,-0.437,0.001,0,0.003,-5.537,30.996,-12.215,-3.08,0.163444,0.030998
23:22:00:204755,5.23599e-05,-0.581945,1.18649,-3.49066e-05,1.35193,-8.72665e-05,0,0,0,0,0,0,0.058,0.071,-0.36,0.001,0,0.002,-4.816,31.535,-12.215,-3.675,0.077495,0.061996
23:22:00:209703,5.23599e-05,-0.581945,1.18649,-3.49066e-05,1.35193,-8.72665e-05,0,0,0,0,0,0,0.018,0.072,-0.234,0,0,0.001,-5.642,31.339,-12.313,-4.291,0.066223,-0.025362
23:22:00:214880,5.23599e-05,-0.581945,1.18649,-3.49066e-05,1.35193,-8.72665e-05,0,0,0,0,0,0,0.025,0.066,-0.222,0,0,0.001,-5.656,31.108,-12.495,-3.591,0.076086,-0.008454
23:22:00:219824,5.23599e-05,-0.581945,1.18649,-3.49066e-05,1.35193,-8.72665e-05,0,0,0,0,0,0,0.081,0.05,-0.27,0,-0.001,0.001,-5.32,30.457,-12.922,-3.794,0.143718,0.143718
23:22:00:224824,5.23599e-05,-0.581945,1.18649,-3.49066e-05,1.35193,-8.72665e-05,0,0,0,0,0,0,0.109,0.038,-0.269,0,-0.001,0.001,-5.138,31.339,-12.229,-3.885,0.016908,0.08454
23:22:00:230004,5.23599e-05,-0.581945,1.18649,-3.49066e-05,1.35193,-8.72665e-05,0,0,0,0,0,0,0.081,0.034,-0.192,0,0,0.001,-4.928,31.024,-12.936,-3.682,0.078904,0.047906
23:22:00:235006,5.23599e-05,-0.581945,1.18649,-3.49066e-05,1.35193,-8.72665e-05,0,0,0,0,0,0,-0.001,0.04,-0.064,0,0,0,-6.069,31.339,-12.411,-3.689,0.073268,0.018317
