srisadhan/powerball/bin/HRI_project/2021/admittance/Non-stiff env/admittance_hf.csv
TimeStamp , Q1, Q2, Q3, Q4, Q5, Q6, dQ1, dQ2, dQ3, dQ4, dQ5, dQ6, Fx, Fy, Fz, Mx, My, Mz, Joint1_torque, Joint2_torque, Joint3_torque, Joint4_torque, Joint5_torque, Joint6_torque 
23:23:31:643803,8.72665e-05,-0.58212,1.18668,0,1.35198,-0.00595157,0,0.00174533,0,0,0,0,0,0,0,0,0,0,-5.754,31.619,-2.072,1.134,-0.414246,-0.321252
23:23:31:648833,8.72665e-05,-0.58212,1.1867,0,1.35198,-0.00595157,0,0,0,0,0,0,0,0,0,0,0,0,-4.823,32.165,-3.143,1.036,-0.353659,-0.350841
23:23:31:653769,8.72665e-05,-0.58212,1.1867,0,1.35198,-0.00595157,0,0,0,0,0,0,0,0,0,0,0,0,-5.334,31.661,-2.618,0.714,-0.2818,-0.381839
23:23:31:658953,8.72665e-05,-0.582102,1.1867,0,1.35198,-0.00595157,0,0,0,0,0,0,0,0,0,0,0,0,-5.943,32.298,-2.534,1.036,-0.395929,-0.2818
23:23:31:663941,8.72665e-05,-0.582102,1.1867,0,1.35198,-0.00595157,0,0,0,0,0,0,0,0,0,0,0,0,-5.838,32.592,-2.912,0.602,-0.312798,-0.221213
23:23:31:668893,8.72665e-05,-0.582102,1.1867,0,1.35198,-0.00595157,0,0,0,0,0,0,0,0,0,0,0,0,-5.642,32.613,-2.66,0.833,-0.259256,-0.266301
23:23:31:673997,8.72665e-05,-0.582102,1.1867,0,1.35198,-0.00595157,0,0,0,0,0,0,0,0,0,0,0,0,-5.53,32.669,-2.807,1.456,-0.401565,-0.32407
23:23:31:679194,8.72665e-05,-0.582102,1.1867,0,1.35198,-0.00563741,0,0,0,0,0,0.0444361,0,0,0,0,0,0,-5.131,31.717,-2.961,0.924,-0.308571,0.711545
23:23:31:684201,8.72665e-05,-0.582102,1.1867,0,1.35198,-0.00472984,0,0,0,0,0,0.122121,0,0,0,0,0,0,-5.537,31.885,-2.66,0.693,-0.335342,-0.939803
23:23:31:689177,8.72665e-05,-0.582102,1.1867,0,1.35198,-0.0047822,0,0,0,0,0,0.0366345,0,0,0,0,0,0,-5.537,31.948,-2.674,0.924,-0.369158,-0.362113
23:23:31:694305,8.72665e-05,-0.582102,1.1867,0,1.35198,-0.00488692,0,0,0,0,0,0.00322886,0,0,0,0,0,0,-5.635,32.214,-1.876,1.029,-0.256438,-0.204305
23:23:31:699318,8.72665e-05,-0.582102,1.1867,0,1.35198,-0.00486947,0,0,0,0,0,0.00352557,0,0,0,0,0,0,-5.432,31.927,-2.597,1.239,-0.321252,-0.355068
23:23:31:704441,8.72665e-05,-0.582102,1.1867,0,1.35198,-0.00486947,0,0,0,0,0,0,0,0,0,0,0,0,-5.432,32.606,-2.807,0.924,-0.280391,-0.198669
23:23:31:709390,8.72665e-05,-0.582102,1.1867,0,1.35198,-0.00486947,0,0,0,0,0,0,0,0,0,0,0,0,-6.251,32.27,-2.611,1.001,-0.304344,-0.174716
23:23:31:714567,8.72665e-05,-0.582102,1.1867,0,1.35198,-0.00486947,0,0,0,0,0,0,0,0,0,0,0,0,-5.229,32.046,-2.583,1.554,-0.284618,-0.091585
23:23:31:719534,8.72665e-05,-0.582102,1.1867,0,1.35198,-0.00486947,0,0,0,0,0,0,0,0,0,0,0,0,-5.635,32.179,-2.058,0.903,-0.271937,-0.208532
23:23:31:724514,8.72665e-05,-0.582102,1.1867,0,1.35198,-0.00486947,0,0,0,0,0,0,0,0,0,0,0,0,-5.635,31.878,-3.178,0.679,-0.412837,-0.119765
23:23:31:729684,8.72665e-05,-0.582102,1.1867,0,1.35198,-0.00486947,0,0,0,0,0,0,0,0,0,0,0,0,-5.432,32.2,-2.121,1.771,-0.288845,-0.287436
23:23:31:734638,8.72665e-05,-0.582102,1.1867,0,1.35198,-0.00486947,0,0,0,0,0,0,0,0,0,0,0,0,-6.146,32.074,-2.478,0.875,-0.349432,-0.100039
23:23:31:739831,8.72665e-05,-0.582102,1.1867,0,1.35198,-0.00486947,0,0,0,0,0,0,0,0,0,0,0,0,-5.838,32.802,-3.227,1.057,-0.424109,-0.180352
23:23:31:744796,8.72665e-05,-0.582102,1.1867,0,1.35198,-0.00486947,0,0,0,0,0,0,0,0,0,0,0,0,-5.838,32.802,-2.828,0.714,-0.369158,-0.249393
23:23:31:749939,8.72665e-05,-0.582102,1.1867,0,1.35198,-0.00486947,0,0,0,0,0,0,0,0,0,0,0,0,-5.74,31.843,-2.611,1.134,-0.390293,-0.228258
23:23:31:754887,8.72665e-05,-0.582085,1.1867,0,1.35198,-0.00486947,0,0,0,0,0,0,0,0,0,0,0,0,-5.327,32.592,-2.492,0.847,-0.329706,-0.157808
23:23:31:760065,8.72665e-05,-0.582085,1.1867,0,1.35197,-0.00486947,0,0,0,0,0,0,0,0,0,0,0,0,-5.838,32.291,-2.555,0.854,-0.393111,-0.290254
23:23:31:765052,8.72665e-05,-0.582085,1.1867,0,1.35197,-0.00486947,0,0,0,0,0,0,0,0,0,0,0,0,-5.432,32.529,-2.359,1.015,-0.376203,-0.170489
23:23:31:770171,6.98132e-05,-0.582085,1.1867,0,1.35197,-0.00486947,0,0,0,0,0,0,0,0,0,0,0,0,-5.635,31.717,-2.219,0.756,-0.291663,-0.222622
23:23:31:775187,6.98132e-05,-0.582085,1.1867,0,1.35197,-0.00486947,0,0,0,0,0,0,0,0,0,0,0,0,-5.74,31.675,-2.443,1.001,-0.294481,-0.069041
23:23:31:780294,6.98132e-05,-0.582085,1.1867,0,1.35197,-0.00486947,0,0,0,0,0,0,0,0,0,0,0,0,-5.432,32.802,-2.674,0.763,-0.25362,-0.188806
23:23:31:785241,6.98132e-05,-0.582085,1.1867,0,1.35197,-0.00486947,0,0,0,0,0,0,0,0,0,0,0,0,-5.642,31.759,-2.849,1.351,-0.26771,-0.109902
23:23:31:790246,6.98132e-05,-0.582085,1.1867,0,1.35197,-0.00486947,0,0,0,0,0,0,0,0,0,0,0,0,-5.838,32.081,-2.457,1.029,-0.360704,-0.153581
23:23:31:795426,6.98132e-05,-0.582085,1.18672,0,1.35197,-0.00486947,0,0,0,0,0,0,0,0,0,0,0,0,-5.124,31.857,-2.646,1.449,-0.417064,-0.212759
23:23:31:800383,6.98132e-05,-0.582085,1.18672,0,1.35197,-0.00486947,0,0,0,0,0,0,0,0,0,0,0,0,-6.258,31.913,-2.254,0.812,-0.410019,-0.123992
23:23:31:805545,6.98132e-05,-0.582085,1.18672,0,1.35197,-0.00486947,0,0,0,0,0,0,0,0,0,0,0,0,-6.153,31.745,-2.793,1.099,-0.286027,-0.212759
23:23:31:810674,6.98132e-05,-0.582085,1.18672,0,1.35197,-0.00486947,0,0,0,0,0,0,0,0,0,0,0,0,-5.432,31.808,-2.457,1.295,-0.400156,-0.150763
23:23:31:815670,6.98132e-05,-0.582085,1.18672,0,1.35197,-0.00486947,0,0,0,0,0,0,0,0,0,0,0,0,-5.74,32.081,-2.492,1.68,-0.286027,-0.232485
23:23:31:820668,6.98132e-05,-0.582085,1.18672,0,1.35197,-0.00486947,0,0,0,0,0,0,0,0,0,0,0,0,-5.74,31.794,-2.541,1.386,-0.395929,-0.276164
23:23:31:825633,6.98132e-05,-0.582085,1.18672,0,1.35197,-0.00486947,0,0,0,0,0,0,0,0,0,0,0,0,-5.74,31.808,-2.289,0.952,-0.308571,-0.177534
23:23:31:830796,6.98132e-05,-0.582085,1.18672,0,1.35197,-0.00486947,0,0,0,0,0,0,0,0,0,0,0,0,-5.74,32.242,-2.898,1.253,-0.381839,-0.153581
23:23:31:835740,6.98132e-05,-0.582085,1.18672,0,1.35197,-0.00486947,0,0,0,0,0,0,0,0,0,0,0,0,-5.425,32.081,-2.303,1.05,-0.2818,-0.133855
23:23:31:840919,6.98132e-05,-0.582085,1.18672,0,1.35197,-0.00486947,0,0,0,0,0,0,0,0,0,0,0,0,-5.642,32.144,-2.59,1.547,-0.322661,-0.238121
23:23:31:845907,6.98132e-05,-0.582085,1.18672,0,1.35197,-0.00486947,0,0,0,0,0,0,0,0,0,0,0,0,-5.628,31.29,-2.527,0.427,-0.33816,-0.091585
23:23:31:851059,6.98132e-05,-0.582085,1.18672,0,1.35197,-0.00486947,0,0,0,0,0,0,0,0,0,0,0,0,-5.327,31.304,-2.002,0.805,-0.498786,-0.153581
23:23:31:856045,6.98132e-05,-0.582085,1.18672,0,1.35197,-0.00486947,0,0,0,0,0,0,0,0,0,0,0,0,-5.943,32.578,-2.576,1.435,-0.402974,-0.198669
23:23:31:861171,6.98132e-05,-0.582085,1.18672,0,1.35197,-0.00486947,0,0,0,0,0,0,0,0,0,0,0,0,-5.334,31.745,-2.758,1.477,-0.255029,-0.263483
23:23:31:866182,6.98132e-05,-0.582085,1.18672,0,1.35197,-0.00486947,0,0,0,0,0,0,0,0,0,0,0,0,-5.635,31.318,-2.24,1.673,-0.298708,-0.325479
23:23:31:871325,6.98132e-05,-0.582085,1.18672,0,1.35197,-0.00486947,0,0,0,0,0,0,0,0,0,0,0,0,-6.041,32.039,-2.422,1.225,-0.4227,-0.194442
23:23:31:876253,6.98132e-05,-0.582085,1.18672,0,1.35197,-0.00486947,0,0,0,0,0,0,0,0,0,0,0,0,-5.635,31.99,-3.353,0.483,-0.43679,-0.059178
23:23:31:881253,6.98132e-05,-0.582085,1.18672,0,1.35197,-0.00486947,0,0,0,0,0,0,0,0,0,0,0,0,-5.432,31.794,-2.527,1.148,-0.328297,-0.139491
23:23:31:886435,6.98132e-05,-0.582085,1.18672,0,1.35197,-0.00486947,0,0,0,0,0,0,0,0,0,0,0,0,-5.838,31.955,-3.031,1.449,-0.355068,-0.188806
23:23:31:891360,6.98132e-05,-0.582085,1.18672,0,1.35197,-0.00486947,0,0,0,0,0,0,-0.048,-0.022,-0.111,0,0,0.001,-5.936,32.683,-2.996,0.924,-0.33816,-0.1409
23:23:31:896558,6.98132e-05,-0.582085,1.18672,0,1.35197,-0.00486947,0,0,0,0,0,0,-0.026,-0.033,-0.06,0,0,0,-5.215,32.011,-2.359,1.295,-0.383248,-0.105675
23:23:31:901677,6.98132e-05,-0.582085,1.18672,0,1.35197,-0.00486947,0,0,0,0,0,0,-0.008,0.007,-0.106,0,0,0,-5.327,32.179,-3.388,1.351,-0.238121,-0.174716
23:23:31:906685,6.98132e-05,-0.582085,1.18672,0,1.35197,-0.00486947,0,0,0,0,0,0,0,0.055,-0.165,0,0,0,-5.838,32.109,-2.289,1.029,-0.301526,-0.277573
23:23:31:911630,6.98132e-05,-0.582085,1.18672,0,1.35197,-0.00486947,0,0,0,0,0,0,0.017,0.088,-0.153,0,0.001,0,-5.53,31.794,-2.912,1.771,-0.474833,-0.208532
23:23:31:916792,6.98132e-05,-0.582085,1.18672,0,1.35197,-0.00486947,0,0,0,0,0,0,0.031,0.066,-0.089,0,0,0,-5.95,31.556,-1.785,0.98,-0.302935,-0.208532
23:23:31:921738,6.98132e-05,-0.582085,1.18672,0,1.35197,-0.00486947,0,0,0,0,0,0,0.037,-0.005,-0.029,0,0,0,-5.74,32.417,-2.982,0.525,-0.332524,-0.071859
23:23:31:926918,6.98132e-05,-0.582085,1.18672,0,1.35197,-0.00486947,0,0,0,0,0,0,0.02,-0.048,-0.013,0,0,0,-5.425,31.857,-2.359,0.875,-0.308571,-0.242348
23:23:31:931915,6.98132e-05,-0.582085,1.18672,0,1.35197,-0.00486947,0,0,0,0,0,0,-0.016,-0.072,0.079,0,0,0,-6.153,32.613,-2.051,0.504,-0.38043,-0.208532
23:23:31:937068,6.98132e-05,-0.582085,1.18672,0,1.35197,-0.00486947,0,0,0,0,0,0,-0.026,-0.03,0.192,0,0,-0.001,-5.53,32.508,-2.863,0.735,-0.26771,-0.114129
23:23:31:942054,6.98132e-05,-0.582085,1.18672,0,1.35197,-0.00486947,0,0,0,0,0,0,-0.013,0.02,0.155,0,0,0,-5.859,31.584,-2.527,1.351,-0.33816,-0.150763
23:23:31:947010,6.98132e-05,-0.582085,1.18672,0,1.35197,-0.00486947,0,0,0,0,0,0,0.005,0.08,-0.099,0,0,0,-5.642,32.459,-1.918,0.882,-0.483287,-0.164853
23:23:31:952177,6.98132e-05,-0.582085,1.18672,0,1.35197,-0.00486947,0,0,0,0,0,0,0,0.081,-0.285,0,0,0.002,-5.432,32.242,-2.982,0.707,-0.325479,-0.160626
23:23:31:957133,6.98132e-05,-0.582085,1.18672,0,1.35197,-0.00486947,0,0,0,0,0,0,-0.019,0.037,-0.397,0,0,0.003,-5.838,32.081,-1.918,0.98,-0.321252,-0.069041
23:23:31:962306,6.98132e-05,-0.582085,1.18672,0,1.35197,-0.00486947,0,0,0,0,0,0,-0.021,0.01,-0.368,0,0,0.003,-5.222,32.753,-2.415,0.987,-0.311389,-0.218395
23:23:31:967248,6.98132e-05,-0.582085,1.18672,0,1.35197,-0.00486947,0,0,0,0,0,0,0,0.006,-0.299,0,0,0.002,-5.957,31.773,-2.492,1.204,-0.457925,-0.232485
23:23:31:972430,6.98132e-05,-0.582085,1.18672,0,1.35197,-0.00486947,0,0,0,0,0,0,0.012,0.019,-0.276,0,0,0.002,-5.95,31.556,-3.171,0.791,-0.311389,-0.23953
23:23:31:977422,6.98132e-05,-0.582085,1.18672,0,1.35197,-0.00486947,0,0,0,0,0,0,0.005,0.024,-0.228,0,0,0.001,-5.012,32.417,-2.933,0.259,-0.288845,-0.194442
23:23:31:982542,6.98132e-05,-0.582085,1.18672,0,1.35197,-0.00486947,0,0,0,0,0,0,-0.011,0.008,-0.148,0,0,0,-5.747,31.738,-2.695,1.232,-0.247984,-0.184579
23:23:31:987508,6.98132e-05,-0.582085,1.18672,0,1.35197,-0.00486947,0,0,0,0,0,0,-0.019,-0.033,0.008,0,0,0,-5.446,32.382,-2.492,1.015,-0.335342,-0.187397
23:23:31:992699,6.98132e-05,-0.582085,1.18672,0,1.35197,-0.00486947,0,0,0,0,0,0,-0.007,-0.052,0.065,0,0,-0.001,-5.53,31.857,-2.807,0.903,-0.384657,-0.167671
23:23:31:997663,6.98132e-05,-0.582085,1.18672,0,1.35197,-0.00486947,0,0,0,0,0,0,0.007,-0.043,-0.008,0,0,0,-5.124,31.773,-2.576,0.826,-0.33816,-0.149354
23:23:32:2792,6.98132e-05,-0.582085,1.18672,0,1.35197,-0.00486947,0,0,0,0,0,0,0.003,-0.016,-0.136,0,0,0.001,-5.446,31.892,-2.611,0.609,-0.370567,-0.101448
23:23:32:7788,6.98132e-05,-0.582085,1.18672,0,1.35197,-0.00486947,0,0,0,0,0,0,-0.008,0.028,-0.295,0,0,0.002,-5.852,32.837,-2.807,1.372,-0.294481,-0.191624
23:23:32:12915,6.98132e-05,-0.582085,1.18672,0,1.35197,-0.00486947,0,0,0,0,0,0,-0.007,0.045,-0.313,0,0,0.002,-5.334,31.584,-2.303,1.225,-0.457925,-0.260665
23:23:32:17930,6.98132e-05,-0.582085,1.18672,0,1.35197,-0.00486947,0,0,0,0,0,0,0.004,0.05,-0.229,0,0,0,-5.439,32.277,-2.548,0.49,-0.343796,-0.23953
23:23:32:23054,6.98132e-05,-0.582085,1.18672,0,1.35197,-0.00486947,0,0,0,0,0,0,0.01,0.041,-0.154,0,0,0,-5.334,31.521,-2.828,1.099,-0.332524,-0.147945
23:23:32:28042,6.98132e-05,-0.582085,1.18672,0,1.35197,-0.00486947,0,0,0,0,0,0,0.014,0.03,-0.152,0,0,0,-5.845,32.767,-2.184,1.162,-0.273346,-0.263483
23:23:32:33006,6.98132e-05,-0.582085,1.18672,0,1.35197,-0.00486947,0,0,0,0,0,0,0.035,0,-0.149,0,0,0.001,-5.012,32.466,-2.625,1.155,-0.308571,-0.191624
23:23:32:38115,6.98132e-05,-0.582085,1.18672,0,1.35197,-0.00486947,0,0,0,0,0,0,0.05,-0.024,-0.093,0,0,0,-5.649,31.402,-2.891,1.232,-0.311389,-0.128219
23:23:32:43173,6.98132e-05,-0.582085,1.18672,0,1.35197,-0.00486947,0,0,0,0,0,0,0.043,-0.034,0.056,0,0,0,-6.048,32.298,-2.492,0.924,-0.35225,-0.198669
23:23:32:48304,6.98132e-05,-0.582085,1.18672,0,1.35197,-0.00486947,0,0,0,0,0,0,0.015,-0.017,0.142,0,0,-0.002,-5.446,32.886,-2.576,1.106,-0.231076,-0.160626
23:23:32:53234,6.98132e-05,-0.582085,1.18672,0,1.35197,-0.00486947,0,0,0,0,0,0,-0.028,0.01,0.213,0,0,-0.002,-5.432,31.64,-2.891,0.581,-0.373385,-0.317025
23:23:32:58410,6.98132e-05,-0.582085,1.18672,0,1.35197,-0.00486947,0,0,0,0,0,0,-0.04,0.008,0.243,0,0,-0.002,-6.566,32.396,-2.233,0.63,-0.360704,-0.312798
23:23:32:63429,6.98132e-05,-0.582085,1.18672,0,1.35197,-0.00486947,0,0,0,0,0,0,-0.026,-0.013,0.259,0,0,-0.001,-5.432,32.011,-2.562,0.602,-0.259256,-0.252211
23:23:32:68535,6.98132e-05,-0.582085,1.18672,0,1.35197,-0.00486947,0,0,0,0,0,0,-0.006,-0.012,0.214,0,0,-0.001,-5.943,32.214,-2.205,0.567,-0.25362,-0.150763
23:23:32:73483,6.98132e-05,-0.582085,1.18672,0,1.35197,-0.00486947,0,0,0,0,0,0,0.02,0.029,0.052,0,0,0,-6.265,31.99,-2.793,1.197,-0.428336,-0.164853
23:23:32:78699,6.98132e-05,-0.582085,1.18672,0,1.35197,-0.00486947,0,0,0,0,0,0,0.028,0.059,-0.061,0,0,0,-5.845,32.529,-2.205,0.826,-0.329706,-0.283209
23:23:32:83624,6.98132e-05,-0.582085,1.18672,0,1.35197,-0.00486947,0,0,0,0,0,0,0.018,0.06,-0.141,0,0,0,-4.907,32.683,-3.171,1.323,-0.305753,-0.149354
23:23:32:88799,6.98132e-05,-0.582085,1.18672,0,1.35197,-0.00486947,0,0,0,0,0,0,0,0.036,-0.12,0,0,0,-6.048,31.675,-2.394,0.784,-0.329706,-0.283209
23:23:32:93745,6.98132e-05,-0.582085,1.18672,0,1.35197,-0.00486947,0,0,0,0,0,0,-0.027,0.007,-0.019,0,0,0,-5.74,32.242,-2.121,1.372,-0.311389,-0.160626
23:23:32:98748,6.98132e-05,-0.582085,1.18672,0,1.35197,-0.00486947,0,0,0,0,0,0,-0.038,0.006,0.065,0,0,0,-5.747,31.619,-1.792,1.183,-0.387475,-0.180352
23:23:32:103876,6.98132e-05,-0.582067,1.18672,0,1.35197,-0.00486947,0,0,0,0,0,0,-0.041,0.015,0.148,0,0,-0.001,-5.432,31.542,-2.597,0.889,-0.264892,-0.228258
23:23:32:108871,6.98132e-05,-0.582067,1.18672,0,1.35197,-0.00486947,0,0,0,0,0,0,-0.035,0.019,0.118,0,0,-0.001,-5.635,31.64,-2.639,1.001,-0.288845,-0.249393
23:23:32:113980,6.98132e-05,-0.582067,1.18672,0,1.35197,-0.00486947,0,0,0,0,0,0,-0.011,0.025,-0.086,0,0,0,-5.53,31.717,-2.982,1.526,-0.25362,-0.252211
23:23:32:119154,6.98132e-05,-0.582067,1.18672,0,1.35197,-0.00486947,0,0,0,0,0,0,0.019,0.037,-0.343,0,0,0.001,-5.425,31.689,-2.541,1.148,-0.355068,-0.16908
23:23:32:124123,6.98132e-05,-0.582067,1.18672,0,1.35197,-0.00486947,0,0,0,0,0,0,0.032,0.04,-0.416,0,0,0.002,-5.537,31.787,-2.814,1.113,-0.26771,-0.335342
23:23:32:129125,6.98132e-05,-0.582067,1.18672,0,1.35197,-0.00486947,0,0,0,0,0,0,0.035,0.03,-0.31,0,0,0.001,-5.754,32.081,-2.422,1.239,-0.355068,-0.249393
23:23:32:134299,6.98132e-05,-0.582067,1.18672,0,1.35197,-0.00486947,0,0,0,0,0,0,0.034,0.023,-0.163,0,0,0,-6.062,31.367,-2.639,0.98,-0.417064,-0.325479
23:23:32:139257,6.98132e-05,-0.582067,1.18672,0,1.35197,-0.00486947,0,0,0,0,0,0,0.029,0.028,0.019,0,0,0,-6.468,32.417,-2.352,1.351,-0.280391,-0.404383
23:23:32:144417,6.98132e-05,-0.582067,1.18672,0,1.35197,-0.00486947,0,0,0,0,0,0,0.013,0.035,0.077,0,0,0,-5.327,32.438,-2.541,0.784,-0.25362,-0.369158
23:23:32:149372,6.98132e-05,-0.582067,1.18672,0,1.35197,-0.00486947,0,0,0,0,0,0,-0.022,0.026,0.069,0,0,-0.001,-5.873,31.619,-2.961,0.616,-0.25362,-0.307162
23:23:32:154354,6.98132e-05,-0.582067,1.18672,0,1.35197,-0.00486947,0,0,0,0,0,0,-0.035,0.011,-0.007,0,0,0,-5.124,32.032,-2.303,1.015,-0.319843,-0.266301
23:23:32:159497,6.98132e-05,-0.582067,1.18672,0,1.35197,-0.00486947,0,0,0,0,0,0,-0.017,0.012,-0.208,0,0,0.001,-6.041,31.85,-2.926,1.099,-0.250802,-0.088767
23:23:32:164495,6.98132e-05,-0.582067,1.18672,0,1.35197,-0.00486947,0,0,0,0,0,0,-0.001,0.036,-0.322,0,0,0.002,-5.544,32.249,-2.492,1.001,-0.343796,-0.32407
23:23:32:169654,6.98132e-05,-0.582067,1.18672,0,1.35197,-0.00486947,0,0,0,0,0,0,-0.006,0.074,-0.322,0,0,0.002,-5.425,31.836,-2.625,0.938,-0.4227,-0.214168
23:23:32:174644,6.98132e-05,-0.582067,1.18672,0,1.35197,-0.00486947,0,0,0,0,0,0,-0.021,0.074,-0.22,0,0,0.001,-5.642,32.032,-2.66,1.351,-0.335342,-0.122583
23:23:32:179795,6.98132e-05,-0.582067,1.18672,0,1.35197,-0.00485202,0,0,0,0,0,0.00336849,-0.023,0.04,-0.089,0,0,0,-5.222,31.878,-2.933,1.162,-0.360704,-0.214168
23:23:32:184781,6.98132e-05,-0.582067,1.18672,0,1.35197,-0.0047822,0,0,0,0,0,0.00493928,-0.006,0.022,-0.093,0,0,0,-5.131,32.494,-2.681,0.385,-0.311389,-0.243757
23:23:32:189935,6.98132e-05,-0.582067,1.18672,0,1.35197,-0.0047473,0,0,0,0,0,0.00657989,0.016,0.03,-0.204,0,0,0.001,-5.222,31.619,-3.101,1.015,-0.256438,-0.08454
23:23:32:194901,6.98132e-05,-0.582067,1.18672,0,1.35197,-0.0047473,0,0,0,0,0,0.00261799,0.017,0.051,-0.281,0,0,0.001,-5.943,31.899,-2.793,0.791,-0.302935,-0.152172
23:23:32:200042,6.98132e-05,-0.582067,1.18672,0,1.35197,-0.00472984,0,0,0,0,0,0,0.007,0.075,-0.327,0,0,0.002,-5.649,31.661,-3.423,1.148,-0.401565,-0.019726
23:23:32:205026,6.98132e-05,-0.582067,1.18672,0,1.35197,-0.00469494,0,0,0,0,0,0.00591667,0.003,0.072,-0.285,0.001,0,0.002,-5.222,31.556,-2.205,1.302,-0.314207,-0.170489
23:23:32:210168,6.98132e-05,-0.582067,1.18672,0,1.35197,-0.00462512,0,0,0,0,0,0.00996583,0.002,0.06,-0.218,0,0,0.001,-5.642,31.948,-2.933,1.407,-0.198669,-0.094403
23:23:32:215168,6.98132e-05,-0.582067,1.18672,0,1.35197,-0.00455531,0,0,0,0,0,0.0125315,-0.001,0.038,-0.091,0,0,0,-5.222,33.18,-2.464,1.239,-0.259256,0.097221
23:23:32:220116,6.98132e-05,-0.582067,1.18672,0,1.35197,-0.00445059,0,0,0,0,0,0.0174009,-0.004,0.026,-0.012,0,0,0,-5.852,32.396,-2.037,0.903,-0.283209,0.092994
23:23:32:225290,6.98132e-05,-0.582067,1.18672,0,1.35197,-0.00434587,0,0,0,0,0,0.0211883,-0.004,0.018,0.063,0,0,0,-5.327,31.871,-3.248,1.015,-0.228258,0.102857
23:23:32:230418,6.98132e-05,-0.582067,1.18672,0,1.35197,-0.00420624,0,0,0,0,0,0.0236318,0,0.018,0.075,0,0,0,-5.95,32.2,-3.101,1.176,-0.32407,0.38043
23:23:32:235417,6.98132e-05,-0.582067,1.18672,0,1.35197,-0.00404916,0,0,0,0,0,0.0271224,0.004,0.018,0.045,0,0,0,-5.845,31.787,-2.982,0.616,-0.326888,0.381839
23:23:32:240541,6.98132e-05,-0.582067,1.18672,0,1.35197,-0.00389208,0,0,0,0,0,0.0308051,0.004,0.019,0.002,0,0,0,-6.251,32.445,-3.304,1.302,-0.319843,0.384657
23:23:32:245541,6.98132e-05,-0.582067,1.18672,0,1.35197,-0.00368264,0,0,0,0,0,0.0395492,0.007,0.023,-0.084,0,0,0,-5.943,31.605,-2.072,0.987,-0.370567,0.377612
23:23:32:250550,6.98132e-05,-0.582067,1.18674,0,1.35197,-0.00338594,0,0,0,0,0,0.0493579,0.016,0.027,-0.148,0,0,0,-5.845,32.095,-2.324,0.525,-0.332524,0.376203
23:23:32:255667,6.98132e-05,-0.582067,1.18674,0,1.35197,-0.00305433,0,0,0,0,0,0.0619941,0.025,0.021,-0.197,0,0,0.001,-5.047,31.948,-2.415,1.113,-0.264892,0.400156
23:23:32:260654,6.98132e-05,-0.582067,1.18674,0,1.35197,-0.00263545,0,0,0,0,0,0.0742289,0.016,0.007,-0.164,0,0,0.001,-5.334,31.01,-2.044,0.714,-0.273346,0.36634
23:23:32:265772,6.98132e-05,-0.582067,1.18674,0,1.35197,-0.00219911,0,0,0,0,0,0.079971,-0.013,-0.007,-0.056,0,0,0,-5.327,32.116,-3.003,0.686,-0.360704,0.061996
23:23:32:270791,6.98132e-05,-0.582067,1.18674,0,1.35197,-0.00179769,0,0,0,0,0,0.0805993,-0.025,-0.001,-0.018,0,0,0,-4.697,31.976,-2.961,1.134,-0.357886,0.002818
23:23:32:275898,6.98132e-05,-0.582067,1.18674,0,1.35197,-0.00148353,0,0,0,0,0,0.067265,-0.007,0.025,-0.05,0,0,0,-5.222,31.85,-2.863,1.449,-0.35225,0.249393
23:23:32:280911,6.98132e-05,-0.582067,1.18674,0,1.35197,-0.00125664,0,0,0,0,0,0.0528137,0.014,0.038,-0.068,0,0,0,-6.349,32.291,-1.883,0.686,-0.349432,0.622778
23:23:32:286038,6.98132e-05,-0.582067,1.18674,0,1.35197,-0.00101229,0,0,0,0,0,0.0520632,0.015,0.026,-0.008,0,0,0,-5.327,31.787,-2.513,1.358,-0.236712,0.710136
23:23:32:291042,6.98132e-05,-0.582067,1.18674,0,1.35197,-0.000645772,0,0,0,0,0,0.0636696,-0.022,0.004,0.043,0,0,0,-5.425,32.34,-2.912,1.456,-0.242348,0.617142
23:23:32:296027,6.98132e-05,-0.582067,1.18674,0,1.35197,-0.000226893,0,0,0,0,0,0.0757647,-0.039,0.002,-0.005,0,0,0,-5.523,31.416,-2.632,0.476,-0.442426,0.687592
23:23:32:301152,6.98132e-05,-0.582067,1.18674,0,1.35197,0.000296706,0,0,0,0,0,0.0961153,-0.025,0.02,-0.144,0,0,0.001,-5.747,32.522,-2.933,0.805,-0.456516,0.59178
23:23:32:306166,6.98132e-05,-0.582067,1.18674,0,1.35197,0.00102974,0,0,0,0,0,0.126711,-0.001,0.029,-0.188,0,0,0.001,-5.964,31.878,-1.974,1.358,-0.277573,0.054951
23:23:32:311291,6.98132e-05,-0.582067,1.18674,0,1.35197,0.00176278,0,0,0,0,0,0.136432,0.02,0.026,-0.128,0,0,0.001,-5.334,32.466,-2.912,0.987,-0.308571,-0.200078
23:23:32:316291,6.98132e-05,-0.582067,1.18674,0,1.35197,0.00218166,0,0,0,0,0,0.100845,0.017,0.022,-0.055,0,0,0.001,-5.537,32.312,-3.339,1.204,-0.376203,-0.066223
23:23:32:321403,6.98132e-05,-0.582067,1.18674,0,1.35197,0.00237365,0,0,0,0,0,0.0625701,-0.003,0.031,0.026,0,0,0,-5.852,32.06,-2.912,0.784,-0.264892,0.532602
23:23:32:326411,6.98132e-05,-0.582067,1.18674,1.74533e-05,1.35197,0.00268781,0,0,0,0,0,0.0644026,-0.018,0.04,0.074,0,0,0,-5.208,32.557,-2.415,0.875,-0.300117,0.473424
23:23:32:331524,6.98132e-05,-0.582067,1.18674,1.74533e-05,1.35197,0.0031765,0,0,0,0,0,0.0834616,-0.029,0.035,0.158,0,0,-0.001,-5.103,31.122,-2.772,1.043,-0.283209,0.631232
23:23:32:336539,6.98132e-05,-0.582067,1.18674,1.74533e-05,1.35197,0.003735,0,0,0,0,0,0.102049,-0.023,0.02,0.185,0,0,-0.001,-5.754,32.039,-2.562,0.966,-0.417064,0.415655
23:23:32:341666,6.98132e-05,-0.582067,1.18674,1.74533e-05,1.35197,0.00432842,0,0,0,0,0,0.11219,0.007,0,0.096,0,0,0,-5.215,31.759,-2.324,0.833,-0.32407,0.146536
23:23:32:346650,6.98132e-05,-0.582067,1.18674,1.74533e-05,1.35197,0.0047473,0,0,0,0,0,0.0902684,0.028,-0.002,-0.018,0,0,0,-6.048,31.493,-2.891,1.386,-0.231076,0.233894
23:23:32:351665,6.98132e-05,-0.582067,1.18674,1.74533e-05,1.35197,0.00493928,0,0,0,0,0,0.0590445,0.033,0.002,-0.115,0,0,0.001,-5.733,31.619,-2.135,1.015,-0.393111,0.419882
23:23:32:356773,6.98132e-05,-0.582067,1.18674,1.74533e-05,1.35197,0.00514872,0,0,0,0,0,0.0491659,0.017,0.005,-0.078,0,0,0,-5.103,31.899,-2.919,0.714,-0.401565,0.224031
23:23:32:361772,6.98132e-05,-0.582067,1.18674,1.74533e-05,1.35197,0.00542797,0,0,0,0,0,0.051749,-0.013,0.006,0.043,0,0,-0.001,-5.621,31.633,-2.59,1.015,-0.300117,0.579099
23:23:32:366748,6.98132e-05,-0.582067,1.18674,1.74533e-05,1.35195,0.00568977,0,0,0,0,0,0.0518188,-0.023,0.004,0.087,0,0,-0.001,-5.418,32.151,-2.401,1.407,-0.433972,0.459334
23:23:32:371911,6.98132e-05,-0.582067,1.18674,1.74533e-05,1.35195,0.00589921,0,0,0,0,0,0.0469668,-0.015,-0.002,0.046,0,0,0,-5.642,32.27,-2.863,1.043,-0.349432,0.639686
23:23:32:377036,6.98132e-05,-0.582067,1.18674,1.74533e-05,1.35195,0.00614356,0,0,0,0,0,0.0454658,0.018,-0.007,-0.065,0,0,0.001,-5.11,31.472,-2.366,0.504,-0.288845,0.53542
23:23:32:382039,6.98132e-05,-0.582067,1.18674,1.74533e-05,1.35195,0.00637045,0,0,0,0,0,0.0473159,0.042,-0.005,-0.118,0,0,0.001,-5.74,31.71,-3.031,0.812,-0.297299,0.552328
23:23:32:387163,6.98132e-05,-0.582067,1.18674,1.74533e-05,1.35195,0.00663225,0,0,0,0,0,0.0505622,0.049,-0.002,-0.086,0,-0.001,0,-5.215,32.039,-1.813,0.476,-0.418473,0.476242
23:23:32:392144,6.98132e-05,-0.582067,1.18674,1.74533e-05,1.35195,0.00692896,0,0,0,0,0,0.0527613,0.024,-0.005,0,0,-0.001,-0.001,-5.754,31.962,-2.59,1.008,-0.160626,0.250802
23:23:32:397288,6.98132e-05,-0.582067,1.18674,1.74533e-05,1.35195,0.00719076,0,0,0,0,0,0.0547684,-0.028,-0.006,0.118,0,0,-0.001,-4.9,31.99,-2.653,1.043,-0.311389,-0.023953
23:23:32:402270,6.98132e-05,-0.582067,1.18674,1.74533e-05,1.35195,0.00741765,0,0,0,0,0,0.0470366,-0.046,0.001,0.14,0,0,-0.001,-5.859,31.549,-2.443,0.588,-0.319843,-0.15499
23:23:32:407288,6.98132e-05,-0.582067,1.18674,1.74533e-05,1.35195,0.00755728,0,0,0,0,0,0.0339467,-0.035,0.023,0.135,0,0,0,-6.062,31.899,-2.205,0.385,-0.314207,-0.212759
23:23:32:412399,6.98132e-05,-0.582067,1.18674,1.74533e-05,1.35195,0.00762709,0,0,0,0,0,0.0219737,-0.018,0.03,0.149,0,0,0,-5.642,31.472,-2.59,1.547,-0.291663,-0.004227
23:23:32:417393,6.98132e-05,-0.582067,1.18674,1.74533e-05,1.35195,0.00767945,0,0,0,0,0,0.0139277,-0.004,0.018,0.144,0,0,-0.001,-5.53,32.571,-2.464,0.987,-0.294481,-0.011272
23:23:32:422526,6.98132e-05,-0.582067,1.18674,1.74533e-05,1.35195,0.00771436,0,0,0,0,0,0.0104894,0.001,0.01,0.041,0,0,0,-5.544,32.221,-3.542,1.694,-0.348023,0.057769
23:23:32:427661,6.98132e-05,-0.582067,1.18674,1.74533e-05,1.35195,0.00776672,0,0,0,0,0,0.00839503,0.014,0.028,-0.272,0,0,0.002,-4.921,32.221,-4.641,0.924,-0.331115,-0.08454
23:23:32:432516,6.98132e-05,-0.582067,1.18674,1.74533e-05,1.35195,0.00776672,0,0,0,0,0,0.00427606,0.022,0.054,-0.462,0,0,0.004,-5.537,32.13,-2.772,0.399,-0.204305,0.016908
23:23:32:437641,6.98132e-05,-0.582067,1.18674,1.74533e-05,1.35195,0.00776672,0,0,0,0,0,0,0.013,0.074,-0.488,0,0,0.004,-5.215,32.039,-2.233,1.127,-0.226849,-0.05636
23:23:32:442610,6.98132e-05,-0.582067,1.18674,1.74533e-05,1.35195,0.00776672,0,0,0,0,0,0,-0.003,0.06,-0.333,0,0,0.002,-5.663,32.676,-2.674,0.686,-0.319843,-0.029589
23:23:32:447780,6.98132e-05,-0.582067,1.18674,1.74533e-05,1.35195,0.00776672,0,0,0,0,0,0,-0.018,0.025,-0.07,0,0,0,-5.74,32.459,0.196,0.791,-0.317025,-0.083131
23:23:32:452801,6.98132e-05,-0.582067,1.18674,1.74533e-05,1.35195,0.00776672,0,0,0,0,0,0,-0.012,0.015,0.001,0,0,0,-5.187,32.081,-2.065,1.218,-0.317025,-0.142309
23:23:32:457919,6.98132e-05,-0.582067,1.18674,1.74533e-05,1.35195,0.00776672,0,0,0,0,0,0,0.011,0.027,-0.038,0,0,0.001,-5.551,31.997,-2.961,0.868,-0.362113,-0.128219
23:23:32:462937,6.98132e-05,-0.582067,1.18674,1.74533e-05,1.35195,0.00776672,0,0,0,0,0,0,0.02,0.037,-0.068,0,0,0.001,-5.747,32.228,-2.723,1.148,-0.40861,-0.015499
23:23:32:467978,6.98132e-05,-0.582067,1.18674,1.74533e-05,1.35195,0.00776672,0,0,0,0,0,0,0,0.028,-0.005,0,0,0,-5.74,32.06,-2.324,0.455,-0.280391,0.081722
23:23:32:473034,6.98132e-05,-0.582067,1.18674,1.74533e-05,1.35195,0.00776672,0,0,0,0,0,0,-0.046,0,0.119,0,0,-0.001,-5.215,32.249,-2.842,0.854,-0.321252,-0.15499
23:23:32:478159,6.98132e-05,-0.582067,1.18674,1.74533e-05,1.35195,0.00776672,0,0,0,0,0,0,-0.065,-0.003,0.145,0,0,-0.001,-5.236,31.941,-2.562,-0.203,-0.329706,-0.167671
23:23:32:483156,6.98132e-05,-0.582067,1.18674,1.74533e-05,1.35195,0.00776672,0,0,0,0,0,0,-0.051,0.02,0.063,0,0,0,-5.635,31.948,-2.961,0.882,-0.357886,-0.07045
23:23:32:488287,6.98132e-05,-0.582067,1.18674,1.74533e-05,1.35195,0.00776672,0,0,0,0,0,0,-0.02,0.033,0,0,0,0,-5.663,32.676,-2.023,1.155,-0.32407,0.009863
23:23:32:493283,6.98132e-05,-0.582067,1.18674,1.74533e-05,1.35195,0.00776672,0,0,0,0,0,0,0.017,0.013,0.025,0,0,0,-5.334,31.031,-2.513,1.064,-0.318434,0.050724
23:23:32:498214,6.98132e-05,-0.582067,1.18674,1.74533e-05,1.35195,0.00776672,0,0,0,0,0,0,0.023,-0.012,0.102,0.001,0,-0.001,-5.544,31.871,-2.093,0.91,-0.23953,0.022544
23:23:32:503404,6.98132e-05,-0.582067,1.18674,1.74533e-05,1.35195,0.00778417,0,0,0,0,0,0,0.004,-0.017,0.143,0.001,0,-0.001,-5.446,31.927,-2.611,1.372,-0.391702,0.018317
23:23:32:508341,6.98132e-05,-0.582067,1.18674,1.74533e-05,1.35195,0.00778417,0,0,0,0,0,0,-0.014,0.008,0.062,0,0,0,-5.453,31.542,-3.031,1.134,-0.388884,-0.202896
23:23:32:513520,6.98132e-05,-0.582067,1.18674,1.74533e-05,1.35195,0.00778417,0,0,0,0,0,0,-0.033,0.047,-0.128,0,0,0,-6.181,32.151,-2.793,0.693,-0.252211,-0.07045
23:23:32:518461,6.98132e-05,-0.582067,1.18674,1.74533e-05,1.35195,0.00778417,0,0,0,0,0,0,-0.032,0.05,-0.202,0,0,0.001,-6.048,32.2,-3.101,1.407,-0.116947,-0.187397
23:23:32:523639,6.98132e-05,-0.582067,1.18674,1.74533e-05,1.35195,0.00778417,0,0,0,0,0,0,-0.005,0.03,-0.17,0,0,0.001,-5.733,32.34,-3.528,1.449,-0.322661,-0.008454
23:23:32:528661,6.98132e-05,-0.582067,1.18674,1.74533e-05,1.35195,0.00778417,0,0,0,0,0,0,0.015,0.02,-0.094,0,0,0,-5.327,31.773,-2.772,0.91,-0.160626,-0.032407
23:23:32:533768,6.98132e-05,-0.582067,1.18674,1.74533e-05,1.35195,0.00778417,0,0,0,0,0,0,0.025,0.009,0.014,0,-0.001,0,-5.439,32.41,-2.842,1.078,-0.288845,-0.136673
23:23:32:538719,6.98132e-05,-0.582067,1.18674,1.74533e-05,1.35195,0.00778417,0,0,0,0,0,0,0.012,-0.004,0.061,0,-0.001,0,-5.537,32.389,-2.821,1.729,-0.23953,-0.100039
23:23:32:543895,6.98132e-05,-0.582067,1.18674,1.74533e-05,1.35195,0.00778417,0,0,0,0,0,0,-0.011,-0.03,0.101,0,0,0,-5.523,32.242,-2.583,1.435,-0.301526,-0.08454
23:23:32:548888,6.98132e-05,-0.582067,1.18674,1.74533e-05,1.35195,0.00778417,0,0,0,0,0,0,-0.015,-0.035,0.107,0,0,-0.001,-5.747,31.71,-2.982,1.246,-0.226849,-0.066223
23:23:32:554049,6.98132e-05,-0.582067,1.18674,1.74533e-05,1.35195,0.00778417,0,0,0,0,0,0,-0.021,-0.015,0.065,0,0,-0.001,-5.747,32.907,-1.876,0.357,-0.204305,0.064814
23:23:32:559030,6.98132e-05,-0.582067,1.18674,1.74533e-05,1.35195,0.00778417,0,0,0,0,0,0,-0.067,0.014,-0.04,0,0,-0.001,-5.642,31.878,-2.891,0.966,-0.270528,-0.136673
23:23:32:564019,6.98132e-05,-0.582067,1.18674,1.74533e-05,1.35195,0.00778417,0,0,0,0,0,0,-0.121,0.021,-0.107,0,0,0,-5.425,31.731,-2.632,0.994,-0.273346,0.012681
23:23:32:569140,6.98132e-05,-0.582067,1.18674,1.74533e-05,1.35195,0.00778417,0,0,0,0,0,0,-0.188,0.011,-0.119,0,0,0,-5.327,32.13,-2.583,0.889,-0.401565,-0.145127
23:23:32:574139,6.98132e-05,-0.582067,1.18674,1.74533e-05,1.35195,0.00778417,0,0,0,0,0,0,-0.188,0.001,-0.063,0,0,0,-6.37,32.011,-3.052,1.008,-0.424109,0.030998
23:23:32:579279,6.98132e-05,-0.582067,1.18674,1.74533e-05,1.35195,0.00778417,0,0,0,0,0,0,-0.11,0.007,0.019,0,0,0,-5.537,31.773,-2.891,0.924,-0.391702,-0.104266
23:23:32:584216,6.98132e-05,-0.582067,1.18674,1.74533e-05,1.35195,0.00778417,0,0,0,0,0,0,-0.034,0.027,0.016,0,0,0,-5.957,32.55,-2.394,1.057,-0.4227,-0.12681
23:23:32:589337,6.98132e-05,-0.582067,1.18674,1.74533e-05,1.35195,0.00778417,0,0,0,0,0,0,0.046,0.062,-0.051,0,0,0,-5.334,31.192,-2.982,0.273,-0.387475,-0.08454
23:23:32:594391,6.98132e-05,-0.582067,1.18674,1.74533e-05,1.35195,0.00778417,0,0,0,0,0,0,0.058,0.075,-0.075,0,0,0,-5.943,32.2,-2.275,0.609,-0.381839,-0.036634
23:23:32:599479,6.98132e-05,-0.582067,1.18674,1.74533e-05,1.35195,0.00778417,0,0,0,0,0,0,0.032,0.067,-0.031,0,0,0,-5.852,31.906,-2.821,1.015,-0.257847,-0.122583
23:23:32:604513,6.98132e-05,-0.582067,1.18674,1.74533e-05,1.35195,0.00778417,0,0,0,0,0,0,0.009,0.053,0.004,0,0,0,-5.551,31.29,-3.01,1.05,-0.318434,-0.136673
23:23:32:609648,6.98132e-05,-0.582067,1.18674,1.74533e-05,1.35195,0.00778417,0,0,0,0,0,0,-0.013,0.036,-0.048,0,0,0,-5.733,31.381,-2.023,1.246,-0.252211,0.050724
23:23:32:614679,6.98132e-05,-0.582067,1.18674,1.74533e-05,1.35195,0.00778417,0,0,0,0,0,0,-0.02,0.029,-0.149,0,0,0,-5.439,32.151,-2.632,1.106,-0.21135,-0.090176
23:23:32:619792,5.23599e-05,-0.582067,1.18674,1.74533e-05,1.35195,0.00778417,0,0,0,0,0,0,-0.023,0.021,-0.244,0,0.001,0.001,-5.74,31.78,-2.94,1.435,-0.314207,-0.21135
23:23:32:624760,5.23599e-05,-0.582067,1.18674,1.74533e-05,1.35195,0.00778417,0,0,0,0,0,0,-0.026,0.014,-0.179,0,0,0.001,-5.838,32.137,-2.352,1.372,-0.236712,-0.201487
23:23:32:629783,5.23599e-05,-0.582067,1.18674,1.74533e-05,1.35195,0.00778417,0,0,0,0,0,0,-0.035,0.007,0.051,0,0,0,-6.37,31.64,-2.373,0.826,-0.266301,0.012681
23:23:32:634852,5.23599e-05,-0.582067,1.18674,1.74533e-05,1.35195,0.00778417,0,0,0,0,0,0,-0.041,0.003,0.159,0,0,-0.001,-5.712,32.347,-3.031,0.504,-0.355068,-0.08454
23:23:32:639834,5.23599e-05,-0.582067,1.18674,1.74533e-05,1.35195,0.00778417,0,0,0,0,0,0,-0.037,0.005,0.095,0,0,-0.001,-5.635,31.941,-2.632,1.029,-0.39452,0.078904
23:23:32:645009,5.23599e-05,-0.582067,1.18674,1.74533e-05,1.35195,0.00778417,0,0,0,0,0,0,-0.013,0.021,-0.096,0,0,0,-5.523,32.69,-3.339,1.015,-0.411428,-0.045088
23:23:32:650015,5.23599e-05,-0.582067,1.18674,1.74533e-05,1.35195,0.00778417,0,0,0,0,0,0,0.001,0.035,-0.141,0,0,0,-5.481,32.179,-3.052,1.155,-0.322661,-0.278982
23:23:32:655153,5.23599e-05,-0.582067,1.18674,1.74533e-05,1.35195,0.00778417,0,0,0,0,0,0,0,0.04,-0.02,0,0,0,-5.222,31.927,-2.324,0.756,-0.377612,-0.249393
23:23:32:660271,5.23599e-05,-0.582067,1.18674,1.74533e-05,1.35195,0.00778417,0,0,0,0,0,0,-0.02,0.03,0.093,0,0,-0.001,-5.642,31.857,-3.311,0.812,-0.277573,-0.066223
23:23:32:665220,5.23599e-05,-0.582067,1.18674,1.74533e-05,1.35195,0.00778417,0,0,0,0,0,0,-0.049,0.016,0.139,0,0,-0.001,-5.859,32.158,-2.534,0.994,-0.236712,-0.022544
23:23:32:670262,5.23599e-05,-0.582067,1.18674,1.74533e-05,1.35195,0.00778417,0,0,0,0,0,0,-0.047,0.02,0.07,0,0,0,-4.809,31.899,-2.492,0.952,-0.297299,-0.170489
23:23:32:675402,5.23599e-05,-0.582067,1.18674,1.74533e-05,1.35195,0.00778417,0,0,0,0,0,0,-0.005,0.046,-0.081,0,0,0.001,-5.971,32.109,-2.702,0.672,-0.367749,-0.235303
23:23:32:680385,5.23599e-05,-0.582067,1.18674,1.74533e-05,1.35195,0.00778417,0,0,0,0,0,0,0.026,0.063,-0.158,0,0,0.002,-5.32,31.871,-2.863,1.414,-0.329706,-0.164853
23:23:32:685509,5.23599e-05,-0.582067,1.18674,1.74533e-05,1.35195,0.00778417,0,0,0,0,0,0,0.042,0.062,-0.198,0.001,-0.001,0.001,-5.726,32.13,-2.275,0.812,-0.308571,-0.090176
23:23:32:690509,5.23599e-05,-0.582067,1.18674,1.74533e-05,1.35195,0.00778417,0,0,0,0,0,0,0.031,0.035,-0.164,0,-0.001,0,-5.733,31.381,-3.269,1.127,-0.325479,0.004227
23:23:32:695632,5.23599e-05,-0.582067,1.18674,1.74533e-05,1.35195,0.00776672,0,0,0,0,0,0,0.011,-0.033,-0.021,0,-0.001,0,-5.201,31.808,-2.135,1.043,-0.286027,0.920077
23:23:32:700633,5.23599e-05,-0.582067,1.18674,1.74533e-05,1.35195,0.00767945,0,0,0,0,0,-0.0112574,0.005,-0.069,0.09,0,-0.001,0,-5.341,32.151,-2.912,1.064,-0.294481,0.452289
23:23:32:705582,5.23599e-05,-0.582067,1.18674,1.74533e-05,1.35195,0.00767945,0,0,0,0,0,-0.0044855,-0.004,-0.069,0.156,0,0,0,-5.32,31.78,-3.29,1.134,-0.291663,0.118356
23:23:32:710773,5.23599e-05,-0.582067,1.18674,1.74533e-05,1.35195,0.00767945,0,0,0,0,0,0,-0.017,-0.037,0.101,0,0,0,-5.418,31.71,-2.821,1.071,-0.208532,-0.131037
23:23:32:715776,5.23599e-05,-0.582067,1.18674,1.74533e-05,1.35195,0.00767945,0,0,0,0,0,0,-0.032,0.015,-0.028,0,0,0,-5.754,31.969,-2.723,0.854,-0.335342,-0.022544
23:23:32:720898,5.23599e-05,-0.582067,1.18674,1.74533e-05,1.35195,0.00767945,0,0,0,0,0,0,-0.029,0.032,-0.059,0,0,0,-5.194,31.472,-2.632,1.078,-0.383248,-0.035225
23:23:32:725909,5.23599e-05,-0.582067,1.18674,1.74533e-05,1.35195,0.00767945,0,0,0,0,0,0,-0.013,0.023,0.015,0,0,0,-5.929,32.004,-2.373,0.714,-0.364931,0.083131
23:23:32:731027,5.23599e-05,-0.582067,1.18674,1.74533e-05,1.35195,0.00767945,0,0,0,0,0,0,-0.002,-0.005,0.138,0,0,0,-5.635,32.13,-2.793,1.008,-0.36634,0.107084
23:23:32:736015,5.23599e-05,-0.582067,1.18674,1.74533e-05,1.35195,0.00767945,0,0,0,0,0,0,-0.004,-0.022,0.191,0,0,-0.001,-5.103,32.109,-3.199,1.029,-0.373385,0.035225
23:23:32:741132,5.23599e-05,-0.582067,1.18674,1.74533e-05,1.35195,0.00767945,0,0,0,0,0,0,-0.016,-0.031,0.216,0,0,-0.001,-5.971,31.22,-2.352,0.791,-0.376203,0.083131
23:23:32:746078,5.23599e-05,-0.582067,1.18674,1.74533e-05,1.35195,0.00767945,0,0,0,0,0,0,-0.02,-0.027,0.2,0,0,-0.001,-5.831,32.221,-2.982,0.91,-0.390293,0.107084
23:23:32:751145,5.23599e-05,-0.582067,1.18674,1.74533e-05,1.35195,0.00767945,0,0,0,0,0,0,-0.001,-0.009,0.109,0,0,0,-5.838,31.311,-2.891,1.253,-0.401565,0.177534
23:23:32:756263,5.23599e-05,-0.582067,1.18674,1.74533e-05,1.35195,0.00767945,0,0,0,0,0,0,0.031,0.012,0.008,0,0,0,-5.971,31.822,-2.114,0.693,-0.335342,0.166262
23:23:32:761255,5.23599e-05,-0.582067,1.18674,1.74533e-05,1.35195,0.00767945,0,0,0,0,0,0,0.076,0.047,-0.121,0,0,0,-5.537,32.039,-2.562,0.707,-0.245166,0.166262
23:23:32:766380,5.23599e-05,-0.582067,1.18674,1.74533e-05,1.35195,0.00767945,0,0,0,0,0,0,0.078,0.053,-0.143,0,0,0.001,-5.012,32.088,-3.01,0.385,-0.367749,0.166262
23:23:32:771507,5.23599e-05,-0.582067,1.18674,1.74533e-05,1.35195,0.00767945,0,0,0,0,0,0,0.033,0.02,-0.106,0,0,0,-5.544,32.151,-2.751,0.966,-0.329706,0.131037
23:23:32:776520,5.23599e-05,-0.582067,1.18674,1.74533e-05,1.35195,0.00767945,0,0,0,0,0,0,-0.008,-0.011,-0.09,0,0,0,-6.503,31.22,-2.842,1.61,-0.301526,0.201487
23:23:32:781508,5.23599e-05,-0.582067,1.18674,1.74533e-05,1.35195,0.00767945,0,0,0,0,0,0,-0.056,-0.026,-0.095,0,0,0,-6.055,32.109,-2.723,1.127,-0.29589,0.07045
23:23:32:786649,5.23599e-05,-0.582067,1.18674,1.74533e-05,1.35195,0.00767945,0,0,0,0,0,0,-0.068,-0.007,-0.072,0,0,0,-5.845,31.29,-2.821,0.931,-0.35225,0.153581
23:23:32:791582,5.23599e-05,-0.582067,1.18674,1.74533e-05,1.35195,0.00767945,0,0,0,0,0,0,-0.051,0.022,0.006,0,0,0,-5.677,31.878,-3.199,0.777,-0.301526,0.190215
23:23:32:796770,5.23599e-05,-0.582067,1.18674,1.74533e-05,1.35195,0.00767945,0,0,0,0,0,0,-0.022,0.024,0.024,0,0,0,-6.055,31.969,-3.479,0.868,-0.373385,0.166262
23:23:32:801753,5.23599e-05,-0.582067,1.18674,1.74533e-05,1.35195,0.00767945,0,0,0,0,0,0,0.012,0,-0.054,0,0,0.001,-5.95,32.207,-2.611,0.217,-0.38043,0.201487
23:23:32:806895,5.23599e-05,-0.582067,1.18674,1.74533e-05,1.35195,0.00767945,0,0,0,0,0,0,0.007,-0.016,-0.1,0,0,0.001,-5.222,32.739,-3.031,0.861,-0.288845,0.393111
23:23:32:811898,5.23599e-05,-0.582067,1.18674,1.74533e-05,1.35195,0.00767945,0,0,0,0,0,0,-0.034,-0.034,0.019,-0.001,0,0,-6.37,31.822,-2.751,1.106,-0.256438,0.249393
23:23:32:817006,5.23599e-05,-0.582067,1.18674,1.74533e-05,1.35195,0.00767945,0,0,0,0,0,0,-0.057,-0.044,0.308,-0.001,0,-0.002,-5.747,31.682,-3.269,0.896,-0.39452,0.297299
23:23:32:822002,5.23599e-05,-0.582067,1.18674,1.74533e-05,1.35195,0.00767945,0,0,0,0,0,0,-0.043,-0.043,0.411,0,0,-0.003,-5.866,32.2,-2.723,0.847,-0.348023,0.284618
23:23:32:827145,5.23599e-05,-0.582067,1.18674,1.74533e-05,1.35195,0.00767945,0,0,0,0,0,0,-0.002,-0.017,0.231,0,0,-0.001,-5.537,32.081,-2.793,1.246,-0.308571,0.284618
23:23:32:832127,5.23599e-05,-0.582067,1.18674,1.74533e-05,1.35195,0.00767945,0,0,0,0,0,0,0.013,0.003,-0.032,0,0,0,-5.411,32.081,-2.205,1.197,-0.247984,0.332524
23:23:32:837252,5.23599e-05,-0.582067,1.18674,1.74533e-05,1.35195,0.00767945,0,0,0,0,0,0,0.009,0.012,-0.284,0.001,0,0.002,-4.914,30.975,-3.71,0.987,-0.373385,0.321252
23:23:32:842256,5.23599e-05,-0.582067,1.18674,1.74533e-05,1.35195,0.00767945,0,0,0,0,0,0,-0.003,0.001,-0.227,0,0,0.001,-5.404,31.731,-2.8,1.008,-0.22544,0.238121
23:23:32:847393,5.23599e-05,-0.582067,1.18674,1.74533e-05,1.35195,0.00767945,0,0,0,0,0,0,-0.015,-0.012,0.066,0,0,-0.001,-5.348,31.92,-3.759,0.609,-0.411428,0.273346
23:23:32:852394,5.23599e-05,-0.582067,1.18674,1.74533e-05,1.35195,0.00767945,0,0,0,0,0,0,-0.019,-0.008,0.219,0,0,-0.002,-5.117,31.451,-2.842,1.386,-0.286027,0.321252
23:23:32:857324,5.23599e-05,-0.582067,1.18674,1.74533e-05,1.35195,0.00767945,0,0,0,0,0,0,-0.03,0.007,0.224,0,0,-0.002,-5.537,31.451,-3.101,1.239,-0.283209,0.463561
23:23:32:862502,5.23599e-05,-0.582067,1.18674,1.74533e-05,1.35195,0.00767945,0,0,0,0,0,0,-0.038,0.017,0.126,0,0,-0.001,-5.425,31.822,-2.254,0.966,-0.294481,0.369158
23:23:32:867516,5.23599e-05,-0.582067,1.18674,1.74533e-05,1.35195,0.00767945,0,0,0,0,0,0,-0.026,0.022,-0.018,0,0,0,-6.034,31.472,-2.961,0.693,-0.369158,0.332524
23:23:32:872587,5.23599e-05,-0.582067,1.18674,1.74533e-05,1.35195,0.00767945,0,0,0,0,0,0,0.002,0.017,-0.068,0,0,0,-5.747,31.92,-2.94,0.861,-0.391702,0.284618
23:23:32:877626,5.23599e-05,-0.582067,1.18674,1.74533e-05,1.35195,0.00767945,0,0,0,0,0,0,0.046,-0.001,-0.077,0,0,0.001,-5.649,31.332,-2.681,0.791,-0.236712,0.249393
23:23:32:882751,5.23599e-05,-0.582067,1.18674,1.74533e-05,1.35195,0.00767945,0,0,0,0,0,0,0.052,-0.013,-0.053,0,0,0,-5.642,32.228,-3.031,0.588,-0.370567,0.404383
23:23:32:887771,5.23599e-05,-0.582067,1.18674,1.74533e-05,1.35195,0.00767945,0,0,0,0,0,0,0.021,-0.008,-0.019,0,0,0,-5.635,31.633,-3.549,0.91,-0.459334,0.369158
23:23:32:892879,5.23599e-05,-0.582067,1.18674,1.74533e-05,1.35195,0.00767945,0,0,0,0,0,0,-0.008,0.008,-0.039,0,0,0,-5.628,32.27,-2.884,1.253,-0.355068,0.417064
23:23:32:897878,5.23599e-05,-0.582067,1.18674,1.74533e-05,1.35195,0.00767945,0,0,0,0,0,0,-0.042,0.025,-0.14,0,0,0.001,-5.971,31.423,-3.059,0.49,-0.311389,-0.011272
23:23:32:902999,5.23599e-05,-0.582067,1.18674,1.74533e-05,1.35195,0.00767945,0,0,0,0,0,0,-0.057,0.015,-0.21,0,0,0.001,-5.642,32.298,-2.604,1.351,-0.431154,-0.046497
23:23:32:907948,5.23599e-05,-0.582067,1.18674,1.74533e-05,1.35195,0.00767945,0,0,0,0,0,0,-0.05,0.002,-0.182,0,0,0.001,-5.327,31.192,-2.464,0.952,-0.387475,0
23:23:32:913143,5.23599e-05,-0.582067,1.18674,1.74533e-05,1.35195,0.00767945,0,0,0,0,0,0,-0.004,-0.005,-0.075,0,0,0,-5.327,31.283,-3.08,0.588,-0.314207,-0.011272
23:23:32:918140,5.23599e-05,-0.582067,1.18674,1.74533e-05,1.35195,0.00767945,0,0,0,0,0,0,0.035,-0.002,-0.023,0,0,0,-5.873,31.381,-3.15,1.491,-0.229667,0.046497
23:23:32:923081,5.23599e-05,-0.582067,1.18674,1.74533e-05,1.35195,0.00767945,0,0,0,0,0,0,0.054,0,-0.018,0,0,0,-6.16,31.71,-3.262,0.987,-0.308571,-0.07045
23:23:32:928196,5.23599e-05,-0.582067,1.18674,1.74533e-05,1.35195,0.00767945,0,0,0,0,0,0,0.022,-0.002,-0.055,0,0,0,-5.803,32.298,-2.492,0.553,-0.247984,0.131037
23:23:32:933377,5.23599e-05,-0.582067,1.18674,1.74533e-05,1.35195,0.00767945,0,0,0,0,0,0,-0.054,-0.004,-0.138,0,0,0.001,-5.012,32.41,-3.003,0.896,-0.395929,-0.022544
23:23:32:938387,5.23599e-05,-0.582067,1.18674,1.74533e-05,1.35195,0.00767945,0,0,0,0,0,0,-0.088,-0.003,-0.168,0,0,0.001,-5.663,31.493,-2.492,0.588,-0.421291,0.022544
23:23:32:943325,5.23599e-05,-0.582067,1.18674,1.74533e-05,1.35195,0.00767945,0,0,0,0,0,0,-0.087,-0.01,-0.082,0,0,0.001,-5.621,31.752,-2.562,0.693,-0.288845,-0.035225
23:23:32:948497,5.23599e-05,-0.582067,1.18674,1.74533e-05,1.35195,0.00767945,0,0,0,0,0,0,-0.064,-0.027,0.041,0,0,0,-5.537,32.886,-3.486,0.994,-0.208532,0.059178
23:23:32:953513,5.23599e-05,-0.582067,1.18674,1.74533e-05,1.35195,0.00767945,0,0,0,0,0,0,-0.028,-0.058,0.14,0,0,0,-5.74,31.661,-2.842,1.267,-0.332524,0.083131
23:23:32:958639,5.23599e-05,-0.582067,1.18674,1.74533e-05,1.35195,0.00767945,0,0,0,0,0,0,-0.013,-0.063,0.074,0,0,0,-5.439,31.563,-3.759,1.218,-0.426927,0.083131
23:23:32:963764,5.23599e-05,-0.582067,1.18674,1.74533e-05,1.35195,0.00767945,0,0,0,0,0,0,-0.009,-0.032,-0.104,0,0,0,-6.181,31.283,-2.541,1.134,-0.35225,-0.046497
23:23:32:968751,5.23599e-05,-0.582067,1.18674,1.74533e-05,1.35195,0.00767945,0,0,0,0,0,0,-0.02,-0.001,-0.145,0,0,0,-5.425,31.542,-3.507,1.267,-0.339569,-0.011272
23:23:32:973708,5.23599e-05,-0.582067,1.18674,1.74533e-05,1.35195,0.00767945,0,0,0,0,0,0,-0.04,0.024,-0.046,0,0,0,-5.25,32.529,-2.632,1.155,-0.364931,0
23:23:32:978871,5.23599e-05,-0.582067,1.18674,1.74533e-05,1.35195,0.00767945,0,0,0,0,0,0,-0.044,0.023,0.039,0,0,0,-5.327,32.41,-2.982,1.008,-0.294481,0.035225
23:23:32:983816,5.23599e-05,-0.582067,1.18674,1.74533e-05,1.35195,0.00767945,0,0,0,0,0,0,-0.037,0.014,0.075,0,0,0,-5.733,32.13,-2.842,1.33,-0.277573,0.035225
23:23:32:989010,5.23599e-05,-0.582067,1.18674,1.74533e-05,1.35195,0.00767945,0,0,0,0,0,0,-0.021,0.019,0.012,0,0,0,-5.74,31.85,-3.003,1.554,-0.263483,0.035225
23:23:32:993960,5.23599e-05,-0.582067,1.18674,1.74533e-05,1.35195,0.00767945,0,0,0,0,0,0,-0.01,0.025,-0.043,0,0,0,-5.313,31.99,-2.821,0.945,-0.257847,-0.07045
23:23:32:999140,5.23599e-05,-0.582067,1.18674,1.74533e-05,1.35195,0.00767945,0,0,0,0,0,0,0.002,0.017,-0.092,0,0,0,-5.747,32.011,-2.324,1.134,-0.286027,0
23:23:33:4136,5.23599e-05,-0.582067,1.18674,1.74533e-05,1.35195,0.00767945,0,0,0,0,0,0,0,-0.003,-0.08,0,0,0,-5.859,31.612,-3.227,0.77,-0.363522,-0.011272
23:23:33:9124,5.23599e-05,-0.582067,1.18674,1.74533e-05,1.35195,0.00767945,0,0,0,0,0,0,-0.02,-0.04,-0.018,0,0,0,-5.327,32.179,-3.031,0.945,-0.298708,-0.022544
23:23:33:14249,5.23599e-05,-0.582067,1.18674,1.74533e-05,1.35195,0.00767945,0,0,0,0,0,0,-0.032,-0.051,0.001,0,0,0,-5.74,32.41,-2.772,0.875,-0.35225,-0.011272
23:23:33:19273,5.23599e-05,-0.582067,1.18674,1.74533e-05,1.35195,0.00767945,0,0,0,0,0,0,-0.03,-0.035,-0.053,0,0,0,-5.341,32.27,-2.933,0.931,-0.39452,0.059178
23:23:33:24386,5.23599e-05,-0.582067,1.18674,1.74533e-05,1.35195,0.00767945,0,0,0,0,0,0,-0.017,-0.01,-0.121,0,0,0,-4.69,32.13,-2.821,0.847,-0.252211,-0.107084
23:23:33:29368,5.23599e-05,-0.582067,1.18674,1.74533e-05,1.35195,0.00767945,0,0,0,0,0,0,0.007,0.017,-0.185,0,0,0,-5.628,32.298,-2.702,0.714,-0.442426,-0.011272
23:23:33:34321,5.23599e-05,-0.582067,1.18674,1.74533e-05,1.35193,0.00767945,0,0,0,0,0,0,0.021,0.016,-0.167,0,0,0,-5.327,32.508,-2.891,0.672,-0.395929,0.022544
23:23:33:39498,5.23599e-05,-0.582067,1.18674,1.74533e-05,1.35193,0.00767945,0,0,0,0,0,0,0.026,-0.012,-0.063,0,0,0,-5.327,31.563,-2.66,0.693,-0.329706,0.046497
23:23:33:44459,5.23599e-05,-0.582067,1.18674,1.74533e-05,1.35193,0.00767945,0,0,0,0,0,0,0.014,-0.032,0.003,0,0,0,-5.327,31.451,-2.821,1.274,-0.273346,0
23:23:33:49654,5.23599e-05,-0.582067,1.18674,1.74533e-05,1.35193,0.00767945,0,0,0,0,0,0,-0.009,-0.034,-0.001,0,0,0,-5.859,31.332,-3.031,1.148,-0.307162,-0.011272
23:23:33:54635,5.23599e-05,-0.582067,1.18674,1.74533e-05,1.35193,0.00767945,0,0,0,0,0,0,-0.015,-0.017,-0.061,0,0,0,-5.53,31.353,-3.122,0.931,-0.2818,-0.07045
23:23:33:59565,5.23599e-05,-0.582067,1.18674,1.74533e-05,1.35193,0.00767945,0,0,0,0,0,0,-0.017,0.004,-0.089,0,0,0,-6.041,31.892,-2.793,0.084,-0.278982,-0.059178
23:23:33:64703,5.23599e-05,-0.582067,1.18674,1.74533e-05,1.35193,0.00767945,0,0,0,0,0,0,-0.028,0.007,-0.024,0,0,0,-5.124,32.48,-3.171,1.134,-0.215577,0.094403
23:23:33:69745,5.23599e-05,-0.582067,1.18674,1.74533e-05,1.35193,0.00767945,0,0,0,0,0,0,-0.055,0.009,0.057,0,0,0,-5.635,32.13,-2.681,0.476,-0.332524,0.046497
23:23:33:74882,5.23599e-05,-0.582067,1.18674,1.74533e-05,1.35193,0.00767945,0,0,0,0,0,0,-0.061,0.018,0.003,0,0,0,-5.95,31.094,-3.409,1.092,-0.311389,-0.107084
23:23:33:79885,5.23599e-05,-0.582067,1.18674,1.74533e-05,1.35193,0.00767945,0,0,0,0,0,0,-0.044,0.033,-0.162,0,0,0,-5.642,31.871,-3.458,0.756,-0.405792,0.07045
23:23:33:84939,5.23599e-05,-0.582067,1.18674,1.74533e-05,1.35193,0.00767945,0,0,0,0,0,0,-0.03,0.029,-0.187,0,0,0,-5.761,31.92,-3.22,0.504,-0.291663,-0.177534
23:23:33:89997,5.23599e-05,-0.582067,1.18674,1.74533e-05,1.35193,0.00767945,0,0,0,0,0,0,-0.024,0,-0.019,0,0,0,-5.754,32.039,-2.94,1.134,-0.240939,0
23:23:33:94938,5.23599e-05,-0.582067,1.18674,1.74533e-05,1.35193,0.00767945,0,0,0,0,0,0,-0.026,-0.016,0.119,0,0,-0.001,-5.957,31.283,-3.388,1.155,-0.322661,-0.083131
23:23:33:100134,5.23599e-05,-0.582067,1.18674,1.74533e-05,1.35193,0.00767945,0,0,0,0,0,0,-0.029,-0.016,0.18,0,0,-0.001,-5.635,32.459,-3.171,0.686,-0.32407,-0.046497
23:23:33:105242,5.23599e-05,-0.582067,1.18674,1.74533e-05,1.35193,0.00767945,0,0,0,0,0,0,-0.043,0,0.128,0,0,0,-5.544,32.438,-2.562,0.966,-0.418473,0.046497
23:23:33:110245,5.23599e-05,-0.582067,1.18674,1.74533e-05,1.35193,0.00767945,0,0,0,0,0,0,-0.06,0,0.14,0,0,0,-5.663,31.871,-3.22,1.127,-0.222622,-0.07045
23:23:33:115245,5.23599e-05,-0.582067,1.18674,1.74533e-05,1.35193,0.00767945,0,0,0,0,0,0,-0.078,-0.03,0.242,0,0,-0.001,-6.209,31.871,-3.549,0.644,-0.30998,-0.107084
23:23:33:120391,5.23599e-05,-0.582067,1.18674,1.74533e-05,1.35193,0.00767945,0,0,0,0,0,0,-0.071,-0.053,0.275,0,0,-0.002,-5.334,31.563,-2.842,0.896,-0.29589,-0.07045
23:23:33:125315,5.23599e-05,-0.582067,1.18674,1.74533e-05,1.35193,0.00767945,0,0,0,0,0,0,-0.027,-0.055,0.15,0,0,-0.001,-5.852,32.907,-2.891,1.106,-0.273346,-0.011272
23:23:33:130440,5.23599e-05,-0.582067,1.18674,1.74533e-05,1.35193,0.00767945,0,0,0,0,0,0,0.012,-0.027,-0.017,0,0,0,-6.37,31.283,-2.632,0.847,-0.291663,0.059178
23:23:33:135511,5.23599e-05,-0.582067,1.18674,1.74533e-05,1.35193,0.00767945,0,0,0,0,0,0,0.047,0.032,-0.23,0,0,0,-5.824,31.892,-3.339,0.609,-0.339569,-0.046497
23:23:33:140635,5.23599e-05,-0.582067,1.18674,1.74533e-05,1.35193,0.00767945,0,0,0,0,0,0,0.039,0.062,-0.289,0,0,0,-5.635,32.319,-2.233,1.148,-0.319843,0.059178
23:23:33:145616,5.23599e-05,-0.582067,1.18674,1.74533e-05,1.35193,0.00767945,0,0,0,0,0,0,-0.006,0.063,-0.284,0,0,0.001,-5.74,32.529,-2.303,0.784,-0.46497,-0.07045
23:23:33:150753,5.23599e-05,-0.582067,1.18674,1.74533e-05,1.35193,0.00767945,0,0,0,0,0,0,-0.033,0.036,-0.253,0,0,0.001,-5.901,31.192,-3.409,1.183,-0.270528,-0.035225
23:23:33:155689,5.23599e-05,-0.582067,1.18674,1.74533e-05,1.35193,0.00767945,0,0,0,0,0,0,-0.038,-0.01,-0.183,0,0,0.001,-4.921,31.731,-2.723,1.015,-0.421291,-0.022544
23:23:33:160864,5.23599e-05,-0.582067,1.18674,1.74533e-05,1.35193,0.00767945,0,0,0,0,0,0,-0.025,-0.02,-0.137,0,0,0.001,-5.551,32.2,-3.36,0.945,-0.228258,-0.094403
23:23:33:165893,5.23599e-05,-0.582067,1.18674,1.74533e-05,1.35193,0.00767945,0,0,0,0,0,0,-0.013,0.002,-0.143,0,0,0.001,-5.642,32.438,-2.723,0.868,-0.219804,-0.059178
23:23:33:171013,5.23599e-05,-0.582067,1.18674,1.74533e-05,1.35193,0.00767945,0,0,0,0,0,0,-0.021,0.026,-0.24,0,0,0.001,-5.789,31.073,-2.681,1.253,-0.291663,-0.022544
23:23:33:175951,5.23599e-05,-0.582067,1.18674,1.74533e-05,1.35193,0.00767945,0,0,0,0,0,0,-0.027,0.018,-0.269,0,0,0.002,-5.845,31.472,-3.479,1.449,-0.207123,-0.022544
23:23:33:181114,5.23599e-05,-0.582067,1.18674,1.74533e-05,1.35193,0.00767945,0,0,0,0,0,0,-0.025,-0.013,-0.141,0,0,0.001,-5.572,32.298,-2.184,1.547,-0.260665,-0.035225
23:23:33:186081,5.23599e-05,-0.582067,1.18674,1.74533e-05,1.35193,0.00767945,0,0,0,0,0,0,-0.014,-0.022,0.02,0,0,0,-5.628,31.521,-3.906,1.33,-0.286027,-0.011272
23:23:33:191091,5.23599e-05,-0.582067,1.18674,1.74533e-05,1.35193,0.00767945,0,0,0,0,0,0,-0.001,-0.005,0.192,0,0,-0.001,-5.32,31.801,-3.192,0.672,-0.321252,0
23:23:33:196182,5.23599e-05,-0.582067,1.18674,1.74533e-05,1.35193,0.00767945,0,0,0,0,0,0,-0.003,0.01,0.195,0,0,-0.001,-5.194,32.298,-2.821,0.91,-0.314207,-0.046497
23:23:33:201248,5.23599e-05,-0.582067,1.18674,1.74533e-05,1.35193,0.00767945,0,0,0,0,0,0,-0.023,0.009,0.102,0,0,0,-5.355,31.682,-3.759,0.889,-0.260665,-0.059178
23:23:33:206378,5.23599e-05,-0.582067,1.18674,1.74533e-05,1.35193,0.00767945,0,0,0,0,0,0,-0.034,-0.003,0.051,0,0,0,-5.082,32.319,-3.605,0.826,-0.255029,-0.107084
23:23:33:211343,5.23599e-05,-0.582067,1.18674,1.74533e-05,1.35193,0.00767945,0,0,0,0,0,0,-0.032,-0.015,0.044,0,0,0,-6.09,32.179,-3.031,1.127,-0.308571,-0.142309
23:23:33:216328,5.23599e-05,-0.582067,1.18674,1.74533e-05,1.35193,0.00767945,0,0,0,0,0,0,-0.021,-0.014,0.074,0,0,0,-5.11,32.837,-2.562,1.218,-0.181761,0.07045
23:23:33:221487,5.23599e-05,-0.582067,1.18674,1.74533e-05,1.35193,0.00767945,0,0,0,0,0,0,-0.013,-0.018,0.13,0,0,-0.001,-5.012,31.731,-3.528,1.575,-0.362113,-0.022544
23:23:33:226627,5.23599e-05,-0.582067,1.18674,1.74533e-05,1.35193,0.00767945,0,0,0,0,0,0,-0.015,-0.031,0.143,0,0,-0.001,-4.893,31.752,-2.884,0.791,-0.329706,-0.046497
23:23:33:231573,5.23599e-05,-0.582067,1.18674,1.74533e-05,1.35193,0.00767945,0,0,0,0,0,0,-0.016,-0.047,0.08,0,0,-0.001,-5.222,31.85,-2.324,1.232,-0.22544,0.118356
23:23:33:236755,5.23599e-05,-0.582067,1.18674,1.74533e-05,1.35193,0.00767945,0,0,0,0,0,0,-0.012,-0.043,0.011,0,0,0,-5.089,31.731,-3.36,1.127,-0.348023,-0.035225
23:23:33:241737,5.23599e-05,-0.582067,1.18674,1.74533e-05,1.35193,0.00767945,0,0,0,0,0,0,-0.016,-0.015,-0.021,0,0,0,-5.439,31.941,-2.702,0.826,-0.326888,0
23:23:33:246691,5.23599e-05,-0.582067,1.18674,1.74533e-05,1.35193,0.00767945,0,0,0,0,0,0,-0.028,0,0.023,0,0,0,-5.565,31.92,-2.961,1.267,-0.200078,-0.107084
23:23:33:251825,5.23599e-05,-0.582067,1.18674,1.74533e-05,1.35193,0.00767945,0,0,0,0,0,0,-0.041,0.003,0.092,0,0,0,-5.446,32.011,-3.409,1.043,-0.263483,-0.022544
23:23:33:257004,5.23599e-05,-0.582067,1.18674,1.74533e-05,1.35193,0.00767945,0,0,0,0,0,0,-0.033,-0.003,0.074,0,0,-0.001,-5.656,30.933,-3.038,0.742,-0.326888,0.094403
23:23:33:262004,5.23599e-05,-0.582067,1.18674,1.74533e-05,1.35193,0.00767945,0,0,0,0,0,0,-0.027,-0.001,0.045,0,0,0,-5.775,31.402,-2.891,1.246,-0.38043,0.083131
23:23:33:266977,5.23599e-05,-0.582067,1.18674,1.74533e-05,1.35193,0.00767945,0,0,0,0,0,0,-0.03,0.013,0.02,0,0,0,-5.565,32.13,-2.73,0.742,-0.307162,0.083131
23:23:33:272110,5.23599e-05,-0.582067,1.18674,1.74533e-05,1.35193,0.00767945,0,0,0,0,0,0,-0.032,0.023,-0.008,0,0,0,-5.978,32.389,-3.129,0.238,-0.362113,0.046497
23:23:33:277131,5.23599e-05,-0.582067,1.18674,1.74533e-05,1.35193,0.00767945,0,0,0,0,0,0,-0.021,0.027,-0.103,0,0,0,-6.062,32.557,-2.534,0.672,-0.304344,0.083131
23:23:33:282250,5.23599e-05,-0.582067,1.18674,1.74533e-05,1.35193,0.00767945,0,0,0,0,0,0,-0.011,0.018,-0.165,0,0,0.001,-5.11,31.99,-2.345,1.071,-0.329706,0.177534
23:23:33:287194,5.23599e-05,-0.582067,1.18674,1.74533e-05,1.35193,0.00767945,0,0,0,0,0,0,-0.012,-0.004,-0.185,0,0,0,-5.46,31.521,-2.982,1.134,-0.383248,0.094403
23:23:33:292381,5.23599e-05,-0.582067,1.18674,1.74533e-05,1.35193,0.00767945,0,0,0,0,0,0,-0.022,-0.023,-0.155,0,0,0,-5.929,31.752,-3.248,1.001,-0.311389,-0.107084
23:23:33:297362,5.23599e-05,-0.582067,1.18674,1.74533e-05,1.35193,0.00767945,0,0,0,0,0,0,-0.026,-0.041,-0.11,0,0,0,-5.964,31.304,-2.912,1.029,-0.276164,0.059178
23:23:33:302483,5.23599e-05,-0.582067,1.18674,1.74533e-05,1.35193,0.00767945,0,0,0,0,0,0,-0.015,-0.042,-0.098,0,0,0,-5.005,31.045,-3.003,0.826,-0.238121,-0.07045
23:23:33:307446,5.23599e-05,-0.582067,1.18674,1.74533e-05,1.35193,0.00767945,0,0,0,0,0,0,0.016,-0.034,-0.072,0,0,0,-5.432,31.234,-3.647,0.966,-0.38043,0
23:23:33:312572,5.23599e-05,-0.582067,1.18674,1.74533e-05,1.35193,0.00767945,0,0,0,0,0,0,0.034,-0.032,-0.025,0,0,0,-5.523,32.907,-2.961,0.924,-0.38043,-0.046497
23:23:33:317558,5.23599e-05,-0.582067,1.18674,1.74533e-05,1.35193,0.00767945,0,0,0,0,0,0,0.031,-0.039,0.062,0,0,0,-5.726,31.92,-2.94,0.875,-0.418473,0.022544
23:23:33:322737,5.23599e-05,-0.582067,1.18674,1.74533e-05,1.35193,0.00767945,0,0,0,0,0,0,0.003,-0.041,0.084,0,0,0,-5.761,32.27,-2.87,1.253,-0.260665,-0.214168
23:23:33:327680,5.23599e-05,-0.582067,1.18674,1.74533e-05,1.35193,0.00767945,0,0,0,0,0,0,-0.055,-0.027,0.027,0,0,0,-5.523,31.731,-3.22,0.728,-0.291663,0.022544
23:23:33:332873,5.23599e-05,-0.582067,1.18674,1.74533e-05,1.35193,0.00767945,0,0,0,0,0,0,-0.078,-0.014,-0.02,0,0,0,-5.124,31.682,-3.122,1.092,-0.418473,0.07045
23:23:33:337820,5.23599e-05,-0.582067,1.18674,1.74533e-05,1.35193,0.00767945,0,0,0,0,0,0,-0.057,-0.013,0.008,0,0,0,-5.355,31.563,-3.171,1.267,-0.263483,0.083131
23:23:33:342985,5.23599e-05,-0.582067,1.18674,1.74533e-05,1.35193,0.00767945,0,0,0,0,0,0,-0.019,-0.026,0.093,0,0,0,-4.669,32.389,-2.66,1.302,-0.207123,-0.059178
23:23:33:347988,5.23599e-05,-0.582067,1.18674,1.74533e-05,1.35193,0.00767945,0,0,0,0,0,0,0.014,-0.045,0.18,0,0,0,-5.74,31.71,-3.241,0.826,-0.415655,-0.022544
23:23:33:353123,5.23599e-05,-0.582067,1.18674,1.74533e-05,1.35193,0.00767945,0,0,0,0,0,0,-0.015,-0.039,0.084,0,0,0,-5.53,31.332,-2.695,1.365,-0.291663,0.035225
23:23:33:358071,5.23599e-05,-0.582067,1.18674,1.74533e-05,1.35193,0.00767945,0,0,0,0,0,0,-0.054,-0.023,-0.054,0,0,0,-6.272,32.459,-2.933,0.875,-0.255029,-0.022544
23:23:33:363238,5.23599e-05,-0.582067,1.18674,1.74533e-05,1.35193,0.00767945,0,0,0,0,0,0,-0.092,0,-0.226,0,0.001,0,-5.572,31.003,-2.751,0.896,-0.332524,-0.022544
23:23:33:368233,5.23599e-05,-0.582067,1.18674,1.74533e-05,1.35193,0.00767945,0,0,0,0,0,0,-0.097,0.005,-0.255,0,0.001,0,-5.439,31.731,-2.751,1.029,-0.294481,-0.022544
23:23:33:373355,5.23599e-05,-0.582067,1.18674,1.74533e-05,1.35193,0.00767945,0,0,0,0,0,0,-0.093,0,-0.177,0,0,0,-5.306,31.451,-2.534,0.945,-0.278982,-0.035225
23:23:33:378356,5.23599e-05,-0.582067,1.18674,1.74533e-05,1.35193,0.00767945,0,0,0,0,0,0,-0.092,-0.007,-0.096,0,0,0,-5.733,31.332,-2.828,0.672,-0.345205,0.011272
23:23:33:383373,5.23599e-05,-0.582067,1.18674,1.74533e-05,1.35193,0.00767945,0,0,0,0,0,0,-0.079,-0.016,-0.032,0,0,0,-5.005,32.011,-3.437,1.155,-0.266301,0.035225
23:23:33:388479,5.23599e-05,-0.582067,1.18674,1.74533e-05,1.35193,0.00767945,0,0,0,0,0,0,-0.059,-0.021,-0.054,0,0,0,-5.649,31.801,-2.751,0.931,-0.415655,0.083131
23:23:33:393604,5.23599e-05,-0.582067,1.18674,1.74533e-05,1.35193,0.00767945,0,0,0,0,0,0,-0.029,-0.025,-0.145,0,0,0,-5.67,32.179,-3.486,0.952,-0.367749,0
23:23:33:398623,5.23599e-05,-0.582067,1.18674,1.74533e-05,1.35193,0.00767945,0,0,0,0,0,0,-0.021,-0.023,-0.193,0,0,0.001,-5.334,32.081,-3.458,1.484,-0.278982,-0.035225
23:23:33:403554,5.23599e-05,-0.582067,1.18674,1.74533e-05,1.35193,0.00767945,0,0,0,0,0,0,-0.01,-0.022,-0.177,0,0,0.001,-5.026,31.612,-3.479,1.008,-0.288845,-0.059178
23:23:33:408733,5.23599e-05,-0.582067,1.18674,1.74533e-05,1.35193,0.00767945,0,0,0,0,0,0,0.008,-0.023,-0.109,0,0,0,-5.663,32.011,-3.101,1.33,-0.238121,0
23:23:33:413680,5.23599e-05,-0.582067,1.18674,1.74533e-05,1.35193,0.00767945,0,0,0,0,0,0,0.046,-0.017,0.008,0,0,0,-5.523,30.975,-2.695,1.246,-0.32407,-0.046497
23:23:33:418855,5.23599e-05,-0.582067,1.18674,1.74533e-05,1.35193,0.00767945,0,0,0,0,0,0,0.05,-0.003,0.039,0,0,0,-5.656,31.78,-2.94,0.644,-0.22544,-0.035225
23:23:33:423852,5.23599e-05,-0.582067,1.18674,1.74533e-05,1.35193,0.00767945,0,0,0,0,0,0,0.005,0.015,-0.013,0,0,0,-5.138,32.109,-2.653,1.253,-0.276164,-0.046497
23:23:33:428800,5.23599e-05,-0.582067,1.18674,1.74533e-05,1.35193,0.00767945,0,0,0,0,0,0,-0.039,0.014,-0.067,0,0,0,-5.642,31.78,-2.583,1.246,-0.278982,0.059178
23:23:33:434011,5.23599e-05,-0.582067,1.18674,1.74533e-05,1.35193,0.00767945,0,0,0,0,0,0,-0.075,-0.008,-0.055,0,0,0,-5.642,31.71,-2.583,1.211,-0.229667,-0.059178
23:23:33:439121,5.23599e-05,-0.582067,1.18674,1.74533e-05,1.35193,0.00767945,0,0,0,0,0,0,-0.048,-0.028,0.072,-0.001,0,-0.001,-5.327,31.801,-2.205,1.029,-0.304344,-0.022544
23:23:33:444102,5.23599e-05,-0.582067,1.18674,1.74533e-05,1.35193,0.00767945,0,0,0,0,0,0,-0.012,-0.03,0.145,-0.001,0,-0.001,-5.25,32.13,-2.415,0.672,-0.273346,-0.190215
23:23:33:449069,5.23599e-05,-0.582067,1.18674,1.74533e-05,1.35193,0.00767945,0,0,0,0,0,0,0.02,-0.028,0.15,0,0,-0.001,-5.257,31.451,-3.101,0.833,-0.370567,0.022544
23:23:33:454228,5.23599e-05,-0.582067,1.18674,1.74533e-05,1.35193,0.00767945,0,0,0,0,0,0,0.017,-0.034,0.119,0,0,0,-5.859,31.822,-2.933,0.931,-0.314207,0
23:23:33:459193,5.23599e-05,-0.582067,1.18674,1.74533e-05,1.35193,0.00767945,0,0,0,0,0,0,-0.003,-0.059,0.127,0,0,-0.001,-5.747,31.801,-3.269,0.959,-0.298708,0.094403
23:23:33:464351,5.23599e-05,-0.582067,1.18674,1.74533e-05,1.35193,0.00767945,0,0,0,0,0,0,-0.006,-0.075,0.166,0,0,-0.001,-5.348,31.752,-3.479,0.553,-0.29589,0.011272
23:23:33:469370,5.23599e-05,-0.582067,1.18674,1.74533e-05,1.35193,0.00767945,0,0,0,0,0,0,0.018,-0.067,0.158,0,0,-0.001,-5.208,31.731,-2.317,1.043,-0.22544,0
23:23:33:474297,5.23599e-05,-0.582067,1.18674,1.74533e-05,1.35193,0.00767945,0,0,0,0,0,0,0.04,-0.036,0.071,0,0,-0.001,-5.95,31.752,-2.373,1.008,-0.133855,0.107084
23:23:33:479492,5.23599e-05,-0.582067,1.18674,1.74533e-05,1.35193,0.00767945,0,0,0,0,0,0,0.043,0.016,-0.083,0,0,0,-6.272,31.304,-3.311,1.071,-0.311389,0.035225
23:23:33:484633,5.23599e-05,-0.58205,1.18674,1.74533e-05,1.35193,0.00767945,0,0,0,0,0,0,0.025,0.028,-0.125,0,0,0,-5.411,31.822,-3.01,1.428,-0.278982,0
23:23:33:489611,5.23599e-05,-0.582032,1.18674,1.74533e-05,1.35193,0.00767945,0,0.00193732,0,0,0,0,0.007,0.01,-0.092,0,0,0,-5.663,31.507,-2.821,0.91,-0.184579,-0.107084
23:23:33:494758,5.23599e-05,-0.582032,1.18674,1.74533e-05,1.35193,0.00767945,0,0.0016057,0,0,0,0,0.017,-0.006,-0.07,0,0,0,-5.768,30.744,-2.534,0.812,-0.329706,-0.094403
23:23:33:499687,5.23599e-05,-0.582032,1.18674,1.74533e-05,1.35193,0.00767945,0,0,0,0,0,0,0.034,-0.011,-0.113,0,0,0,-5.726,32.319,-2.492,1.127,-0.377612,0.07045
23:23:33:504851,5.23599e-05,-0.582032,1.18674,1.74533e-05,1.35193,0.00767945,0,0,0,0,0,0,0.019,-0.006,-0.175,0,0,0.001,-5.95,31.248,-2.912,1.267,-0.345205,-0.022544
23:23:33:509849,5.23599e-05,-0.582032,1.18674,1.74533e-05,1.35193,0.00767945,0,0,0,0,0,0,-0.042,0,-0.232,0,0,0.001,-5.334,32.158,-3.171,0.945,-0.311389,-0.011272
23:23:33:514816,5.23599e-05,-0.582032,1.18674,1.74533e-05,1.35193,0.00767945,0,0,0,0,0,0,-0.074,0.006,-0.221,0,0,0.001,-5.53,31.976,-2.345,0.91,-0.345205,0.022544
23:23:33:519933,5.23599e-05,-0.582032,1.18674,1.74533e-05,1.35193,0.00767945,0,0,0,0,0,0,-0.053,0.027,-0.145,-0.001,0,0.001,-5.964,32.018,-3.08,0.959,-0.171898,0.046497
23:23:33:524939,5.23599e-05,-0.582032,1.18674,1.74533e-05,1.35193,0.00767945,0,0,0,0,0,0,0.002,0.033,-0.081,0,0,0.001,-6.069,32.368,-2.254,0.742,-0.339569,-0.07045
23:23:33:530113,5.23599e-05,-0.582032,1.18674,1.74533e-05,1.35193,0.00767945,0,0,0,0,0,0,0.068,-0.009,-0.003,0,0.001,0,-5.425,31.052,-2.849,0.588,-0.229667,0.059178
23:23:33:535066,5.23599e-05,-0.582032,1.18674,1.74533e-05,1.35193,0.00767945,0,0,0,0,0,0,0.029,-0.098,0.01,0.002,0,0,-5.852,32.088,-3.171,1.106,-0.43679,0.083131
23:23:33:540238,5.23599e-05,-0.582032,1.18674,1.74533e-05,1.35193,0.00767945,0,0,0,0,0,0,-0.033,-0.129,-0.024,0.003,-0.002,0,-5.964,32.158,-2.653,0.805,-0.348023,-0.059178
23:23:33:545167,5.23599e-05,-0.582032,1.18674,1.74533e-05,1.35193,0.00767945,0,0,0,0,0,0,-0.064,-0.078,-0.109,0.001,-0.003,0,-6.272,31.85,-3.5,1.204,-0.35225,-0.035225
23:23:33:550361,5.23599e-05,-0.582032,1.18674,1.74533e-05,1.35193,0.00767945,0,0,0,0,0,0,-0.015,0.002,-0.148,0,-0.001,0,-5.551,31.241,-2.562,1.148,-0.332524,-0.094403
23:23:33:555310,5.23599e-05,-0.582032,1.18674,1.74533e-05,1.35193,0.00767945,0,0,0,0,0,0,0.072,0.097,-0.133,-0.001,0.001,0,-5.313,31.094,-2.751,0.553,-0.311389,0.035225
23:23:33:560489,5.23599e-05,-0.582032,1.18674,1.74533e-05,1.35193,0.00767945,0,0,0,0,0,0,0.068,0.104,-0.077,-0.001,0.001,-0.001,-5.376,31.094,-2.583,1.064,-0.301526,0.177534
23:23:33:565522,5.23599e-05,-0.582032,1.18674,1.74533e-05,1.35193,0.00767945,0,0,0,0,0,0,-0.025,0.032,0.034,0,0,-0.001,-6.069,32.2,-2.226,1.064,-0.390293,0.07045
23:23:33:570601,5.23599e-05,-0.582032,1.18674,1.74533e-05,1.35193,0.00767945,0,0,0,0,0,0,-0.072,-0.037,0.098,0,0,-0.001,-5.761,32.123,-2.751,1.127,-0.278982,-0.07045
23:23:33:575559,5.23599e-05,-0.582032,1.18674,1.74533e-05,1.35193,0.00767945,0,0,0,0,0,0,-0.043,-0.109,0.107,0.001,0,0,-5.208,31.164,-2.471,1.47,-0.345205,-0.059178
23:23:33:580544,5.23599e-05,-0.582032,1.18674,1.74533e-05,1.35193,0.00767945,0,0,0,0,0,0,0.005,-0.107,0.025,0.002,0,0,-5.852,31.556,-2.87,0.826,-0.311389,0.046497
23:23:33:585694,5.23599e-05,-0.582032,1.18674,1.74533e-05,1.35193,0.00767945,0,0,0,0,0,0,0.023,-0.034,-0.179,0,0,0.001,-5.642,31.423,-2.065,1.323,-0.297299,-0.022544
23:23:33:590740,5.23599e-05,-0.582015,1.18674,1.74533e-05,1.35193,0.00767945,0,0,0,0,0,0,-0.004,0.025,-0.288,-0.001,0,0.001,-5.355,31.591,-3.171,1.043,-0.133855,-0.059178
23:23:33:595862,5.23599e-05,-0.582015,1.18674,1.74533e-05,1.35193,0.00767945,0,0,0,0,0,0,-0.036,0.074,-0.317,-0.002,0,0.001,-5.222,32.662,-2.842,1.134,-0.370567,-0.07045
23:23:33:600854,5.23599e-05,-0.582015,1.18674,1.74533e-05,1.35193,0.00767945,0,0,0,0,0,0,-0.029,0.074,-0.27,-0.002,0,0.001,-5.068,32.389,-2.891,1.106,-0.273346,0
23:23:33:605971,5.23599e-05,-0.582015,1.18674,1.74533e-05,1.35193,0.00767945,0,0,0,0,0,0,-0.011,0.048,-0.202,0,0,0.001,-5.901,32.795,-3.248,1.246,-0.307162,-0.059178
23:23:33:610934,5.23599e-05,-0.582015,1.18674,1.74533e-05,1.35193,0.00767945,0,0,0,0,0,0,-0.008,0.02,-0.183,0,0,0.001,-5.418,31.346,-2.527,0.945,-0.263483,0.094403
23:23:33:616099,5.23599e-05,-0.582015,1.18674,1.74533e-05,1.35193,0.00767945,0,0,0,0,0,0,0.007,-0.029,-0.17,0.001,0,0.001,-6.069,33.446,-3.906,0.504,-0.222622,-0.011272
23:23:33:621113,5.23599e-05,-0.582015,1.18674,1.74533e-05,1.35193,0.00767945,0,0,0,0,0,0,0.036,-0.05,-0.157,0.002,0,0,-5.782,30.919,-3.29,0.714,-0.446653,0
23:23:33:626042,5.23599e-05,-0.582015,1.18674,1.74533e-05,1.35193,0.00767945,0,0,0,0,0,0,0.021,-0.032,-0.151,0.001,0.001,0,-4.48,32.62,-3.381,0.791,-0.367749,0.07045
23:23:33:631237,5.23599e-05,-0.582015,1.18674,1.74533e-05,1.35193,0.00767945,0,0,0,0,0,0,-0.079,0.011,-0.144,0,0.002,0,-5.663,35.252,-2.303,1.113,-0.418473,-0.022544
23:23:33:636182,5.23599e-05,-0.582015,1.18674,1.74533e-05,1.35193,0.00767945,0,0,0,0,0,0,-0.148,0.019,-0.142,0,0.001,0,-5.411,30.772,-2.443,0.994,-0.294481,-0.011272
23:23:33:641305,5.23599e-05,-0.582015,1.18674,1.74533e-05,1.35193,0.00767945,0,0,0,0,0,0,-0.146,-0.004,-0.174,0,0,0,-5.222,31.969,-3.906,0.287,-0.276164,-0.035225
23:23:33:646297,5.23599e-05,-0.582015,1.18674,1.74533e-05,1.35193,0.00767945,0,0,0,0,0,0,-0.07,-0.013,-0.233,0,0,0,-5.453,32.2,-3.192,-0.07,-0.304344,-0.190215
23:23:33:651485,5.23599e-05,-0.582015,1.18674,1.74533e-05,1.35193,0.00767945,0,0,0,0,0,0,0.048,0.021,-0.351,0.001,0,0.002,-5.971,31.857,-2.625,1.638,-0.240939,0
23:23:33:656480,5.23599e-05,-0.582015,1.18674,1.74533e-05,1.35193,0.00767945,0,0,0,0,0,0,0.076,0.057,-0.396,0,0,0.002,-5.754,31.584,-2.583,1.155,-0.317025,-0.022544
23:23:33:661594,5.23599e-05,-0.582015,1.18674,1.74533e-05,1.35193,0.00767945,0,0,0,0,0,0,0.048,0.073,-0.32,0,0.001,0.001,-5.495,31.619,-2.492,0.973,-0.283209,0.011272
23:23:33:666619,5.23599e-05,-0.582015,1.18674,1.74533e-05,1.35193,0.00767945,0,0,0,0,0,0,0.019,0.048,-0.179,-0.001,0.001,0,-5.46,31.192,-3.22,-1.428,-0.247984,-0.083131
23:23:33:671721,5.23599e-05,-0.582015,1.18674,1.74533e-05,1.35193,0.00767945,0,0,0,0,0,0,-0.001,-0.005,0.015,0,0.001,0,-4.599,32.858,-2.632,1.533,-0.304344,0.035225
23:23:33:676719,5.23599e-05,-0.582015,1.18674,1.74533e-05,1.35193,0.00767945,0,0,0,0,0,0,-0.006,-0.028,0.037,0,0,0,-7.434,29.568,-3.122,1.344,-0.2818,-0.083131
23:23:33:681716,5.23599e-05,-0.582015,1.18674,1.74533e-05,1.35193,0.00767945,0,0,0,0,0,0,-0.015,-0.042,-0.063,0,0,0,-4.928,31.969,-2.345,1.393,-0.263483,-0.059178
23:23:33:686860,5.23599e-05,-0.582015,1.18674,1.74533e-05,1.35193,0.00767945,0,0,0,0,0,0,-0.022,-0.047,-0.101,0,0,0,-5.733,30.422,-2.415,0.616,-0.2818,0
23:23:33:691969,5.23599e-05,-0.582015,1.18674,1.74533e-05,1.35193,0.00767945,0,0,0,0,0,0,-0.027,-0.044,0.003,0,0,-0.001,-5.033,31.815,-2.541,1.029,-0.278982,0.083131
23:23:33:696971,5.23599e-05,-0.582015,1.18674,1.74533e-05,1.35193,0.00767945,0,0,0,0,0,0,-0.021,-0.027,0.12,-0.001,0,-0.001,-5.544,33.719,-2.66,0.448,-0.276164,-0.022544
23:23:33:702091,5.23599e-05,-0.582015,1.18674,1.74533e-05,1.35193,0.00767945,0,0,0,0,0,0,-0.005,0.01,0.174,-0.001,0,-0.002,-5.25,31.43,-3.248,1.064,-0.38043,0.059178
23:23:33:707124,5.23599e-05,-0.582015,1.18674,1.74533e-05,1.35193,0.00767945,0,0,0,0,0,0,0.003,0.022,0.051,0,0,0,-5.565,30.38,-2.464,0.917,-0.452289,-0.083131
23:23:33:712217,5.23599e-05,-0.582015,1.18674,1.74533e-05,1.35193,0.00767945,0,0,0,0,0,0,-0.005,0.008,-0.041,0,0,0,-5.754,33.292,-2.534,0.658,-0.35225,0
23:23:33:717220,5.23599e-05,-0.582015,1.18674,1.74533e-05,1.35193,0.00767945,0,0,0,0,0,0,-0.039,-0.016,-0.089,0.001,0,0,-5.761,32.515,-2.821,1.519,-0.200078,0.046497
23:23:33:722239,5.23599e-05,-0.582015,1.18674,1.74533e-05,1.35193,0.00767945,0,0,0,0,0,0,-0.058,-0.022,-0.078,0.002,0,0,-5.845,31.003,-2.415,0.714,-0.245166,0.083131
23:23:33:727349,5.23599e-05,-0.582015,1.18674,1.74533e-05,1.35193,0.00767945,0,0,0,0,0,0,-0.063,-0.013,-0.1,0.001,0,0,-5.649,31.668,-2.87,0.791,-0.348023,0.059178
23:23:33:732351,5.23599e-05,-0.582015,1.18674,1.74533e-05,1.35193,0.00767945,0,0,0,0,0,0,-0.051,0,-0.157,0.001,0,0,-5.754,31.192,-2.492,1.218,-0.362113,-0.153581
23:23:33:737473,5.23599e-05,-0.582015,1.18674,1.74533e-05,1.35193,0.00767945,0,0,0,0,0,0,-0.038,0.015,-0.213,0,0,0.001,-5.978,31.276,-3.122,0.364,-0.263483,-0.046497
23:23:33:742465,5.23599e-05,-0.582015,1.18674,1.74533e-05,1.35193,0.00767945,0,0,0,0,0,0,-0.042,0.012,-0.171,0,0,0,-5.103,31.192,-3.15,0.791,-0.339569,0.022544
23:23:33:747433,5.23599e-05,-0.582015,1.18674,1.74533e-05,1.35193,0.00767945,0,0,0,0,0,0,-0.058,-0.018,-0.015,-0.001,0,-0.001,-5.831,31.857,-3.101,0.546,-0.219804,-0.035225
23:23:33:752590,5.23599e-05,-0.582015,1.18674,1.74533e-05,1.35193,0.00767945,0,0,0,0,0,0,-0.06,-0.04,0.07,0,0,-0.001,-5.95,30.765,-2.66,0.707,-0.317025,0.083131
23:23:33:757556,5.23599e-05,-0.582015,1.18674,1.74533e-05,1.35193,0.00767945,0,0,0,0,0,0,-0.035,-0.043,0.101,0,0,-0.001,-5.348,31.08,-2.352,1.302,-0.38043,0.022544
23:23:33:762687,5.23599e-05,-0.582015,1.18674,1.74533e-05,1.35193,0.00767945,0,0,0,0,0,0,-0.003,-0.026,0.088,0,0,0,-5.362,31.192,-3.22,1.232,-0.314207,-0.07045
23:23:33:767733,5.23599e-05,-0.582015,1.18674,1.74533e-05,1.35193,0.00767945,0,0,0,0,0,0,0.037,-0.003,0.086,0,0,0,-5.124,31.346,-2.772,0.714,-0.393111,0
23:23:33:772853,5.23599e-05,-0.582015,1.18674,1.74533e-05,1.35193,0.00767945,0,0,0,0,0,0,0.043,-0.001,0.069,0,0,0,-5.677,31.78,-3.08,0.546,-0.240939,0.107084
23:23:33:777871,3.49066e-05,-0.582015,1.18674,1.74533e-05,1.35193,0.00767945,0,0,0,0,0,0,0.027,-0.001,-0.066,0,0,0,-4.991,32.515,-2.632,0.945,-0.307162,0.094403
23:23:33:782938,3.49066e-05,-0.582015,1.18674,1.74533e-05,1.35193,0.00767945,0,0,0,0,0,0,0.014,0.005,-0.208,0,0,0,-5.551,30.849,-2.534,1.246,-0.286027,0.07045
23:23:33:787928,3.49066e-05,-0.582015,1.18674,1.74533e-05,1.35193,0.00767945,0,0,0,0,0,0,0.019,0.014,-0.314,0,0,0.001,-5.334,31.773,-2.443,1.064,-0.339569,-0.022544
23:23:33:793090,3.49066e-05,-0.582015,1.18675,1.74533e-05,1.35193,0.00767945,0,0,0,0,0,0,0.044,0.005,-0.167,0,0,0,-5.257,32.207,-2.604,1.687,-0.219804,0.083131
23:23:33:798092,3.49066e-05,-0.582015,1.18675,1.74533e-05,1.35193,0.00767945,0,0,0,0,0,0,0.056,-0.003,-0.005,0,0,0,-5.649,31.038,-2.534,0.917,-0.386066,0.035225
23:23:33:803039,3.49066e-05,-0.582015,1.18675,1.74533e-05,1.35193,0.00767945,0,0,0,0,0,0,0.054,0,0.121,0,0,-0.001,-5.516,31.353,-3.22,1.085,-0.298708,0.035225
23:23:33:808238,3.49066e-05,-0.582015,1.18675,1.74533e-05,1.35193,0.00767945,0,0,0,0,0,0,0.042,0.011,0.083,0,0,0,-5.866,31.199,-2.975,0.896,-0.329706,-0.118356
23:23:33:813337,3.49066e-05,-0.582015,1.18675,1.74533e-05,1.35193,0.00767945,0,0,0,0,0,0,0.021,0.02,-0.042,0,0,0,-5.075,31.976,-2.576,0.777,-0.278982,-0.07045
23:23:33:818286,3.49066e-05,-0.582015,1.18675,1.74533e-05,1.35193,0.00767945,0,0,0,0,0,0,0.006,0.003,-0.072,0,0,0.001,-5.691,31.661,-3.15,1.043,-0.38043,-0.035225
23:23:33:823488,3.49066e-05,-0.582015,1.18675,1.74533e-05,1.35193,0.00767945,0,0,0,0,0,0,-0.019,-0.05,0.017,0.001,0,0,-5.992,31.668,-2.702,1.365,-0.288845,0.035225
23:23:33:828434,3.49066e-05,-0.582015,1.18675,1.74533e-05,1.35193,0.00767945,0,0,0,0,0,0,-0.038,-0.08,0.115,0,0,0,-5.509,30.772,-2.821,0.595,-0.374794,-0.059178
23:23:33:833465,3.49066e-05,-0.582015,1.18675,1.74533e-05,1.35193,0.00767945,0,0,0,0,0,0,-0.054,-0.083,0.184,0,0,-0.001,-5.88,31.661,-3.038,1.365,-0.278982,0.094403
23:23:33:838605,3.49066e-05,-0.582015,1.18675,1.74533e-05,1.35193,0.00767945,0,0,0,0,0,0,-0.048,-0.057,0.152,-0.001,0,0,-5.32,31.08,-2.415,1.379,-0.291663,0.035225
23:23:33:843546,3.49066e-05,-0.582015,1.18675,1.74533e-05,1.35193,0.00767945,0,0,0,0,0,0,-0.016,-0.014,0.06,-0.001,0,0,-5.775,31.388,-2.604,1.015,-0.29589,0.059178
23:23:33:848727,3.49066e-05,-0.581998,1.18675,1.74533e-05,1.35193,0.00767945,0,0,0,0,0,0,0.003,-0.003,0.023,-0.001,0,0,-5.747,31.269,-3.087,0.574,-0.263483,0.118356
23:23:33:853729,3.49066e-05,-0.581998,1.18675,1.74533e-05,1.35193,0.00767945,0,0,0,0,0,0,0.008,-0.023,0.018,0,0,0,-5.565,31.675,-2.541,0.679,-0.317025,0.035225
23:23:33:858852,3.49066e-05,-0.581998,1.18675,1.74533e-05,1.35193,0.00767945,0,0,0,0,0,0,-0.008,-0.05,0.031,0,0,0,-5.985,31.087,-3.248,1.092,-0.266301,-0.035225
23:23:33:863782,3.49066e-05,-0.581998,1.18675,1.74533e-05,1.35193,0.00767945,0,0,0,0,0,0,-0.038,-0.081,0.055,0,0,0,-5.663,31.157,-2.688,1.309,-0.386066,0.022544
23:23:33:868964,3.49066e-05,-0.581998,1.18675,1.74533e-05,1.35193,0.00767945,0,0,0,0,0,0,-0.047,-0.078,0.066,0,0,0,-5.775,31.199,-2.681,1.134,-0.38043,0.035225
23:23:33:873923,3.49066e-05,-0.581998,1.18675,1.74533e-05,1.35193,0.00767945,0,0,0,0,0,0,-0.047,-0.037,0.06,0,0,0,-4.473,31.43,-2.513,1.113,-0.32407,-0.022544
23:23:33:878909,3.49066e-05,-0.581998,1.18675,1.74533e-05,1.35193,0.00767945,0,0,0,0,0,0,-0.045,-0.001,0.039,-0.001,0,0,-5.187,31.472,-3.423,0.707,-0.360704,0.166262
23:23:33:884089,3.49066e-05,-0.581998,1.18675,1.74533e-05,1.35193,0.00767945,0,0,0,0,0,0,-0.035,0.036,-0.017,0,0,0,-6.342,30.996,-2.765,0.917,-0.342387,0.022544
23:23:33:889049,3.49066e-05,-0.581998,1.18675,1.74533e-05,1.35193,0.00767945,0,0,0,0,0,0,-0.006,0.044,-0.124,0,0,0,-5.726,31.465,-3.22,1.218,-0.204305,0.059178
23:23:33:894210,3.49066e-05,-0.581998,1.18675,1.74533e-05,1.35193,0.00767945,0,0,0,0,0,0,0.017,0.036,-0.202,0,0,0.001,-5.929,31.311,-2.954,0.896,-0.462152,0.131037
23:23:33:899172,3.49066e-05,-0.581998,1.18675,1.74533e-05,1.35193,0.00767945,0,0,0,0,0,0,0.032,0.003,-0.217,0,0,0.001,-5.53,31.857,-2.513,1.309,-0.219804,0.273346
23:23:33:904297,3.49066e-05,-0.581998,1.18675,1.74533e-05,1.35193,0.00767945,0,0,0,0,0,0,0.022,-0.029,-0.133,0,0,0,-5.978,32.571,-2.66,0.812,-0.360704,0.011272
23:23:33:909334,3.49066e-05,-0.581998,1.18675,1.74533e-05,1.35193,0.00767945,0,0,0,0,0,0,-0.005,-0.07,0.009,0,0,0,-5.978,32.207,-2.296,0.476,-0.367749,0.107084
23:23:33:914458,3.49066e-05,-0.581998,1.18675,1.74533e-05,1.35193,0.00767945,0,0,0,0,0,0,-0.015,-0.073,0.032,0,0,0,-5.11,32.172,-2.506,0.959,-0.329706,0.142309
23:23:33:919418,3.49066e-05,-0.581998,1.18675,1.74533e-05,1.35193,0.00767945,0,0,0,0,0,0,-0.004,-0.044,-0.03,0,0,0,-5.145,31.423,-2.604,1.26,-0.332524,0.011272
23:23:33:924595,3.49066e-05,-0.581998,1.18675,1.74533e-05,1.35193,0.00767945,0,0,0,0,0,0,0.013,-0.026,-0.067,0,0,0.001,-5.222,31.122,-3.101,1.232,-0.276164,0.07045
23:23:33:929598,3.49066e-05,-0.581998,1.18675,1.74533e-05,1.35193,0.00767945,0,0,0,0,0,0,0.032,-0.026,-0.076,0,0,0.001,-5.411,31.388,-2.373,1.001,-0.278982,-0.07045
23:23:33:934526,3.49066e-05,-0.581998,1.18675,1.74533e-05,1.35193,0.00767945,0,0,0,0,0,0,0.028,-0.038,-0.076,0,0,0.001,-5.579,32.291,-2.842,1.064,-0.181761,-0.046497
23:23:33:939722,3.49066e-05,-0.581998,1.18675,1.74533e-05,1.35193,0.00767945,0,0,0,0,0,0,0.012,-0.038,-0.091,0,0,0.001,-4.781,31.948,-2.569,0.945,-0.322661,-0.011272
23:23:33:944722,3.49066e-05,-0.581998,1.18675,1.74533e-05,1.35193,0.00767945,0,0,0,0,0,0,0.009,-0.018,-0.095,0,0,0.001,-5.845,31.787,-2.73,1.029,-0.332524,-0.107084
23:23:33:949833,3.49066e-05,-0.581998,1.18675,1.74533e-05,1.35193,0.00767945,0,0,0,0,0,0,0.013,0.02,-0.077,0,0,0.001,-5.908,31.78,-2.562,0.917,-0.22544,-0.059178
23:23:33:954844,3.49066e-05,-0.581998,1.18675,1.74533e-05,1.35193,0.00767945,0,0,0,0,0,0,0.006,0.029,-0.053,0,0,0.001,-6.559,32.025,-2.751,0.574,-0.342387,0
23:23:33:959971,3.49066e-05,-0.581998,1.18675,1.74533e-05,1.35193,0.00767945,0,0,0,0,0,0,-0.02,0.006,-0.017,0,0,0,-3.108,32.123,-2.317,1.477,-0.387475,0.094403
23:23:33:964971,3.49066e-05,-0.581998,1.18675,1.74533e-05,1.35193,0.00767945,0,0,0,0,0,0,-0.028,-0.015,-0.008,0,0,0,-5.04,31.563,-2.373,0.609,-0.286027,0
23:23:33:970096,3.49066e-05,-0.581998,1.18675,1.74533e-05,1.35193,0.00767945,0,0,0,0,0,0,-0.006,-0.022,-0.027,0,0,0,-4.046,31.353,-2.751,1.134,-0.33816,0.094403
23:23:33:975096,3.49066e-05,-0.581998,1.18675,1.74533e-05,1.35193,0.00767945,0,0,0,0,0,0,0.02,0,-0.045,0,-0.001,0,-5.509,32.053,-2.268,1.316,-0.393111,-0.131037
23:23:33:980205,3.49066e-05,-0.581998,1.18675,1.74533e-05,1.35193,0.00767945,0,0,0,0,0,0,0.021,0.012,-0.041,0,-0.001,0,-5.95,31.549,-2.87,1.015,-0.374794,0.118356
23:23:33:985176,3.49066e-05,-0.581998,1.18675,1.74533e-05,1.35193,0.00767945,0,0,0,0,0,0,0.013,0.016,-0.054,0,0,0,-5.558,30.765,-2.324,1.652,-0.326888,0.011272
23:23:33:990333,3.49066e-05,-0.581998,1.18675,1.74533e-05,1.35193,0.00767945,0,0,0,0,0,0,0.018,0.015,-0.085,0,0,0,-6.216,31.738,-3.178,0.91,-0.348023,0.059178
23:23:33:995340,3.49066e-05,-0.581998,1.18675,1.74533e-05,1.35193,0.00767945,0,0,0,0,0,0,0.031,0.004,-0.088,0,0,0,-5.775,31.423,-2.793,0.98,-0.32407,0.094403
23:23:34:454,3.49066e-05,-0.581998,1.18675,1.74533e-05,1.35193,0.00767945,0,0,0,0,0,0,0.023,-0.017,-0.014,0,0,0,-5.74,32.683,-2.849,0.707,-0.314207,0
23:23:34:5401,3.49066e-05,-0.581998,1.18675,1.74533e-05,1.35193,0.00767945,0,0,0,0,0,0,-0.022,-0.056,0.138,0,0,-0.002,-5.313,31.486,-2.849,1.127,-0.326888,0.011272
23:23:34:10407,3.49066e-05,-0.581998,1.18675,1.74533e-05,1.35193,0.00767945,0,0,0,0,0,0,-0.059,-0.059,0.179,0,0,-0.002,-5.411,31.507,-2.38,1.344,-0.29589,-0.142309
23:23:34:15592,3.49066e-05,-0.581998,1.18675,1.74533e-05,1.35193,0.00767945,0,0,0,0,0,0,-0.08,-0.016,0.115,0,0,-0.002,-5.544,31.871,-3.227,0.966,-0.370567,-0.022544
23:23:34:20725,3.49066e-05,-0.581998,1.18675,1.74533e-05,1.35193,0.00767945,0,0,0,0,0,0,-0.058,0.017,0.055,0,0,-0.001,-5.67,30.695,-2.576,1.05,-0.362113,-0.046497
23:23:34:25665,3.49066e-05,-0.581998,1.18675,1.74533e-05,1.35193,0.00767945,0,0,0,0,0,0,0.004,0.017,0.046,0,0,0,-5.754,31.507,-2.576,0.931,-0.326888,-0.035225
23:23:34:30665,3.49066e-05,-0.581998,1.18675,1.74533e-05,1.35193,0.00767945,0,0,0,0,0,0,0.033,-0.012,0.096,0,0,0,-5.866,32.095,-4.053,1.232,-0.326888,0.022544
23:23:34:35832,3.49066e-05,-0.581998,1.18675,1.74533e-05,1.35193,0.00767945,0,0,0,0,0,0,0.025,-0.046,0.194,0,-0.001,0,-4.788,31.318,-2.534,1.029,-0.291663,-0.035225
23:23:34:40828,3.49066e-05,-0.581998,1.18675,1.74533e-05,1.35193,0.00767945,0,0,0,0,0,0,0,-0.039,0.233,0,0,-0.001,-5.649,30.961,-2.779,0.945,-0.339569,0.035225
23:23:34:45969,3.49066e-05,-0.581998,1.18675,1.74533e-05,1.35193,0.00767945,0,0,0,0,0,0,-0.026,-0.006,0.21,0,0,0,-5.551,32.067,-3.381,0.574,-0.383248,0.022544
23:23:34:50901,3.49066e-05,-0.581998,1.18675,1.74533e-05,1.35193,0.00767945,0,0,0,0,0,0,-0.025,0.004,0.15,0,0,0,-5.32,31.626,-2.604,1.26,-0.321252,0.046497
23:23:34:55918,3.49066e-05,-0.581998,1.18675,1.74533e-05,1.35193,0.00767945,0,0,0,0,0,0,-0.023,-0.006,0.074,0,0,0,-5.229,31.507,-2.401,0.917,-0.291663,0.035225
23:23:34:61022,3.49066e-05,-0.581998,1.18675,1.74533e-05,1.35193,0.00767945,0,0,0,0,0,0,-0.032,-0.018,0.075,0,0,-0.001,-5.376,30.814,-2.884,1.085,-0.288845,0.059178
23:23:34:66218,3.49066e-05,-0.581998,1.18675,1.74533e-05,1.35193,0.00767945,0,0,0,0,0,0,-0.043,-0.023,0.136,0,0,-0.002,-6.265,32.564,-3.087,0.616,-0.270528,0.094403
23:23:34:71220,3.49066e-05,-0.581998,1.18675,1.74533e-05,1.35193,0.00767945,0,0,0,0,0,0,-0.02,-0.017,0.137,0,-0.001,-0.001,-5.838,31.668,-2.037,1.211,-0.326888,-0.059178
23:23:34:76342,3.49066e-05,-0.581998,1.18675,1.74533e-05,1.35193,0.00767945,0,0,0,0,0,0,0.004,-0.009,0.044,0,-0.001,0,-4.865,31.171,-2.814,0.798,-0.204305,-0.011272
23:23:34:81326,3.49066e-05,-0.581998,1.18675,1.74533e-05,1.35193,0.00767945,0,0,0,0,0,0,0.017,0.002,-0.195,0,0,0.001,-5.635,31.668,-2.184,1.645,-0.38043,-0.059178
23:23:34:86342,3.49066e-05,-0.581998,1.18675,1.74533e-05,1.35193,0.00767945,0,0,0,0,0,0,0.002,0.003,-0.317,0,0,0.001,-5.383,31.514,-2.779,1.33,-0.367749,0.153581
23:23:34:91457,3.49066e-05,-0.581998,1.18675,1.74533e-05,1.35193,0.00767945,0,0,0,0,0,0,-0.034,-0.019,-0.278,0,0,0.001,-5.404,31.71,-2.912,1.043,-0.307162,-0.022544
23:23:34:96451,3.49066e-05,-0.581998,1.18675,1.74533e-05,1.35193,0.00767945,0,0,0,0,0,0,-0.052,-0.043,-0.118,0,0,0,-5.313,31.192,-3.178,1.162,-0.19726,0.118356
23:23:34:101592,3.49066e-05,-0.581998,1.18675,1.74533e-05,1.35193,0.00767945,0,0,0,0,0,0,-0.048,-0.052,0.096,0,0,0,-5.964,31.829,-3.423,0.812,-0.421291,0.118356
23:23:34:106520,3.49066e-05,-0.581998,1.18675,1.74533e-05,1.35193,0.00767945,0,0,0,0,0,0,-0.03,-0.033,0.113,0,0,0,-5.635,31.479,-2.912,1.344,-0.319843,0.083131
23:23:34:111717,3.49066e-05,-0.581998,1.18675,1.74533e-05,1.35193,0.00767945,0,0,0,0,0,0,0,0.003,-0.007,0,0,0,-5.236,31.668,-2.604,1.554,-0.266301,-0.07045
23:23:34:116703,3.49066e-05,-0.581998,1.18675,1.74533e-05,1.35193,0.00767945,0,0,0,0,0,0,0.005,0.01,-0.073,0,0,0,-5.18,31.78,-2.821,0.609,-0.342387,-0.046497
23:23:34:121841,3.49066e-05,-0.581998,1.18675,1.74533e-05,1.35193,0.00767945,0,0,0,0,0,0,-0.007,-0.013,-0.035,0,0,0,-5.32,32.088,-1.974,1.001,-0.433972,-0.190215
23:23:34:126825,3.49066e-05,-0.581998,1.18675,1.74533e-05,1.35193,0.00767945,0,0,0,0,0,0,-0.018,-0.035,0.06,0,0,0,-5.103,31.472,-2.751,0.497,-0.260665,-0.083131
23:23:34:131967,3.49066e-05,-0.581998,1.18675,1.74533e-05,1.35193,0.00767945,0,0,0,0,0,0,-0.02,-0.054,0.214,0,0,-0.001,-5.754,31.703,-2.562,1.393,-0.339569,0
23:23:34:136893,3.49066e-05,-0.581998,1.18675,1.74533e-05,1.35193,0.00767945,0,0,0,0,0,0,-0.017,-0.058,0.267,0,0,-0.002,-4.781,32.445,-2.87,1.148,-0.250802,0.059178
23:23:34:141897,3.49066e-05,-0.581998,1.18675,1.74533e-05,1.35193,0.00767945,0,0,0,0,0,0,-0.018,-0.059,0.19,0,0,-0.001,-5.474,31.661,-3.073,0.742,-0.322661,0.035225
23:23:34:147095,3.49066e-05,-0.581998,1.18675,1.74533e-05,1.35193,0.00767945,0,0,0,0,0,0,-0.023,-0.046,-0.018,0,0,0,-5.222,31.64,-2.457,1.449,-0.370567,-0.046497
23:23:34:152074,3.49066e-05,-0.581998,1.18675,1.74533e-05,1.35193,0.00767945,0,0,0,0,0,0,-0.025,-0.028,-0.108,0,0,0,-5.453,32.06,-3.339,1.372,-0.263483,0.022544
23:23:34:157215,3.49066e-05,-0.581998,1.18675,1.74533e-05,1.35193,0.00767945,0,0,0,0,0,0,-0.021,-0.001,-0.052,0,0,0,-5.348,31.038,-3.066,0.798,-0.326888,0.022544
23:23:34:162144,3.49066e-05,-0.581998,1.18675,1.74533e-05,1.35193,0.00767945,0,0,0,0,0,0,-0.016,0.007,0.046,0,0,0,-5.236,31.633,-3.164,0.595,-0.342387,-0.190215
23:23:34:167323,3.49066e-05,-0.581998,1.18675,1.74533e-05,1.35193,0.00767945,0,0,0,0,0,0,-0.003,0.007,0.107,0,0,0,-5.208,31.696,-2.513,0.42,-0.181761,0.131037
23:23:34:172326,3.49066e-05,-0.581998,1.18675,1.74533e-05,1.35193,0.00767945,0,0,0,0,0,0,0.008,0.002,0.074,0,0,0,-5.964,31.941,-2.562,0.896,-0.229667,0.07045
23:23:34:177446,3.49066e-05,-0.581998,1.18675,1.74533e-05,1.35193,0.00767945,0,0,0,0,0,0,0.028,-0.01,0.003,0,0,0,-5.222,31.626,-4.004,1.589,-0.357886,0.201487
23:23:34:182447,3.49066e-05,-0.581998,1.18675,1.74533e-05,1.35193,0.00767945,0,0,0,0,0,0,0.039,-0.018,-0.043,0,0,0,-5.432,31.626,-2.821,1.68,-0.357886,0.022544
23:23:34:187574,3.49066e-05,-0.581998,1.18675,1.74533e-05,1.35193,0.00767945,0,0,0,0,0,0,0.045,-0.013,-0.149,0,0,0.001,-5.047,30.891,-2.814,0.679,-0.311389,0.142309
23:23:34:192572,3.49066e-05,-0.581998,1.18675,1.74533e-05,1.35193,0.00767945,0,0,0,0,0,0,0.037,0,-0.208,0,0,0.002,-5.348,30.576,-2.807,1.148,-0.319843,0.046497
23:23:34:197723,3.49066e-05,-0.581998,1.18675,1.74533e-05,1.35193,0.00767945,0,0,0,0,0,0,0.006,0.02,-0.14,0,0,0.001,-5.404,30.989,-3.129,0.994,-0.270528,0.011272
23:23:34:202714,3.49066e-05,-0.581998,1.18675,1.74533e-05,1.35193,0.00767945,0,0,0,0,0,0,-0.019,0.02,0.014,0,0,0,-5.53,30.709,-2.226,0.98,-0.255029,0.059178
23:23:34:207645,3.49066e-05,-0.581998,1.18675,1.74533e-05,1.35193,0.00767945,0,0,0,0,0,0,-0.049,0.01,0.205,0,0,-0.001,-5.019,31.71,-2.996,1.288,-0.288845,-0.035225
23:23:34:212773,3.49066e-05,-0.581998,1.18675,1.74533e-05,1.35193,0.00767945,0,0,0,0,0,0,-0.056,0.009,0.181,0,0,-0.002,-5.544,32.088,-3.073,0.812,-0.092994,0.094403
23:23:34:217781,3.49066e-05,-0.581998,1.18675,1.74533e-05,1.35193,0.00767945,0,0,0,0,0,0,-0.04,0.02,-0.063,0,0,0,-5.103,31.766,-2.163,1.183,-0.332524,0.011272
23:23:34:222946,3.49066e-05,-0.581998,1.18675,1.74533e-05,1.35193,0.00767945,0,0,0,0,0,0,-0.012,0.018,-0.232,0,0,0.001,-5.649,31.311,-2.982,0.728,-0.339569,0.059178
23:23:34:227892,3.49066e-05,-0.581998,1.18675,1.74533e-05,1.35193,0.00767945,0,0,0,0,0,0,0.033,-0.008,-0.282,0,0,0.001,-5.838,32.06,-2.884,1.26,-0.339569,-0.022544
23:23:34:233073,3.49066e-05,-0.581998,1.18675,1.74533e-05,1.35193,0.00767945,0,0,0,0,0,0,0.048,-0.029,-0.087,0,0,0,-5.418,32.032,-2.184,0.812,-0.283209,-0.094403
23:23:34:238073,3.49066e-05,-0.581998,1.18675,1.74533e-05,1.35193,0.00767945,0,0,0,0,0,0,0.035,-0.021,0.069,0,0,-0.002,-5.25,31.766,-3.087,1.064,-0.321252,-0.035225
23:23:34:243031,3.49066e-05,-0.581998,1.18675,1.74533e-05,1.35193,0.00767945,0,0,0,0,0,0,0.006,0.003,0.163,0,0,-0.002,-5.579,30.926,-3.031,1.379,-0.355068,-0.046497
23:23:34:248155,3.49066e-05,-0.581998,1.18675,1.74533e-05,1.35193,0.00767945,0,0,0,0,0,0,-0.005,0.009,0.106,0,0,-0.001,-5.551,31.297,-2.625,0.84,-0.297299,0.059178
23:23:34:253211,3.49066e-05,-0.581998,1.18675,1.74533e-05,1.35193,0.00767945,0,0,0,0,0,0,-0.014,0.009,-0.057,0,0,0,-5.32,30.891,-3.367,1.134,-0.362113,-0.059178
23:23:34:258319,3.49066e-05,-0.581998,1.18675,1.74533e-05,1.35193,0.00767945,0,0,0,0,0,0,-0.02,0.019,-0.133,0,0,0.001,-5.348,31.759,-2.737,0.714,-0.278982,-0.035225
23:23:34:263334,3.49066e-05,-0.581998,1.18675,1.74533e-05,1.35193,0.00767945,0,0,0,0,0,0,-0.032,0.045,-0.142,0,0,0,-5.348,31.605,-3.22,1.232,-0.373385,-0.035225
23:23:34:268456,3.49066e-05,-0.581998,1.18675,1.74533e-05,1.35193,0.00767945,0,0,0,0,0,0,-0.035,0.051,-0.093,0,0,0,-5.439,31.493,-3.556,0.896,-0.245166,0.035225
23:23:34:273391,3.49066e-05,-0.581998,1.18675,1.74533e-05,1.35193,0.00767945,0,0,0,0,0,0,-0.03,0.029,0.012,0,0,0,-5.747,31.479,-3.073,0.623,-0.332524,-0.022544
23:23:34:278567,3.49066e-05,-0.581998,1.18675,1.74533e-05,1.35193,0.00767945,0,0,0,0,0,0,-0.024,0.009,0.072,0,0,0,-4.914,31.598,-3.248,0.63,-0.229667,0.083131
23:23:34:283584,3.49066e-05,-0.581998,1.18675,1.74533e-05,1.35193,0.00767945,0,0,0,0,0,0,-0.021,0.003,0.082,0,0,0,-5.544,31.367,-3.185,0.714,-0.232485,0.035225
23:23:34:288517,3.49066e-05,-0.581998,1.18675,1.74533e-05,1.35193,0.00767945,0,0,0,0,0,0,-0.023,0.013,0.035,0,0,0,-6.174,31.71,-2.541,1.365,-0.362113,-0.022544
23:23:34:293640,3.49066e-05,-0.581998,1.18675,1.74533e-05,1.35193,0.00767945,0,0,0,0,0,0,-0.027,0.024,-0.022,0,0,0,-5.376,32.27,-3.339,1.288,-0.286027,-0.046497
23:23:34:298821,3.49066e-05,-0.581998,1.18675,1.74533e-05,1.35193,0.00767945,0,0,0,0,0,0,-0.027,0.021,-0.005,0,0,0,-5.404,31.514,-3.003,1.099,-0.291663,-0.022544
23:23:34:303779,3.49066e-05,-0.581998,1.18675,1.74533e-05,1.35193,0.00767945,0,0,0,0,0,0,-0.017,0.01,0.06,0,0,0,-5.999,31.668,-2.513,0.868,-0.222622,0.118356
23:23:34:308832,3.49066e-05,-0.581998,1.18675,1.74533e-05,1.35193,0.00767945,0,0,0,0,0,0,-0.002,0.005,0.064,0,0,0,-5.313,31.584,-2.751,0.658,-0.286027,0.046497
23:23:34:313963,3.49066e-05,-0.581998,1.18675,1.74533e-05,1.35193,0.00767945,0,0,0,0,0,0,0.024,0.006,-0.018,0,0,0,-5.649,31.598,-3.01,1.134,-0.35225,-0.059178
23:23:34:318957,3.49066e-05,-0.581998,1.18675,1.74533e-05,1.35193,0.00767945,0,0,0,0,0,0,0.033,0.015,-0.093,0,0,0,-6.104,31.598,-2.954,1.134,-0.314207,-0.011272
23:23:34:324028,3.49066e-05,-0.581998,1.18675,1.74533e-05,1.35193,0.00767945,0,0,0,0,0,0,0.025,0.041,-0.18,0,0,0,-5.341,31.444,-3.143,1.134,-0.405792,0.046497
23:23:34:329190,3.49066e-05,-0.581998,1.18675,1.74533e-05,1.35193,0.00767945,0,0,0,0,0,0,0.01,0.066,-0.226,0,0,0.001,-5.733,31.745,-2.296,0.623,-0.373385,-0.022544
23:23:34:334203,3.49066e-05,-0.581998,1.18675,1.74533e-05,1.35193,0.00767945,0,0,0,0,0,0,0.012,0.066,-0.217,0,0,0.001,-5.306,31.122,-3.626,1.001,-0.336751,0.035225
23:23:34:339155,3.49066e-05,-0.581998,1.18675,1.74533e-05,1.35193,0.00767945,0,0,0,0,0,0,0.033,0.034,-0.119,0,0,0,-5.488,31.437,-2.653,1.155,-0.35225,0.011272
23:23:34:344331,3.49066e-05,-0.581998,1.18675,1.74533e-05,1.35193,0.00767945,0,0,0,0,0,0,0.046,0.008,-0.036,0,0,0,-5.649,31.794,-3.584,1.365,-0.364931,-0.059178
23:23:34:349260,3.49066e-05,-0.581998,1.18675,1.74533e-05,1.35193,0.00767945,0,0,0,0,0,0,0.048,0.003,-0.024,0,0,0,-5.054,31.479,-2.548,0.917,-0.288845,0.046497
23:23:34:354384,3.49066e-05,-0.581998,1.18675,1.74533e-05,1.35193,0.00767945,0,0,0,0,0,0,0.038,0.023,-0.106,0,0,0,-5.467,31.101,-2.912,1.176,-0.32407,-0.07045
23:23:34:359400,3.49066e-05,-0.581998,1.18675,1.74533e-05,1.35193,0.00767945,0,0,0,0,0,0,0.01,0.041,-0.186,0,0,0.001,-5.236,32.333,-3.22,1.526,-0.25362,0.131037
23:23:34:364580,3.49066e-05,-0.581998,1.18675,1.74533e-05,1.35193,0.00767945,0,0,0,0,0,0,-0.011,0.019,-0.093,0,0,0,-5.74,30.975,-3.556,0.896,-0.215577,-0.035225
23:23:34:369579,3.49066e-05,-0.581998,1.18675,1.74533e-05,1.35193,0.00767945,0,0,0,0,0,0,-0.033,-0.042,0.186,0,0,-0.001,-6.069,30.723,-3.059,0.917,-0.462152,0.046497
23:23:34:374703,3.49066e-05,-0.581998,1.18675,1.74533e-05,1.35193,0.00767945,0,0,0,0,0,0,-0.03,-0.06,0.28,0,0,-0.001,-5.768,31.374,-2.821,0.441,-0.240939,0.022544
23:23:34:379704,3.49066e-05,-0.581998,1.18675,1.74533e-05,1.35193,0.00767945,0,0,0,0,0,0,-0.009,-0.023,0.111,0,0,0,-5.152,31.962,-2.821,0.896,-0.311389,0.083131
23:23:34:384812,3.49066e-05,-0.581998,1.18675,1.74533e-05,1.35193,0.00767945,0,0,0,0,0,0,-0.004,0.015,-0.081,0,0,0.001,-5.341,31.563,-2.471,0.574,-0.311389,-0.083131
23:23:34:389810,3.49066e-05,-0.581998,1.18675,1.74533e-05,1.35193,0.00767945,0,0,0,0,0,0,-0.024,0.027,-0.139,0,0,0.001,-5.733,31.71,-2.751,1.197,-0.395929,-0.046497
23:23:34:394829,3.49066e-05,-0.581998,1.18675,1.74533e-05,1.35193,0.00767945,0,0,0,0,0,0,-0.033,-0.001,0.011,-0.001,0,0,-5.978,31.78,-2.793,0.875,-0.364931,0
23:23:34:399938,3.49066e-05,-0.581998,1.18675,1.74533e-05,1.35193,0.00767945,0,0,0,0,0,0,0,-0.041,0.226,0,0,-0.001,-5.88,30.317,-3.528,1.211,-0.345205,0.011272
23:23:34:404954,3.49066e-05,-0.581998,1.18675,1.74533e-05,1.35193,0.00767945,0,0,0,0,0,0,0.042,-0.037,0.206,0,0,-0.001,-5.25,31.332,-2.765,1.127,-0.245166,-0.07045
23:23:34:410081,3.49066e-05,-0.581998,1.18675,1.74533e-05,1.35193,0.00767945,0,0,0,0,0,0,0.074,-0.001,0.005,0,0,0,-5.663,31.493,-3.017,1.232,-0.342387,0.083131
23:23:34:415081,3.49066e-05,-0.581998,1.18675,1.74533e-05,1.35193,0.00767945,0,0,0,0,0,0,0.038,0.007,-0.102,0,0,0.001,-4.312,30.618,-2.954,1.099,-0.288845,-0.035225
23:23:34:420201,3.49066e-05,-0.581998,1.18675,1.74533e-05,1.35193,0.00767945,0,0,0,0,0,0,0.006,-0.009,-0.075,0,0,0.001,-5.383,31.157,-2.219,1.029,-0.219804,0.022544
23:23:34:425186,3.49066e-05,-0.581998,1.18675,1.74533e-05,1.35193,0.00767945,0,0,0,0,0,0,-0.007,-0.028,-0.013,0,0,0,-5.67,31.283,-2.94,0.56,-0.336751,0.07045
23:23:34:430326,3.49066e-05,-0.581998,1.18675,1.74533e-05,1.35193,0.00767945,0,0,0,0,0,0,0.003,-0.018,-0.001,0,0,0,-5.796,31.437,-2.709,0.812,-0.314207,0
23:23:34:435326,3.49066e-05,-0.581998,1.18675,1.74533e-05,1.35193,0.00767945,0,0,0,0,0,0,0.012,0.016,0.027,0,0,0,-5.341,31.283,-2.87,1.631,-0.291663,-0.094403
23:23:34:440258,3.49066e-05,-0.581998,1.18675,1.74533e-05,1.35193,0.00767945,0,0,0,0,0,0,0.006,0.034,0.07,0,0,0,-5.649,31.675,-3.192,1.379,-0.308571,0.022544
23:23:34:445459,3.49066e-05,-0.581998,1.18675,1.74533e-05,1.35193,0.00767945,0,0,0,0,0,0,0,0.046,0.073,0,0,0,-5.446,30.856,-3.22,1.085,-0.345205,0.083131
23:23:34:450381,3.49066e-05,-0.581998,1.18675,1.74533e-05,1.35193,0.00767945,0,0,0,0,0,0,0.007,0.051,-0.027,0,0,0,-5.586,31.668,-2.87,0.595,-0.395929,0.107084
23:23:34:455577,3.49066e-05,-0.581998,1.18675,1.74533e-05,1.35193,0.00767945,0,0,0,0,0,0,0.023,0.053,-0.257,0,0,0.002,-5.474,32.578,-3.178,1.113,-0.291663,0.07045
23:23:34:460575,3.49066e-05,-0.581998,1.18675,1.74533e-05,1.35193,0.00767945,0,0,0,0,0,0,0.029,0.038,-0.334,0,0,0.003,-6.062,30.639,-3.451,1.246,-0.229667,-0.107084
23:23:34:465698,3.49066e-05,-0.581998,1.18675,1.74533e-05,1.35193,0.00767945,0,0,0,0,0,0,0.029,-0.009,-0.212,0,0,0.002,-5.404,31.248,-2.751,1.001,-0.250802,0.083131
23:23:34:470699,3.49066e-05,-0.581998,1.18675,1.74533e-05,1.35193,0.00767945,0,0,0,0,0,0,0.029,-0.036,-0.036,0,0,0,-5.418,31.444,-3.85,1.043,-0.35225,-0.07045
23:23:34:475824,3.49066e-05,-0.581998,1.18675,1.74533e-05,1.35193,0.00767945,0,0,0,0,0,0,0.033,-0.025,0.14,0,0,0,-6.181,31.472,-2.779,1.512,-0.311389,0.035225
23:23:34:480850,3.49066e-05,-0.581998,1.18675,1.74533e-05,1.35193,0.00767945,0,0,0,0,0,0,0.035,0.012,0.13,0,0,-0.001,-6.013,31.563,-2.401,0.742,-0.321252,-0.059178
23:23:34:485770,3.49066e-05,-0.581998,1.18675,1.74533e-05,1.35193,0.00767945,0,0,0,0,0,0,0.027,0.059,0.012,0,0,0,-5.019,32.27,-2.94,1.344,-0.291663,-0.059178
23:23:34:490947,3.49066e-05,-0.581998,1.18675,1.74533e-05,1.35193,0.00767945,0,0,0,0,0,0,0.015,0.055,-0.041,0,0,0,-5.894,30.709,-2.093,0.693,-0.308571,0
23:23:34:495894,3.49066e-05,-0.581998,1.18675,1.74533e-05,1.35193,0.00767945,0,0,0,0,0,0,0.003,0.009,-0.051,0,0,0,-5.243,31.78,-3.01,1.463,-0.329706,-0.046497
23:23:34:501005,3.49066e-05,-0.581998,1.18675,1.74533e-05,1.35193,0.00767945,0,0,0,0,0,0,0.002,-0.018,-0.056,0,0,0,-5.88,31.444,-2.912,0.945,-0.307162,0.094403
23:23:34:506020,3.49066e-05,-0.581998,1.18675,1.74533e-05,1.35193,0.00767945,0,0,0,0,0,0,-0.004,-0.035,-0.081,0,0,0.001,-6.013,31.241,-3.381,0.749,-0.355068,0.046497
23:23:34:511214,3.49066e-05,-0.581998,1.18675,1.74533e-05,1.35193,0.00767945,0,0,0,0,0,0,-0.033,-0.036,-0.062,0,0,0.001,-5.11,32.095,-2.926,0.959,-0.342387,-0.011272
23:23:34:516158,3.49066e-05,-0.581998,1.18675,1.74533e-05,1.35193,0.00767945,0,0,0,0,0,0,-0.048,-0.031,-0.043,0,0,0.001,-5.551,31.675,-2.59,0.931,-0.355068,0
23:23:34:521306,3.49066e-05,-0.581998,1.18675,1.74533e-05,1.35193,0.00767945,0,0,0,0,0,0,-0.036,-0.001,-0.121,0,0,0.001,-5.866,30.982,-2.604,1.176,-0.336751,0.07045
23:23:34:526316,3.49066e-05,-0.581998,1.18675,1.74533e-05,1.35193,0.00767945,0,0,0,0,0,0,-0.013,0.026,-0.229,0,0,0.002,-4.893,32.494,-2.576,0.777,-0.273346,0.094403
23:23:34:531444,3.49066e-05,-0.581998,1.18675,1.74533e-05,1.35193,0.00767945,0,0,0,0,0,0,0.003,0.041,-0.279,0.001,0,0.001,-6.111,32.067,-3.101,0.581,-0.35225,0.131037
23:23:34:536445,3.49066e-05,-0.581998,1.18675,1.74533e-05,1.35193,0.00767945,0,0,0,0,0,0,-0.001,0.026,-0.185,0,0,0.001,-6.076,31.045,-2.807,0.812,-0.342387,0.07045
23:23:34:541378,3.49066e-05,-0.581998,1.18675,1.74533e-05,1.35193,0.00767945,0,0,0,0,0,0,-0.002,0.009,-0.035,0,0,0,-5.579,32.067,-2.541,0.959,-0.263483,0.107084
23:23:34:546520,3.49066e-05,-0.581998,1.18675,1.74533e-05,1.35193,0.00767945,0,0,0,0,0,0,0.012,0.023,-0.051,0,0,0.001,-5.432,31.794,-2.338,0.763,-0.339569,-0.07045
23:23:34:551708,3.49066e-05,-0.581998,1.18675,1.74533e-05,1.35193,0.00767945,0,0,0,0,0,0,0.032,0.058,-0.181,0,0,0.002,-5.677,31.535,-3.073,1.463,-0.336751,-0.035225
23:23:34:556685,3.49066e-05,-0.581998,1.18675,1.74533e-05,1.35193,0.00767945,0,0,0,0,0,0,0.031,0.064,-0.203,0,0,0.002,-5.467,31.402,-3.647,0.658,-0.288845,0.107084
23:23:34:561681,3.49066e-05,-0.581998,1.18675,1.74533e-05,1.35193,0.00767945,0,0,0,0,0,0,0.017,0.043,-0.086,0,0,0.001,-5.796,31.283,-2.982,1.365,-0.2818,0.046497
23:23:34:566812,3.49066e-05,-0.581998,1.18675,1.74533e-05,1.35193,0.00767945,0,0,0,0,0,0,0.014,0.029,-0.01,0,0,0,-5.313,31.206,-2.59,1.596,-0.301526,0.059178
23:23:34:571822,3.49066e-05,-0.581998,1.18675,1.74533e-05,1.35193,0.00767945,0,0,0,0,0,0,0.027,0.024,-0.022,0,0,0,-4.949,31.64,-3.486,0.959,-0.421291,0.131037
23:23:34:576929,3.49066e-05,-0.581998,1.18675,1.74533e-05,1.35193,0.00767945,0,0,0,0,0,0,0.036,0.021,-0.067,0,0,0,-5.516,30.779,-3.647,1.134,-0.222622,0.166262
23:23:34:581922,3.49066e-05,-0.581998,1.18675,1.74533e-05,1.35193,0.00767945,0,0,0,0,0,0,0.034,0.001,-0.048,0,0,0,-5.334,31.367,-3.381,0.917,-0.291663,-0.011272
23:23:34:587069,3.49066e-05,-0.581998,1.18675,1.74533e-05,1.35193,0.00767945,0,0,0,0,0,0,0.018,-0.014,0.045,0,0,0,-5.572,31.339,-2.968,0.84,-0.283209,-0.011272
23:23:34:592018,3.49066e-05,-0.581998,1.18675,1.74533e-05,1.35193,0.00767945,0,0,0,0,0,0,0.006,-0.005,0.067,0,0,-0.001,-5.432,31.64,-2.604,1.015,-0.398747,0.022544
23:23:34:597179,3.49066e-05,-0.581998,1.18675,1.74533e-05,1.35193,0.00767945,0,0,0,0,0,0,-0.003,0.022,0.03,0,0,0,-4.942,31.045,-2.471,1.127,-0.370567,-0.059178
23:23:34:602206,3.49066e-05,-0.581998,1.18675,1.74533e-05,1.35193,0.00767945,0,0,0,0,0,0,0,0.028,0.018,0,0,0,-5.32,30.94,-2.527,0.931,-0.255029,-0.083131
23:23:34:607135,3.49066e-05,-0.581998,1.18675,1.74533e-05,1.35193,0.00767945,0,0,0,0,0,0,0.02,0.005,0.038,0,-0.001,0,-4.879,31.745,-2.562,0.812,-0.329706,0.022544
23:23:34:612322,3.49066e-05,-0.581998,1.18675,1.74533e-05,1.35193,0.00767945,0,0,0,0,0,0,0.038,-0.007,0.011,0,-0.001,0,-5.565,31.192,-2.835,1.043,-0.263483,0.094403
23:23:34:617261,3.49066e-05,-0.581998,1.18675,1.74533e-05,1.35193,0.00767945,0,0,0,0,0,0,0.045,0.008,-0.119,0.001,-0.001,0,-5.824,32.165,-3.129,0.707,-0.276164,-0.083131
23:23:34:622428,3.49066e-05,-0.581998,1.18675,1.74533e-05,1.35193,0.00767945,0,0,0,0,0,0,0.029,0.033,-0.172,0.001,0,0.001,-5.439,31.605,-2.401,1.127,-0.245166,0
23:23:34:627430,3.49066e-05,-0.581998,1.18675,1.74533e-05,1.35193,0.00767945,0,0,0,0,0,0,-0.013,0.039,-0.042,0,0,0,-5.894,31.234,-3.073,0.917,-0.405792,-0.046497
23:23:34:632571,3.49066e-05,-0.581998,1.18675,1.74533e-05,1.35193,0.00767945,0,0,0,0,0,0,-0.036,0.017,0.135,0,0,0,-5.586,31.136,-3.073,1.183,-0.204305,0.035225
23:23:34:637572,3.49066e-05,-0.581998,1.18675,1.74533e-05,1.35193,0.00767945,0,0,0,0,0,0,-0.056,-0.018,0.303,0,0,-0.001,-5.803,31.437,-4.053,0.791,-0.273346,-0.059178
23:23:34:642501,3.49066e-05,-0.581998,1.18675,1.74533e-05,1.35193,0.00767945,0,0,0,0,0,0,-0.068,-0.023,0.277,0,0,-0.002,-5.299,31.57,-2.87,0.798,-0.304344,-0.07045
23:23:34:647720,3.49066e-05,-0.581998,1.18675,1.74533e-05,1.35193,0.00767945,0,0,0,0,0,0,-0.092,-0.006,0.122,0,0,-0.002,-4.865,31.01,-3.325,1.113,-0.357886,-0.022544
23:23:34:652690,3.49066e-05,-0.581998,1.18675,1.74533e-05,1.35193,0.00767945,0,0,0,0,0,0,-0.101,0.009,0.037,0,0,-0.002,-5.544,31.808,-2.219,1.351,-0.387475,0.059178
23:23:34:657802,3.49066e-05,-0.581998,1.18675,1.74533e-05,1.35193,0.00767945,0,0,0,0,0,0,-0.081,0.027,0.011,0,0,-0.001,-5.18,31.703,-2.849,0.49,-0.414246,-0.107084
23:23:34:662750,3.49066e-05,-0.581998,1.18675,1.74533e-05,1.35193,0.00767945,0,0,0,0,0,0,-0.053,0.032,0.051,0,0,-0.001,-4.753,31.794,-3.073,1.001,-0.355068,-0.011272
23:23:34:667945,3.49066e-05,-0.581998,1.18675,1.74533e-05,1.35193,0.00767945,0,0,0,0,0,0,-0.027,0.032,0.148,0,0,-0.001,-5.635,30.849,-3.647,1.26,-0.245166,-0.035225
23:23:34:672943,3.49066e-05,-0.581998,1.18675,1.74533e-05,1.35193,0.00767945,0,0,0,0,0,0,-0.036,0.028,0.208,0,0,-0.002,-5.467,30.905,-3.381,0.84,-0.235303,0.07045
23:23:34:678051,3.49066e-05,-0.581998,1.18675,1.74533e-05,1.35193,0.00767945,0,0,0,0,0,0,-0.072,0.017,0.267,0,0,-0.002,-5.348,30.814,-2.87,1.169,-0.349432,-0.094403
23:23:34:683055,3.49066e-05,-0.581998,1.18675,1.74533e-05,1.35193,0.00767945,0,0,0,0,0,0,-0.072,0.003,0.278,0,0,-0.002,-5.537,32.417,-2.527,0.84,-0.29589,-0.035225
23:23:34:687999,3.49066e-05,-0.581998,1.18675,1.74533e-05,1.35193,0.00767945,0,0,0,0,0,0,-0.038,-0.001,0.248,0,0,-0.001,-5.117,31.724,-2.793,0.847,-0.364931,0.022544
23:23:34:693124,3.49066e-05,-0.581998,1.18675,1.74533e-05,1.35193,0.00767945,0,0,0,0,0,0,0.016,0.003,0.133,0,0,0,-5.25,31.297,-2.996,0.847,-0.357886,-0.177534
23:23:34:698175,3.49066e-05,-0.581998,1.18675,1.74533e-05,1.35193,0.00767945,0,0,0,0,0,0,0.019,0.01,0.026,0,0,0,-5.936,32.382,-2.996,1.106,-0.32407,-0.046497
23:23:34:703302,3.49066e-05,-0.581998,1.18675,1.74533e-05,1.35193,0.00767945,0,0,0,0,0,0,-0.04,0.015,-0.105,0,0,0,-5.565,31.311,-2.296,1.26,-0.357886,-0.046497
23:23:34:708321,3.49066e-05,-0.581998,1.18675,1.74533e-05,1.35193,0.00767945,0,0,0,0,0,0,-0.091,0.012,-0.144,0,0,0,-5.551,31.493,-2.632,1.218,-0.102857,0.011272
23:23:34:713441,3.49066e-05,-0.581998,1.18675,1.74533e-05,1.35193,0.00767945,0,0,0,0,0,0,-0.12,0.005,-0.159,0,0,0,-5.439,31.794,-3.017,0.98,-0.342387,0.059178
23:23:34:718424,3.49066e-05,-0.581998,1.18675,1.74533e-05,1.35193,0.00767945,0,0,0,0,0,0,-0.096,0.002,-0.183,0,0,0,-5.81,31.857,-2.415,1.568,-0.342387,-0.022544
23:23:34:723443,3.49066e-05,-0.581998,1.18675,1.74533e-05,1.35193,0.00767945,0,0,0,0,0,0,-0.026,-0.002,-0.248,0,0,0.001,-5.271,30.919,-2.674,1.4,-0.25362,0.07045
23:23:34:728548,3.49066e-05,-0.581998,1.18675,1.74533e-05,1.35193,0.00767945,0,0,0,0,0,0,0.016,-0.007,-0.283,0,0,0.002,-5.124,31.605,-3.178,0.896,-0.273346,0.011272
23:23:34:733674,3.49066e-05,-0.581998,1.18675,1.74533e-05,1.35193,0.00767945,0,0,0,0,0,0,0.054,-0.012,-0.3,0.001,0,0.002,-5.971,31.633,-2.338,0.798,-0.319843,0.022544
23:23:34:738637,3.49066e-05,-0.581998,1.18675,1.74533e-05,1.35193,0.00767945,0,0,0,0,0,0,0.06,-0.013,-0.3,0.001,0,0.002,-5.901,30.73,-3.22,0.812,-0.297299,0.035225
23:23:34:743691,3.49066e-05,-0.581998,1.18675,1.74533e-05,1.35193,0.00767945,0,0,0,0,0,0,0.049,-0.019,-0.258,0,0,0.002,-5.922,31.99,-2.709,0.994,-0.288845,-0.022544
23:23:34:748803,3.49066e-05,-0.58198,1.18675,1.74533e-05,1.35193,0.00767945,0,0,0,0,0,0,0.029,-0.028,-0.145,0,0,0.001,-5.215,31.332,-2.296,0.826,-0.355068,0.035225
23:23:34:753826,3.49066e-05,-0.58198,1.18675,1.74533e-05,1.35193,0.00767945,0,0,0,0,0,0,-0.011,-0.034,0.144,0,0,-0.001,-5.572,30.849,-3.339,0.847,-0.286027,-0.118356
23:23:34:758954,3.49066e-05,-0.58198,1.18675,1.74533e-05,1.35193,0.00767945,0,0,0,0,0,0,-0.027,-0.022,0.294,0,0,-0.002,-5.88,32.011,-2.674,0.84,-0.204305,0.107084
23:23:34:763951,3.49066e-05,-0.58198,1.18675,1.74533e-05,1.35193,0.00767945,0,0,0,0,0,0,-0.006,0.012,0.227,0,0,-0.002,-6.083,31.297,-2.268,0.658,-0.301526,-0.011272
23:23:34:769047,3.49066e-05,-0.58198,1.18675,1.74533e-05,1.35193,0.00767945,0,0,0,0,0,0,0.045,0.05,-0.1,0,0,0,-5.642,30.555,-3.584,1.043,-0.297299,-0.059178
23:23:34:773995,3.49066e-05,-0.58198,1.18675,1.74533e-05,1.35193,0.00767945,0,0,0,0,0,0,0.061,0.07,-0.276,0,0,0.002,-5.502,32.032,-3.633,1.05,-0.339569,-0.046497
23:23:34:779190,3.49066e-05,-0.58198,1.18675,1.74533e-05,1.35193,0.00767945,0,0,0,0,0,0,0.031,0.088,-0.317,0,0,0.003,-5.67,30.968,-2.884,1.267,-0.38043,0.118356
23:23:34:784189,3.49066e-05,-0.58198,1.18675,1.74533e-05,1.35193,0.00767945,0,0,0,0,0,0,-0.005,0.082,-0.229,0,0,0.002,-5.586,31.08,-3.178,0.714,-0.342387,0.083131
23:23:34:789315,3.49066e-05,-0.58198,1.18675,1.74533e-05,1.35193,0.00767945,0,0,0,0,0,0,-0.034,0.03,-0.025,0,0,0,-5.782,31.493,-2.457,0.777,-0.219804,0.153581
23:23:34:794297,3.49066e-05,-0.58198,1.18675,1.74533e-05,1.35193,0.00767945,0,0,0,0,0,0,-0.027,-0.016,0.108,0,0,0,-5.215,31.535,-2.856,0.707,-0.273346,-0.059178
23:23:34:799249,3.49066e-05,-0.58198,1.18675,1.74533e-05,1.35193,0.00767945,0,0,0,0,0,0,0.001,-0.044,0.166,0,0,-0.001,-5.117,31.136,-2.219,1.232,-0.297299,-0.035225
